!!!!SEGMENT: pl-kk--kk-i-470--006_raszek-waclaw--missa-toni-c-dona-nobis.krn
!!!cenid: 17xx:1891
!!!COM: Raszek, Wacław
!!!COM-rism: pe30020314
!!!CDT: >1848->1848
!!!CNT:
!!!OTL: Missa toni C – Dona nobis
!!!PDT:
!!!AGN: Sacred; Mass
!!!SMS-siglum: PL-Kk
!!!SMS-shelfmark: Kk.I.470
!!!NIFC-rismID: 1001139773
!!!URL-scan: http://repozytorium.nifc.pl/skany/pl-kk-nut--i-470
!!!ONB-nifc: UWAGA: części Mszy: 1. Kyrie, 2. Gloria, 3. Credo, 4. Sanctus, 5. Agnus Dei, 6. Dona nobis
!!!SMS-variant: Violino Secondo: PL-KK KK I 470:39
!!!SMS-altvar: Violino Secundo.: PL-KK KK I 470:45
**kern	**fba	**dynam	**kern	**kern	**dynam	**kern	**dynam	**kern	**dynam	**kern	**dynam	**kern	**text	**dynam	**kern	**text	**kern	**text	**dynam	**kern	**text	**dynam	**kern	**dynam	**kern	**dynam	**kern	**dynam	**kern	**kern	**kern	**kern
*part17	*	*part17	*part16	*part15	*part15	*part14	*part14	*part13	*part13	*part12	*part12	*part11	*part11	*part11	*part10	*part10	*part9	*part9	*part9	*part8	*part8	*part8	*part7	*part7	*part6	*part6	*part5	*part5	*part4	*part3	*part2	*part1
*	*	*	*group4	*group4	*	*group4	*	*group4	*	*group4	*	*group3	*	*	*group3	*	*group3	*	*	*group3	*	*	*	*	*group2	*	*group2	*	*group2	*group2	*group1	*group1
*staff17	*	*	*staff16	*staff15	*	*staff14	*	*staff13	*	*staff12	*	*staff11	*staff11	*	*staff10	*staff10	*staff9	*staff9	*	*staff8	*staff8	*	*staff7	*	*staff6	*	*staff5	*	*staff4	*staff3	*staff2	*staff1
*I"Organo.	*	*	*I"[Violone]	*I"Viola obligt:	*	*I"Violino Secondo.	*	*I"Violino Primo.	*	*I"Violino Principale.	*	*I"Baſso.	*	*	*I"Tenore.	*	*I"Alto.	*	*	*I"Canto.	*	*	*I"Timpano in C.	*	*I"Clarino 2do in C.	*	*I"Clarino Primo. in C.	*	*I"[Corno II]	*I"[Corno I]	*I"[Oboe II]	*I"[Oboe I]
*I'org	*	*	*I'vlne	*I'vla obl.	*	*I'vl 2	*	*I'vl 1	*	*I'vl princ.	*	*I'B	*	*	*I'T	*	*I'A	*	*	*I'S	*	*	*I'timp	*	*I'clno 2	*	*I'clno 1	*	*I'cor II	*I'cor I	*I'ob II	*I'ob I
*clefF4	*	*	*clefF4	*clefC3	*	*clefG2	*	*clefG2	*	*clefG2	*	*clefF4	*	*	*clefC4	*	*clefC3	*	*	*clefC1	*	*	*clefF4	*	*clefG2	*	*clefG2	*	*clefG2	*clefG2	*clefG2	*clefG2
*k[fnbnan]	*	*	*k[]	*k[]	*	*k[bnenan]	*	*k[bnenan]	*	*k[enbnan]	*	*k[]	*	*	*k[]	*	*k[bnenan]	*	*	*k[bnenan]	*	*	*k[]	*	*k[]	*	*k[]	*	*k[]	*k[]	*k[]	*k[]
*M3/8	*	*	*M3/8	*M3/8	*	*M3/8	*	*M3/8	*	*M3/8	*	*M3/8	*	*	*M3/8	*	*M3/8	*	*	*M3/8	*	*	*M3/8	*	*M3/8	*	*M3/8	*	*M3/8	*M3/8	*M3/8	*M3/8
=1	=1	=1	=1	=1	=1	=1	=1	=1	=1	=1	=1	=1	=1	=1	=1	=1	=1	=1	=1	=1	=1	=1	=1	=1	=1	=1	=1	=1	=1	=1	=1	=1
*	*	*	*	*	*	*	*	*	*below	*	*below	*	*	*	*	*	*	*	*	*	*	*	*	*	*	*	*	*	*	*	*	*
!LO:TX:b:t=|:problem	!	!	!	!	!	!	!	!	!	!	!	!	!	!	!	!	!	!	!	!	!	!	!	!	!	!	!	!	!	!	!	!
!LO:TX:t=P:problem:mixed beam	!	!	!	!	!	!	!	!	!	!	!	!	!	!	!	!	!	!	!	!	!	!	!	!	!	!	!	!	!	!	!	!
!LO:TX:a:t=Tutti	!	!	!	!	!	!	!	!LO:TX:a:t=allŏ&colon;	!	!	!	!	!	!	!	!	!	!	!	!	!	!	!	!	!	!	!	!	!	!	!	!
!LO:TX:t=P:problem:znaki przy kluczu Fn (błędnie zamiast En) BBn An	!	!	!LO:TX:a:t=P:problem:partia wybrakowana, brak tej części	!LO:TX:a:t=allŏ&colon;	!	!LO:TX:a:t=allŏ&colon;	!	!LO:TX:b:t=Dona	!	!LO:TX:a:t=allŏ&colon;	!	!	!	!	!	!	!LO:TX:t=P:problem:znaki przy kluczu Bn en an	!	!	!	!	!	!	!	!	!	!	!	!LO:TX:a:t=P:problem:brak partii w źródle	!LO:TX:a:t=P:problem:brak partii w źródle	!LO:TX:a:t=P:problem:brak partii w źródle	!LO:TX:a:t=P:problem:brak partii w źródle
!LO:TX:b:t=Dona&colon;	!	!LO:DY:rj	!	!LO:TX:b:t=Dona	!LO:DY:rj	!LO:TX:t=P:problem:mixed beam	!LO:DY:rj	!	!LO:DY:rj	!LO:TX:b:t=Dona	!	!LO:TX:b:t=Dona	!	!	!	!	!LO:TX:a:t=allŏ&colon;	!	!	!LO:TX:t=P:problem:znaki przy kluczu bn een an	!	!	!LO:TX:a:t=allŏ&colon;	!	!LO:TX:a:t=allŏ&colon;	!	!LO:TX:a:t=allŏ&colon;	!	!	!	!	!
!LO:TX:a:t=allŏ&colon;	!	!	!	!LO:TX:t=P:problem:mixed beam	!	!LO:TX:b:t=Dona&colon;	!	!LO:TX:t=P:problem:mixed beam	!	!LO:TX:t=P:problem:mixed beam	!	!LO:TX:a:t=allŏ= T=	!	!	!LO:TX:a:t=allŏ&colon; T&colon;	!	!LO:TX:a:t=T&colon;	!	!	!LO:TX:a:t=allŏ&colon; T&colon;	!	!	!LO:TX:b:t=Dona	!	!LO:TX:b:t=Dona	!	!LO:TX:b:t=Dona	!	!	!	!	!
8C/L	.	f	4.ryy	8C/L	f	8c/L	f	8c/L	f	8c/L	.	4c\	Do-	.	4c\	Do-	4cc\	Do-	.	4cc\	Do-	.	8C/	.	8e/	.	8cc\	.	4.ryy	4.ryy	4.ryy	4.ryy
!LO:TX:a:t=|:problem	!	!	!	!	!	!	!	!	!	!	!	!	!	!	!	!	!	!	!	!	!	!	!	!	!	!	!	!	!	!	!	!
8c\	.	.	.	8c\	.	8cc\	.	8cc\	.	8cc\	f	.	.	.	.	.	.	.	.	.	.	.	8r	.	8r	.	8r	.	.	.	.	.
!LO:TX:a:t=|:problem	!	!	!	!	!	!	!	!	!	!	!	!	!	!	!	!	!	!	!	!	!	!	!	!	!	!	!	!	!	!	!	!
8c\J	.	.	.	8c\J	.	8cc\J	.	8cc\J	.	8cc\J	.	8c\	-na	.	8c\	-na	8cc\	-na	.	8cc\	-na	.	8r	.	8r	.	8r	.	.	.	.	.
=2	=2	=2	=2	=2	=2	=2	=2	=2	=2	=2	=2	=2	=2	=2	=2	=2	=2	=2	=2	=2	=2	=2	=2	=2	=2	=2	=2	=2	=2	=2	=2	=2
!LO:TX:a:t=|:problem	!	!	!	!	!	!	!	!	!	!	!	!	!	!	!	!	!	!	!	!	!	!	!	!	!	!	!	!	!	!	!	!
(16c\LL	.	.	4.ryy	16c/LL	.	(16cc\LL	.	16cc\LL	.	16cc\LL	.	16c\LL	do-	.	16c\LL	do-	16cc\LL	do-	.	16cc\LL	do-	.	8r	.	8r	.	8r	.	4.ryy	4.ryy	4.ryy	4.ryy
!LO:TX:a:t=|:problem	!	!	!	!	!	!	!	!	!	!	!	!	!	!	!	!	!	!	!	!	!	!	!	!	!	!	!	!	!	!	!	!
16B\	.	.	.	(16B/	.	16b\	.	(16b\	.	(16b\	.	16B\	.	.	16B\	.	(16b\	.	.	(16b\	.	.	.	.	.	.	.	.	.	.	.	.
!LO:TX:a:t=|:problem	!	!	!	!	!	!	!	!	!	!	!	!	!	!	!	!	!	!	!	!	!	!	!	!	!	!	!	!	!	!	!	!
16A\	.	.	.	16A/	.	16a\	.	16a\	.	16a\	.	(16A\	.	.	16A\	.	16a\	.	.	16a\	.	.	8r	.	8r	.	8r	.	.	.	.	.
!LO:TX:a:t=|:problem	!	!	!	!	!	!	!	!	!	!	!	!	!	!	!	!	!	!	!	!	!	!	!	!	!	!	!	!	!	!	!	!
16G\	.	.	.	16G/	.	16g\	.	16g\	.	16g\	.	16G\	.	.	16G\	.	16g\	.	.	16g\	.	.	.	.	.	.	.	.	.	.	.	.
!LO:TX:a:t=|:problem	!	!	!	!	!	!	!	!	!	!	!	!	!	!	!	!	!	!	!	!	!	!	!	!	!	!	!	!	!	!	!	!
16A\)	.	.	.	16A/	.	16a\)	.	16a\)	.	16a\)	.	16A\)	.	.	16A\	.	16a\)	.	.	16a\)	.	.	8GG/	.	8g/	.	8dd\	.	.	.	.	.
!LO:TX:a:t=|:problem	!	!	!	!	!	!	!	!	!	!	!	!	!	!	!	!	!	!	!	!	!	!	!	!	!	!	!	!	!	!	!	!
16B\JJ	.	.	.	16B/JJ)	.	16b\JJ	.	16b\JJ	.	16b\JJ	.	16B\JJ	.	.	16B\JJ	.	16b\JJ	.	.	16b\JJ	.	.	.	.	.	.	.	.	.	.	.	.
=3	=3	=3	=3	=3	=3	=3	=3	=3	=3	=3	=3	=3	=3	=3	=3	=3	=3	=3	=3	=3	=3	=3	=3	=3	=3	=3	=3	=3	=3	=3	=3	=3
!LO:TX:a:t=|:problem	!	!	!	!	!	!	!	!	!	!	!	!	!	!	!	!	!	!	!	!	!	!	!	!	!	!	!	!	!	!	!	!
8c\	.	.	4.ryy	8c/	.	8cc\L	.	8cc\L	.	8cc\L	.	8c\	-na	.	8c\	-na	8cc\	-na	.	8cc\	-na	.	8C/	.	8cc\	.	8ee\	.	4.ryy	4.ryy	4.ryy	4.ryy
!	!	!	!	!	!	! :global	!	! :global	!	! :global	!	!	!	!	!	!	!	!	!	!	!	!	!	!	!	!	!	!	!	!	!	!
8r	.	.	.	8r	.	8ee\	p	8ccc\	p	8ccc\	p	8r	.	.	8r	.	8r	.	.	8r	.	.	8r	.	8r	.	8r	.	.	.	.	.
8r	.	.	.	8r	.	8ee\J	.	8gg\J	.	8gg\J	.	8r	.	.	8r	.	8r	.	.	8r	.	.	8r	.	8r	.	8r	.	.	.	.	.
=4	=4	=4	=4	=4	=4	=4	=4	=4	=4	=4	=4	=4	=4	=4	=4	=4	=4	=4	=4	=4	=4	=4	=4	=4	=4	=4	=4	=4	=4	=4	=4	=4
!	!	!	!	!	!	!	!	!	!	!	!	!	!	!	!	!	!	!	!	!	!	!	!	!LO:DY:rj	!	!	!	!	!	!	!	!
4.r	.	.	4.ryy	8r	p	4ee\	.	4gg\	.	4gg\	.	4.r	.	.	4.r	.	4.r	.	.	4.r	.	.	8r	p	4.r	.	4.r	.	4.ryy	4.ryy	4.ryy	4.ryy
.	.	.	.	8G/L	.	.	.	.	.	.	.	.	.	.	.	.	.	.	.	.	.	.	8GG/L	.	.	.	.	.	.	.	.	.
.	.	.	.	8G/J	.	8dd\	.	8ff\	.	8ff\	.	.	.	.	.	.	.	.	.	.	.	.	8GG/J	.	.	.	.	.	.	.	.	.
!	!	!	!	!LO:LB:g=original	!	!	!	!	!	!	!	!	!	!	!	!	!	!	!	!	!	!	!	!	!	!	!	!	!	!	!	!
=5	=5	=5	=5	=5	=5	=5	=5	=5	=5	=5	=5	=5	=5	=5	=5	=5	=5	=5	=5	=5	=5	=5	=5	=5	=5	=5	=5	=5	=5	=5	=5	=5
!LO:TX:t=P:problem:mixed beam	!	!	!	!LO:TX:t=P:problem:mixed beam	!	!	!	!	!	!	!	!	!	!	!	!	!	!	!	!	!	!	!	!	!	!	!	!	!	!	!	!
8C/L	.	.	4.ryy	8C/L	.	8cc\L	f	8ee\L	f	8ee\L	.	8r	.	.	8r	.	4cc\	no-	.	8r	.	.	8C/	f	8e/	.	8cc\	.	4.ryy	4.ryy	4.ryy	4.ryy
!LO:TX:a:t=|:problem	!	!	!	!	!	!	!	!	!	!	!LO:DY:a	!	!	!	!	!	!	!	!	!	!	!	!	!	!	!	!	!	!	!	!	!
8c\	.	.	.	8c\	f	8cc\	.	8cc\	.	8cc\	f	8c\	no-	.	8c\	no-	.	.	.	8cc\	no-	.	8r	.	8r	.	8r	.	.	.	.	.
!LO:TX:a:t=|:problem	!	!	!	!	!	!	!	!	!	!	!	!	!	!	!	!	!	!	!	!	!	!	!	!	!	!	!	!	!	!	!	!
8c\J	.	.	.	8c\J	.	8cc\J	.	8cc\J	.	8cc\J	.	8c\	-bis	.	8c\	-bis	8cc\	-bis	.	8cc\	-bis	.	8r	.	8r	.	8r	.	.	.	.	.
!	!	!	!	!	!	!	!	!	!	!	!	!	!	!	!LO:LB:g=original	!	!	!	!	!	!	!	!	!	!	!	!	!	!	!	!	!
=6	=6	=6	=6	=6	=6	=6	=6	=6	=6	=6	=6	=6	=6	=6	=6	=6	=6	=6	=6	=6	=6	=6	=6	=6	=6	=6	=6	=6	=6	=6	=6	=6
!LO:TX:a:t=|:problem	!	!	!	!	!	!	!	!	!	!	!	!	!	!	!	!	!	!	!	!	!	!	!	!	!	!	!	!	!	!	!	!
16c\LL	.	.	4.ryy	16c/LL	.	16cc\LL	.	16cc\LL	.	16cc\LL	.	16c\LL	pa-	.	16c\LL	pa-	16cc\LL	pa-	.	16cc\LL	pa-	.	8r	.	8r	.	8r	.	4.ryy	4.ryy	4.ryy	4.ryy
!LO:TX:a:t=|:problem	!	!	!	!	!	!	!	!	!	!	!	!	!	!	!	!	!	!	!	!	!	!	!	!	!	!	!	!	!	!	!	!
(16B\	.	.	.	(16B/	.	(16b\	.	(16b\	.	(16b\	.	(16B\	.	.	16B\	.	(16b\	.	.	(16b\	.	.	.	.	.	.	.	.	.	.	.	.
!LO:TX:a:t=|:problem	!	!	!	!	!	!	!	!	!	!	!	!	!	!	!	!	!	!	!	!	!	!	!	!	!	!	!	!	!	!	!	!
16A\	.	.	.	16A/	.	16a\	.	16a\	.	16a\	.	16A\	.	.	16A\	.	16a\	.	.	16a\	.	.	8r	.	8r	.	8r	.	.	.	.	.
!LO:TX:a:t=|:problem	!	!	!	!	!	!	!	!	!	!	!	!	!	!	!	!	!	!	!	!	!	!	!	!	!	!	!	!	!	!	!	!
16G\	.	.	.	16G/	.	16g\	.	16g\	.	16g\	.	16G\	.	.	16G\	.	16g\	.	.	16g\	.	.	.	.	.	.	.	.	.	.	.	.
!LO:TX:a:t=|:problem	!	!	!	!	!	!	!	!	!	!	!	!	!	!	!	!	!	!	!	!	!	!	!	!	!LO:TX:a:i:t=Solo.	!	!	!	!	!	!	!
16A\)	.	.	.	16A/	.	16a\)	.	16a\)	.	16a\)	.	16A\)	.	.	16A\	.	16a\)	.	.	16a\)	.	.	8GG/	.	8g/	.	8dd\	.	.	.	.	.
!LO:TX:a:t=|:problem	!	!	!	!	!	!	!	!	!	!	!	!	!	!	!	!	!	!	!	!	!	!	!	!	!	!	!	!	!	!	!	!
16B\JJ	.	.	.	16B/JJ)	.	16b\JJ	.	16b\JJ	.	16b\JJ	.	16B\JJ	.	.	16B\JJ	.	16b\JJ	.	.	16b\JJ	.	.	.	.	.	.	.	.	.	.	.	.
!	!	!	!	!	!	!	!	!	!	!	!	!LO:LB:g=original	!	!	!	!	!LO:LB:g=original	!	!	!	!	!	!	!	!	!	!	!	!	!	!	!
=7	=7	=7	=7	=7	=7	=7	=7	=7	=7	=7	=7	=7	=7	=7	=7	=7	=7	=7	=7	=7	=7	=7	=7	=7	=7	=7	=7	=7	=7	=7	=7	=7
!LO:TX:a:t=|:problem	!	!	!	!	!	!LO:TX:t=P:problem:mixed beam	!	!LO:TX:t=P:problem:mixed beam	!	!LO:TX:t=P:problem:mixed beam	!	!	!	!	!	!	!	!	!	!	!	!	!	!	!	!	!LO:TX:a:t=Šolo	!	!	!	!	!
8c\	.	.	4.ryy	8c/	.	8cc\L	.	8cc\L	.	8cc\L	.	8c\	-cem	.	8c\	-cem	8cc\	-cem	.	8cc\	-cem	.	8C/	.	8cc\L	.	8ee\L	.	4.ryy	4.ryy	4.ryy	4.ryy
8r	.	.	.	8r	.	8g/	p	8ee\	p	8ee\	p	8r	.	.	8r	.	8r	.	.	8r	.	.	8r	.	8ee\	.	8gg\	.	.	.	.	.
8r	.	.	.	8r	.	8e/J	.	8g/J	.	8g/J	.	8r	.	.	8r	.	8r	.	.	8r	.	.	8r	.	8ee\J	.	8gg\J	.	.	.	.	.
!LO:LB:g=original	!	!	!	!	!	!	!	!	!	!	!	!	!	!	!	!	!	!	!	!	!	!	!	!	!	!	!	!	!	!	!	!
=8	=8	=8	=8	=8	=8	=8	=8	=8	=8	=8	=8	=8	=8	=8	=8	=8	=8	=8	=8	=8	=8	=8	=8	=8	=8	=8	=8	=8	=8	=8	=8	=8
4.r	.	.	4.ryy	8r	.	4e/	.	4g/	.	4g/	.	4.r	.	.	4.r	.	4.r	.	.	4.r	.	.	8r	.	4ee\	.	4gg\	.	4.ryy	4.ryy	4.ryy	4.ryy
.	.	.	.	8G/L	p	.	.	.	.	.	.	.	.	.	.	.	.	.	.	.	.	.	8GG/L	p	.	.	.	.	.	.	.	.
.	.	.	.	8G/J	.	8d/	.	8f/	.	8f/	.	.	.	.	.	.	.	.	.	.	.	.	8GG/J	.	8dd\	.	8ff\	.	.	.	.	.
!	!	!	!	!	!	!LO:LB:g=original	!	!	!	!	!	!	!	!	!	!	!	!	!	!LO:LB:g=original	!	!	!	!	!	!	!	!	!	!	!	!
=9	=9	=9	=9	=9	=9	=9	=9	=9	=9	=9	=9	=9	=9	=9	=9	=9	=9	=9	=9	=9	=9	=9	=9	=9	=9	=9	=9	=9	=9	=9	=9	=9
!LO:TX:t=P:problem:mixed beam	!	!	!	!LO:TX:t=P:problem:mixed beam	!	!	!	!LO:TX:t=P:problem:mixed beam	!	!LO:TX:t=P:problem:mixed beam	!	!	!	!	!	!	!	!	!	!	!	!	!	!	!	!	!	!	!	!	!	!
8C/L	.	.	4.ryy	8C/L	.	8c/L	.	8e/L	.	8e/L	.	4c\	do-	.	8r	.	4g\	do-	.	8r	.	.	8C/	.	8cc\	.	8ee\	.	4.ryy	4.ryy	4.ryy	4.ryy
8c\	.	.	.	8c\	f	8g/	f	8ee\	f	8ee\	f	.	.	.	8c\	do-	.	.	.	8ee\	do-	.	8r	.	8r	.	8r	.	.	.	.	.
8c\J	.	.	.	8c\J	.	8g/J	.	8ee\J	.	8ee\J	.	8c\	-na	.	8c\	-na	8g\	-na	.	8ee\	-na	.	8r	.	8r	.	8r	.	.	.	.	.
!	!	!	!	!	!	!	!	!	!	!	!	!	!	!	!	!	!	!	!	!	!	!	!	!	!LO:LB:g=original	!	!LO:LB:g=original	!	!	!	!	!
=10	=10	=10	=10	=10	=10	=10	=10	=10	=10	=10	=10	=10	=10	=10	=10	=10	=10	=10	=10	=10	=10	=10	=10	=10	=10	=10	=10	=10	=10	=10	=10	=10
!	!	!	!	!	!	!	!	!	!	!	!	!	!	!	!	!	!	!	!	!	!	!	!LO:TX:a:t=9.	!	!LO:TX:a:t=5.	!	!LO:TX:a:t=5.	!	!	!	!	!
!	!	!	!	!	!	!	!	!	!	!	!	!	!	!	!	!	!	!	!	!	!	!	!LO:N:vis=00	!	!LO:N:vis=00	!	!LO:N:vis=00	!	!	!	!	!
8F#X\L	7	.	4.ryy	8c\L	.	8a/L	.	(16ee\LL	.	(16ee\LL	.	4F#X\	do-	.	4c\	do-	4a\	do-	.	4ee\	do-	.	1.r	.	1.r	.	1.r	.	4.ryy	4.ryy	4.ryy	4.ryy
.	.	.	.	.	.	.	.	16dd\	.	16dd\	.	.	.	.	.	.	.	.	.	.	.	.	.	.	.	.	.	.	.	.	.	.
8F#\	.	.	.	8c\	.	8a/	.	16cc\	.	16cc\	.	.	.	.	.	.	.	.	.	.	.	.	.	.	.	.	.	.	.	.	.	.
.	.	.	.	.	.	.	.	16b\J)	.	16b\J)	.	.	.	.	.	.	.	.	.	.	.	.	.	.	.	.	.	.	.	.	.	.
!	!	!	!	!	!	!	!	!LO:TX:a:t=|:problem	!	!LO:TX:a:t=|:problem	!	!	!	!	!	!	!	!	!	!	!	!	!	!	!	!	!	!	!	!	!	!
8F#\J	.	.	.	8c\J	.	8a/J	.	8a\J	.	8a\J	.	8F#\	-na	.	8c\	-na	8a\	-na	.	8ee\	-na	.	.	.	.	.	.	.	.	.	.	.
!	!	!	!	!LO:LB:g=original	!	!	!	!LO:LB:g=original	!	!	!	!	!	!	!	!	!	!	!	!	!	!	!	!	!	!	!	!	!	!	!	!
=11	=11	=11	=11	=11	=11	=11	=11	=11	=11	=11	=11	=11	=11	=11	=11	=11	=11	=11	=11	=11	=11	=11	=11	=11	=11	=11	=11	=11	=11	=11	=11	=11
!	!	!	!	!	!	!	!	!LO:TX:t=P:problem:mixed beam	!	!LO:TX:t=P:problem:mixed beam	!	!	!	!	!	!	!	!	!	!	!	!	!	!	!	!	!	!	!	!	!	!
8B\L	7	.	4.ryy	8B/L	.	8a/L	.	8d/L	.	8d/L	.	4B\	no-	.	4B\	no-	4a\	no-	.	4dd\	no-	.	.	.	.	.	.	.	4.ryy	4.ryy	4.ryy	4.ryy
8B\	.	.	.	8B/	.	8a/	.	8dd\	.	8dd\	.	.	.	.	.	.	.	.	.	.	.	.	.	.	.	.	.	.	.	.	.	.
8B\J	.	.	.	8B/J	.	8a/J	.	8dd\J	.	8dd\J	.	8B\	-bis	.	8B\	-bis	8a\	-bis	.	8dd\	-bis	.	.	.	.	.	.	.	.	.	.	.
!	!	!	!	!	!	!	!	!	!	!	!	!	!	!	!LO:LB:g=original	!	!	!	!	!	!	!	!	!	!	!	!	!	!	!	!	!
=12	=12	=12	=12	=12	=12	=12	=12	=12	=12	=12	=12	=12	=12	=12	=12	=12	=12	=12	=12	=12	=12	=12	=12	=12	=12	=12	=12	=12	=12	=12	=12	=12
8E\L	7	.	4.ryy	8B/L	.	8g/L	.	(16dd\LL	.	(16dd\LL	.	4E\	pa-	.	4B\	pa-	4g\	pa-	.	4dd\	pa-	.	.	.	.	.	.	.	4.ryy	4.ryy	4.ryy	4.ryy
.	.	.	.	.	.	.	.	16cc\	.	16cc\	.	.	.	.	.	.	.	.	.	.	.	.	.	.	.	.	.	.	.	.	.	.
8E\	.	.	.	8B/	.	8g/	.	16b\	.	16b\	.	.	.	.	.	.	.	.	.	.	.	.	.	.	.	.	.	.	.	.	.	.
.	.	.	.	.	.	.	.	16a\J)	.	16a\J)	.	.	.	.	.	.	.	.	.	.	.	.	.	.	.	.	.	.	.	.	.	.
!	!	!	!	!	!	!	!	!LO:TX:a:t=|:problem	!	!LO:TX:a:t=|:problem	!	!	!	!	!	!	!	!	!	!	!	!	!	!	!	!	!	!	!	!	!	!
8E\J	.	.	.	8B/J	.	8g/J	.	8g\J	.	8g\J	.	8E\	-cem	.	8B\	-cem	8g\	-cem	.	8dd\	-cem	.	.	.	.	.	.	.	.	.	.	.
!	!	!	!	!	!	!	!	!	!	!LO:LB:g=original	!	!	!	!	!	!	!	!	!	!	!	!	!	!	!	!	!	!	!	!	!	!
=13	=13	=13	=13	=13	=13	=13	=13	=13	=13	=13	=13	=13	=13	=13	=13	=13	=13	=13	=13	=13	=13	=13	=13	=13	=13	=13	=13	=13	=13	=13	=13	=13
!	!	!	!	!	!	!	!	!LO:TX:t=P:problem:mixed beam	!	!LO:TX:t=P:problem:mixed beam	!	!	!	!	!	!	!	!	!	!	!	!	!	!	!	!	!	!	!	!	!	!
8A\L	7	.	4.ryy	8A/L	.	8g/L	.	8c/L	.	8c/L	.	4A\	do-	.	4A/	do-	4g\	do-	.	4cc\	do-	.	.	.	.	.	.	.	4.ryy	4.ryy	4.ryy	4.ryy
8A\	.	.	.	8A/	.	8g/	.	8cc\	.	8cc\	.	.	.	.	.	.	.	.	.	.	.	.	.	.	.	.	.	.	.	.	.	.
8A\J	.	.	.	8A/J	.	8g/J	.	8cc\J	.	8cc\J	.	8A\	-na	.	8A/	-na	8g\	-na	.	8cc\	-na	.	.	.	.	.	.	.	.	.	.	.
=14	=14	=14	=14	=14	=14	=14	=14	=14	=14	=14	=14	=14	=14	=14	=14	=14	=14	=14	=14	=14	=14	=14	=14	=14	=14	=14	=14	=14	=14	=14	=14	=14
!	!	!	!	!	!	!	!	!	!	!	!	!	!	!	!	!	!	!	!	!	!	!	!LO:N:vis=00	!	!	!	!	!	!	!	!	!
8D\L	7 #	.	4.ryy	8A/L	.	8f#X/L	.	(16cc/LL	.	(16cc/LL	.	4D/	no-	.	4A/	no-	4f#X\	no-	.	4cc\	no-	.	1.r	.	4.r	.	4.r	.	4.ryy	4.ryy	4.ryy	4.ryy
.	.	.	.	.	.	.	.	16b/	.	16b/	.	.	.	.	.	.	.	.	.	.	.	.	.	.	.	.	.	.	.	.	.	.
8D\	.	.	.	8A/	.	8f#/	.	16a/	.	16a/	.	.	.	.	.	.	.	.	.	.	.	.	.	.	.	.	.	.	.	.	.	.
.	.	.	.	.	.	.	.	16g/J)	.	16g/J)	.	.	.	.	.	.	.	.	.	.	.	.	.	.	.	.	.	.	.	.	.	.
!	!	!	!	!	!	!	!	!LO:TX:b:t=|:problem	!	!	!	!	!	!	!	!	!	!	!	!	!	!	!	!	!	!	!	!	!	!	!	!
8D\J	.	.	.	8A/J	.	8f#/J	.	8f#X/J	.	8f#X/J	.	8D/	-bis	.	8A/	-bis	8f#\	-bis	.	8cc\	-bis	.	.	.	.	.	.	.	.	.	.	.
!	!	!	!	!	!	!	!	!	!	!	!	!LO:LB:g=original	!	!	!	!	!LO:LB:g=original	!	!	!	!	!	!	!	!	!	!	!	!	!	!	!
=15	=15	=15	=15	=15	=15	=15	=15	=15	=15	=15	=15	=15	=15	=15	=15	=15	=15	=15	=15	=15	=15	=15	=15	=15	=15	=15	=15	=15	=15	=15	=15	=15
!	!	!	!	!	!	!	!	!	!	!	!	!	!	!	!	!	!	!	!	!	!	!	!	!	!	!	!	!LO:DY:rj	!	!	!	!
8G\L	.	.	4.ryy	(8G/L	.	16g/LL	.	(8b\L	.	(8b\L	.	8G\L	pa-	.	4.G/	pa-	4.d\	pa-	.	4.b\	pa-	.	.	.	4.g/	.	4.dd\	f	4.ryy	4.ryy	4.ryy	4.ryy
.	.	.	.	.	.	16d/	.	.	.	.	.	.	.	.	.	.	.	.	.	.	.	.	.	.	.	.	.	.	.	.	.	.
8B\	.	.	.	8B/)	.	16d/	.	8dd\	.	8dd\)	.	8B\	.	.	.	.	.	.	.	.	.	.	.	.	.	.	.	.	.	.	.	.
.	.	.	.	.	.	16d/	.	.	.	.	.	.	.	.	.	.	.	.	.	.	.	.	.	.	.	.	.	.	.	.	.	.
!	!	!	!	!LO:TX:b:t=|:problem	!	!	!	!	!	!	!	!	!	!	!	!	!	!	!	!	!	!	!	!	!	!	!	!	!	!	!	!
8G\J	.	.	.	8B/J	.	16d/	.	8gg\J)	.	8gg\J	.	8G\J	.	.	.	.	.	.	.	.	.	.	.	.	.	.	.	.	.	.	.	.
.	.	.	.	.	.	16d/JJ	.	.	.	.	.	.	.	.	.	.	.	.	.	.	.	.	.	.	.	.	.	.	.	.	.	.
=16	=16	=16	=16	=16	=16	=16	=16	=16	=16	=16	=16	=16	=16	=16	=16	=16	=16	=16	=16	=16	=16	=16	=16	=16	=16	=16	=16	=16	=16	=16	=16	=16
*	*	*	*	*	*	*tremolo	*	*	*	*	*	*	*	*	*	*	*	*	*	*	*	*	*	*	*	*	*	*	*	*	*	*
8A\L	6_ 4_ 3_	.	4.ryy	(8F#X/L	.	16d/LL	.	(8ff#X\L	.	(8ff#X\L	.	8A\L	.	.	8F#X/L	.	4.d\	.	.	4.cc\	.	.	.	.	4.dd\	.	4.dd\	.	4.ryy	4.ryy	4.ryy	4.ryy
.	.	.	.	.	.	16d/	.	.	.	.	.	.	.	.	.	.	.	.	.	.	.	.	.	.	.	.	.	.	.	.	.	.
8F#X\	.	.	.	8A/)	.	16d/	.	8aa\	.	8aa\)	.	8F#X\	.	.	8A/	.	.	.	.	.	.	.	.	.	.	.	.	.	.	.	.	.
.	.	.	.	.	.	16d/	.	.	.	.	.	.	.	.	.	.	.	.	.	.	.	.	.	.	.	.	.	.	.	.	.	.
!	!	!	!	!LO:TX:b:t=|:problem	!	!	!	!	!	!	!	!	!	!	!	!	!	!	!	!	!	!	!	!	!	!	!	!	!	!	!	!
8D\J	.	.	.	8F#X/J	.	16d/	.	8cc\J)	.	8cc\J	.	8D\J	.	.	8F#/J	.	.	.	.	.	.	.	.	.	.	.	.	.	.	.	.	.
.	X X X	.	.	.	.	16d/JJ	.	.	.	.	.	.	.	.	.	.	.	.	.	.	.	.	.	.	.	.	.	.	.	.	.	.
!	!	!	!	!LO:LB:g=original	!	!	!	!	!	!	!	!	!	!	!	!	!	!	!	!	!	!	!	!	!	!	!	!	!	!	!	!
=17	=17	=17	=17	=17	=17	=17	=17	=17	=17	=17	=17	=17	=17	=17	=17	=17	=17	=17	=17	=17	=17	=17	=17	=17	=17	=17	=17	=17	=17	=17	=17	=17
!	!	!	!	!	!	!	!	!LO:TX:t=P:problem:mixed beam	!	!LO:TX:t=P:problem:mixed beam	!	!	!	!	!	!	!	!	!	!	!	!	!	!	!	!	!	!	!	!	!	!
8G\L	.	.	4.ryy	(8G/L	.	16d/LL	.	(8b\L	.	(8b\L	.	8G\L	.	.	4.G/	.	4.d\	.	.	4.b\	.	.	.	.	4.g/	.	4.dd\	.	4.ryy	4.ryy	4.ryy	4.ryy
.	.	.	.	.	.	16d/	.	.	.	.	.	.	.	.	.	.	.	.	.	.	.	.	.	.	.	.	.	.	.	.	.	.
8B\	.	.	.	8B/)	.	16d/	.	8dd\	.	8dd\	.	8B\	.	.	.	.	.	.	.	.	.	.	.	.	.	.	.	.	.	.	.	.
.	.	.	.	.	.	16d/	.	.	.	.	.	.	.	.	.	.	.	.	.	.	.	.	.	.	.	.	.	.	.	.	.	.
!	!	!	!	!LO:TX:b:t=|:problem	!	!	!	!	!	!	!	!	!	!	!	!	!	!	!	!	!	!	!	!	!	!	!	!	!	!	!	!
8G\J	.	.	.	8G/J	.	16d/	.	8g/J)	.	8g/J)	.	8G\J	.	.	.	.	.	.	.	.	.	.	.	.	.	.	.	.	.	.	.	.
.	.	.	.	.	.	16d/JJ	.	.	.	.	.	.	.	.	.	.	.	.	.	.	.	.	.	.	.	.	.	.	.	.	.	.
=18	=18	=18	=18	=18	=18	=18	=18	=18	=18	=18	=18	=18	=18	=18	=18	=18	=18	=18	=18	=18	=18	=18	=18	=18	=18	=18	=18	=18	=18	=18	=18	=18
8A\L	6_ 4_ 3_	.	4.ryy	(8A/L	.	16d/LL	.	(8f#X/L	.	(8f#X/L	.	8A\L	.	.	8F#X/L	.	4.d\	.	.	4.cc\	.	.	4.r	.	4.dd\	.	4.dd\	.	4.ryy	4.ryy	4.ryy	4.ryy
.	.	.	.	.	.	16d/	.	.	.	.	.	.	.	.	.	.	.	.	.	.	.	.	.	.	.	.	.	.	.	.	.	.
8F#X\	.	.	.	8F#X/)	.	16d/	.	8a/	.	8a/)	.	8F#X\	.	.	8A/	.	.	.	.	.	.	.	.	.	.	.	.	.	.	.	.	.
.	.	.	.	.	.	16d/	.	.	.	.	.	.	.	.	.	.	.	.	.	.	.	.	.	.	.	.	.	.	.	.	.	.
!	!	!	!	!LO:TX:b:t=|:problem	!	!	!	!	!	!	!	!	!	!	!	!	!	!	!	!	!	!	!	!	!	!	!	!	!	!	!	!
8D\J	.	.	.	8F#/J	.	16d/	.	8c/J)	.	8c/J	.	8D\J	.	.	8F#/J	.	.	.	.	.	.	.	.	.	.	.	.	.	.	.	.	.
.	X X X	.	.	.	.	16d/JJ	.	.	.	.	.	.	.	.	.	.	.	.	.	.	.	.	.	.	.	.	.	.	.	.	.	.
*	*	*	*	*	*	*Xtremolo	*	*	*	*	*	*	*	*	*	*	*	*	*	*	*	*	*	*	*	*	*	*	*	*	*	*
!LO:LB:g=original	!	!	!	!	!	!	!	!	!	!	!	!	!	!	!LO:LB:g=original	!	!	!	!	!LO:LB:g=original	!	!	!LO:LB:g=original	!	!	!	!	!	!	!	!	!
=19	=19	=19	=19	=19	=19	=19	=19	=19	=19	=19	=19	=19	=19	=19	=19	=19	=19	=19	=19	=19	=19	=19	=19	=19	=19	=19	=19	=19	=19	=19	=19	=19
!	!	!	!	!LO:TX:t=P:problem:mixed beam	!LO:DY:rj	!	!	!LO:TX:t=P:problem:mixed beam	!	!LO:TX:t=P:problem:mixed beam	!	!	!	!	!	!	!	!	!	!	!	!	!	!	!	!	!	!	!	!	!	!
4G\	.	.	4.ryy	8G/L	p	8d/L	.	8B/L	.	8B/L	.	8G\	-cem	.	8G/	-cem	8d\	cem	.	8b\	-cem	.	8GG/	.	8g/	.	8dd\	.	4.ryy	4.ryy	4.ryy	4.ryy
!	!	!	!	!	!	!	!	!	!	!	!LO:DY:t=p	!	!	!	!	!	!	!	!	!	!	!	!	!	!	!	!	!	!	!	!	!
.	.	.	.	8g\	p	8g/	p	8gg\	p	8gg\	p	8r	.	.	8r	.	8r	.	.	8r	.	.	8r	.	8r	.	8r	.	.	.	.	.
8r	.	.	.	8g\J	.	8g/J	.	8gg\J	.	8gg\J	.	8r	.	.	8r	.	8r	.	.	8r	.	.	8r	.	8r	.	8r	.	.	.	.	.
!	!	!	!	!	!	!LO:LB:g=original	!	!	!	!	!	!	!	!	!	!	!	!	!	!	!	!	!	!	!	!	!	!	!	!	!	!
=20	=20	=20	=20	=20	=20	=20	=20	=20	=20	=20	=20	=20	=20	=20	=20	=20	=20	=20	=20	=20	=20	=20	=20	=20	=20	=20	=20	=20	=20	=20	=20	=20
!	!	!	!	!	!	!	!	!	!	!	!	!	!	!	!	!	!	!	!	!	!	!	!LO:N:vis=0	!	!	!	!	!	!	!	!	!
4.r	.	.	4.ryy	16g\LL	.	16g/LL	.	16gg\LL	.	16gg\LL	.	4.r	.	.	4.r	.	4.r	.	.	4.r	.	.	2.r	.	4.r	.	4.r	.	4.ryy	4.ryy	4.ryy	4.ryy
.	.	.	.	(16f#X\	.	(16f#X/	.	(16ff#X\	.	(16ff#X\	.	.	.	.	.	.	.	.	.	.	.	.	.	.	.	.	.	.	.	.	.	.
.	.	.	.	16e\	.	16e/	.	16ee\	.	16ee\	.	.	.	.	.	.	.	.	.	.	.	.	.	.	.	.	.	.	.	.	.	.
.	.	.	.	16d\	.	16d/	.	16dd\	.	16dd\	.	.	.	.	.	.	.	.	.	.	.	.	.	.	.	.	.	.	.	.	.	.
.	.	.	.	16e\)	.	16e/	.	16ee\)	.	16ee\)	.	.	.	.	.	.	.	.	.	.	.	.	.	.	.	.	.	.	.	.	.	.
.	.	.	.	16f#\JJ	.	16f#/JJ)	.	16ff#\JJ	.	16ff#\JJ	.	.	.	.	.	.	.	.	.	.	.	.	.	.	.	.	.	.	.	.	.	.
=21	=21	=21	=21	=21	=21	=21	=21	=21	=21	=21	=21	=21	=21	=21	=21	=21	=21	=21	=21	=21	=21	=21	=21	=21	=21	=21	=21	=21	=21	=21	=21	=21
8r	.	.	4.ryy	8g\	.	8g/	f	8gg\L	.	8gg\L	.	8r	.	.	8r	.	8r	.	.	8r	.	.	.	.	8r	.	8r	.	4.ryy	4.ryy	4.ryy	4.ryy
8G\L	.	.	.	8r	.	8dd\L	.	8bb\	f	8bb\	f	8G\	do-	.	8d\	do-	8b\	do-	.	8dd\	do-	.	.	.	8g/L	.	8dd\L	.	.	.	.	.
8G\J	.	.	.	8r	.	8b\J	.	8dd\J	.	8dd\J	.	8G\	-na	.	8d\	-na	8b\	-na	.	8dd\	-na	.	.	.	8g/J	.	8dd\J	.	.	.	.	.
=22	=22	=22	=22	=22	=22	=22	=22	=22	=22	=22	=22	=22	=22	=22	=22	=22	=22	=22	=22	=22	=22	=22	=22	=22	=22	=22	=22	=22	=22	=22	=22	=22
!LO:TX:t=P:problem:mixed beam	!	!	!	!	!LO:DY:rj	!	!	!	!	!	!	!LO:TX:t=P:problem:mixed beam	!	!	!	!	!	!	!	!	!	!	!	!	!	!	!	!	!	!	!	!
8c\L	6	.	4.ryy	8e\L	f	8a/L	.	8cc\L	.	8cc\L	.	8c\L	pa-	.	8e\	no-	8a\L	pa-	.	8cc\L	pa-	.	4.r	.	8cc\L	.	8ee\L	.	4.ryy	4.ryy	4.ryy	4.ryy
8d\	6 4	.	.	8d\	.	8g/	.	8b'\	.	8b\	.	8d\	.	.	4d\	.	8g\	.	.	8b\	.	.	.	.	8dd\	.	8dd\	.	.	.	.	.
8D/J	x #	.	.	8d\J	.	8f#X/J	.	8a\J	.	8a\J	.	8D/J	.	.	.	.	8f#X\J	.	.	8a\J	.	.	.	.	8dd\J	.	8dd\J	.	.	.	.	.
!	!	!	!	!LO:LB:g=original	!	!	!	!	!	!	!	!LO:LB:g=original	!	!	!	!	!	!	!	!	!	!	!	!	!	!	!	!	!	!	!	!
=23	=23	=23	=23	=23	=23	=23	=23	=23	=23	=23	=23	=23	=23	=23	=23	=23	=23	=23	=23	=23	=23	=23	=23	=23	=23	=23	=23	=23	=23	=23	=23	=23
!	!	!	!	!	!	!	!	!LO:TX:t=P:problem:mixed beam	!	!LO:TX:t=P:problem:mixed beam	!	!	!	!	!	!	!	!	!	!	!	!	!	!	!	!	!	!	!	!	!	!
4G\	.	.	4.ryy	8G/L	.	8G/L	.	8g/L	.	8g/L	.	8G\	-cem	.	8d\	-bis	8g\	-cem	.	8g\	-cem	.	8GG/	.	8g/	.	8dd\	.	4.ryy	4.ryy	4.ryy	4.ryy
.	.	.	.	8G/	p	8g/	p	8gg\	p	8gg\	p	8r	.	.	8r	.	8r	.	.	8r	.	.	8r	.	8r	.	8r	.	.	.	.	.
8r	.	.	.	8G/J	.	8g/J	.	8gg\J	.	8gg\J	.	8r	.	.	8r	.	8r	.	.	8r	.	.	8r	.	8r	.	8r	.	.	.	.	.
!	!	!	!	!	!	!	!	!LO:LB:g=original	!	!	!	!	!	!	!	!	!LO:LB:g=original	!	!	!	!	!	!	!	!	!	!	!	!	!	!	!
=24	=24	=24	=24	=24	=24	=24	=24	=24	=24	=24	=24	=24	=24	=24	=24	=24	=24	=24	=24	=24	=24	=24	=24	=24	=24	=24	=24	=24	=24	=24	=24	=24
!	!	!	!	!	!	!	!	!	!	!	!	!	!	!	!	!	!	!	!	!	!	!	!LO:N:vis=0	!	!	!	!	!	!	!	!	!
4.r	.	.	4.ryy	16G/LL	.	16g/LL	.	16gg\LL	.	16gg\LL	.	4.r	.	.	4.r	.	4.r	.	.	4.r	.	.	2.r	.	4.r	.	4.r	.	4.ryy	4.ryy	4.ryy	4.ryy
.	.	.	.	(16F#X/	.	(16f#X/	.	(16ff#X\	.	(16ff#X\	.	.	.	.	.	.	.	.	.	.	.	.	.	.	.	.	.	.	.	.	.	.
.	.	.	.	16E/	.	16e/	.	16ee\	.	16ee\	.	.	.	.	.	.	.	.	.	.	.	.	.	.	.	.	.	.	.	.	.	.
.	.	.	.	16D/	.	16d/	.	16dd\	.	16dd\)	.	.	.	.	.	.	.	.	.	.	.	.	.	.	.	.	.	.	.	.	.	.
.	.	.	.	16E/	.	16e/	.	16ee\)	.	16ee\	.	.	.	.	.	.	.	.	.	.	.	.	.	.	.	.	.	.	.	.	.	.
.	.	.	.	16F#/JJ)	.	16f#/JJ)	.	16ff#\JJ	.	16ff#\JJ	.	.	.	.	.	.	.	.	.	.	.	.	.	.	.	.	.	.	.	.	.	.
=25	=25	=25	=25	=25	=25	=25	=25	=25	=25	=25	=25	=25	=25	=25	=25	=25	=25	=25	=25	=25	=25	=25	=25	=25	=25	=25	=25	=25	=25	=25	=25	=25
!	!	!	!	!	!	!	!	!LO:TX:t=P:problem:mixed beam	!	!LO:TX:t=P:problem:mixed beam	!	!	!	!	!	!	!	!	!	!	!	!	!	!	!	!	!	!	!	!	!	!
8r	.	.	4.ryy	8G/	.	8g/L	.	8gg\L	.	8gg\L	f	8r	.	.	8r	.	8r	.	.	8r	.	.	.	.	8r	.	8r	.	4.ryy	4.ryy	4.ryy	4.ryy
8G\L	.	.	.	8r	.	8g/	f	8b/	f	8b/	.	8G\	do-	.	8d\	do-	8b\	do-	.	8dd\	do-	.	.	.	8g/L	.	8dd\L	.	.	.	.	.
8G\J	.	.	.	8r	.	8b/J	.	8d/J	.	8d/J	.	8G\	-na	.	8d\	-na	8b\	-na	.	8dd\	-na	.	.	.	8g/J	.	8dd\J	.	.	.	.	.
!	!	!	!	!	!	!	!	!	!	!	!	!	!	!	!LO:LB:g=original	!	!	!	!	!	!	!	!	!	!	!	!LO:LB:g=original	!	!	!	!	!
=26	=26	=26	=26	=26	=26	=26	=26	=26	=26	=26	=26	=26	=26	=26	=26	=26	=26	=26	=26	=26	=26	=26	=26	=26	=26	=26	=26	=26	=26	=26	=26	=26
!LO:TX:t=P:problem:mixed beam	!	!	!	!	!LO:DY:rj	!	!	!	!	!	!	!LO:TX:t=P:problem:mixed beam	!	!	!	!	!	!	!	!	!	!	!	!	!	!	!	!	!	!	!	!
8c\L	6	.	4.ryy	8e\L	f	8a/L	.	8c/L	.	8c/L	.	8c\L	pa-	.	8e\	pa-	8a\L	pa-	.	8cc\L	pa-	.	4.r	.	8cc\L	.	8ee\L	.	4.ryy	4.ryy	4.ryy	4.ryy
8d\	6 4	.	.	8d\	.	8g/	.	8B/	.	8B/	.	8d\	.	.	4d\	.	8g\	.	.	8b\	.	.	.	.	8dd\	.	8dd\	.	.	.	.	.
8D/J	x #	.	.	8d\J	.	8f#X/J	.	8A/J	.	8A/J	.	8D/J	.	.	.	.	8f#X\J	.	.	8a\J	.	.	.	.	8dd\J	.	8dd\J	.	.	.	.	.
=27	=27	=27	=27	=27	=27	=27	=27	=27	=27	=27	=27	=27	=27	=27	=27	=27	=27	=27	=27	=27	=27	=27	=27	=27	=27	=27	=27	=27	=27	=27	=27	=27
8G\	.	.	4.ryy	8d\	.	8g/L	p	8G/L	.	8G/	.	8G\	-cem	.	8d\	-cem	8g\	-cem	.	8g\	-cem	.	8GG/	.	8g/	.	8dd\	.	4.ryy	4.ryy	4.ryy	4.ryy
8r	.	.	.	8r	.	8B/	.	8d/	.	8d/L	.	8r	.	.	8r	.	8r	.	.	8r	.	.	8r	.	8r	.	8r	.	.	.	.	.
8r	.	.	.	8r	.	8G/J	.	8g/J	p	8g/J	p	8r	.	.	8r	.	8r	.	.	8r	.	.	8r	.	8r	.	8r	.	.	.	.	.
!	!	!	!	!	!	!	!	!	!	!LO:LB:g=original	!	!	!	!	!	!	!	!	!	!	!	!	!	!	!LO:LB:g=original	!	!	!	!	!	!	!
=28	=28	=28	=28	=28	=28	=28	=28	=28	=28	=28	=28	=28	=28	=28	=28	=28	=28	=28	=28	=28	=28	=28	=28	=28	=28	=28	=28	=28	=28	=28	=28	=28
!LO:TX:a:t=9.	!	!	!	!LO:TX:a:t=9.	!	!	!	!	!	!	!	!	!	!	!	!	!	!	!	!	!	!	!	!	!	!	!	!	!	!	!	!
!LO:N:vis=00	!	!	!	!LO:N:vis=00	!	!	!	!	!	!	!	!LO:N:vis=00	!	!	!LO:N:vis=00	!	!LO:N:vis=00	!	!	!LO:N:vis=00	!	!	!LO:N:vis=00	!	!LO:N:vis=00	!	!LO:N:vis=00	!	!	!	!	!
1.r	.	.	4.ryy	1.r	.	4c/	.	8e/	.	8e/	.	1.r	.	.	1.r	.	1.r	.	.	1.r	.	.	1.r	.	1.r	.	1.r	.	4.ryy	4.ryy	4.ryy	4.ryy
.	.	.	.	.	.	.	.	4a/	.	4a/	.	.	.	.	.	.	.	.	.	.	.	.	.	.	.	.	.	.	.	.	.	.
.	.	.	.	.	.	8A/	.	.	.	.	.	.	.	.	.	.	.	.	.	.	.	.	.	.	.	.	.	.	.	.	.	.
=29	=29	=29	=29	=29	=29	=29	=29	=29	=29	=29	=29	=29	=29	=29	=29	=29	=29	=29	=29	=29	=29	=29	=29	=29	=29	=29	=29	=29	=29	=29	=29	=29
.	.	.	4.ryy	.	.	4d/	.	8r	.	8r	.	.	.	.	.	.	.	.	.	.	.	.	.	.	.	.	.	.	4.ryy	4.ryy	4.ryy	4.ryy
.	.	.	.	.	.	.	.	8f#X/L	.	8f#X/L	.	.	.	.	.	.	.	.	.	.	.	.	.	.	.	.	.	.	.	.	.	.
.	.	.	.	.	.	8B/	.	8b/J	.	8a/J	.	.	.	.	.	.	.	.	.	.	.	.	.	.	.	.	.	.	.	.	.	.
!	!	!	!	!	!	!LO:LB:g=original	!	!	!	!	!	!	!	!	!	!	!	!	!	!	!	!	!	!	!	!	!	!	!	!	!	!
=30	=30	=30	=30	=30	=30	=30	=30	=30	=30	=30	=30	=30	=30	=30	=30	=30	=30	=30	=30	=30	=30	=30	=30	=30	=30	=30	=30	=30	=30	=30	=30	=30
.	.	.	4.ryy	.	.	4e/	.	8g/	.	8g/	.	.	.	.	.	.	.	.	.	.	.	.	.	.	.	.	.	.	4.ryy	4.ryy	4.ryy	4.ryy
.	.	.	.	.	.	.	.	4cc\	.	4cc\	.	.	.	.	.	.	.	.	.	.	.	.	.	.	.	.	.	.	.	.	.	.
.	.	.	.	.	.	8c/	.	.	.	.	.	.	.	.	.	.	.	.	.	.	.	.	.	.	.	.	.	.	.	.	.	.
=31	=31	=31	=31	=31	=31	=31	=31	=31	=31	=31	=31	=31	=31	=31	=31	=31	=31	=31	=31	=31	=31	=31	=31	=31	=31	=31	=31	=31	=31	=31	=31	=31
.	.	.	4.ryy	.	.	4f#X/	.	8r	.	8r	.	.	.	.	.	.	.	.	.	.	.	.	.	.	.	.	.	.	4.ryy	4.ryy	4.ryy	4.ryy
.	.	.	.	.	.	.	.	8a\L	.	8a\L	.	.	.	.	.	.	.	.	.	.	.	.	.	.	.	.	.	.	.	.	.	.
.	.	.	.	.	.	8d/	.	8dd\J	.	8dd\J	.	.	.	.	.	.	.	.	.	.	.	.	.	.	.	.	.	.	.	.	.	.
=32	=32	=32	=32	=32	=32	=32	=32	=32	=32	=32	=32	=32	=32	=32	=32	=32	=32	=32	=32	=32	=32	=32	=32	=32	=32	=32	=32	=32	=32	=32	=32	=32
!LO:N:vis=00	!	!	!	!LO:N:vis=00	!	!	!	!	!	!	!	!LO:N:vis=00	!	!	!LO:N:vis=00	!	!LO:N:vis=00	!	!	!LO:N:vis=00	!	!	!LO:N:vis=00	!	!LO:N:vis=00	!	!LO:N:vis=00	!	!	!	!	!
1.r	.	.	4.ryy	1.r	.	8r	.	8b\L	.	8b\L	.	1.r	.	.	1.r	.	1.r	.	.	1.r	.	.	1.r	.	1.r	.	1.r	.	4.ryy	4.ryy	4.ryy	4.ryy
.	.	.	.	.	.	8g/L	.	8ee\	.	8ee\	.	.	.	.	.	.	.	.	.	.	.	.	.	.	.	.	.	.	.	.	.	.
.	.	.	.	.	.	8a/J	.	8cc#X\J	.	8cc#X\J	.	.	.	.	.	.	.	.	.	.	.	.	.	.	.	.	.	.	.	.	.	.
=33	=33	=33	=33	=33	=33	=33	=33	=33	=33	=33	=33	=33	=33	=33	=33	=33	=33	=33	=33	=33	=33	=33	=33	=33	=33	=33	=33	=33	=33	=33	=33	=33
.	.	.	4.ryy	.	.	8f#X/L	.	8dd\L	.	8dd\L	.	.	.	.	.	.	.	.	.	.	.	.	.	.	.	.	.	.	4.ryy	4.ryy	4.ryy	4.ryy
.	.	.	.	.	.	8g/	.	8b\	.	8b\	.	.	.	.	.	.	.	.	.	.	.	.	.	.	.	.	.	.	.	.	.	.
.	.	.	.	.	.	8e/J	.	8ccn\J	.	8ccn\J	.	.	.	.	.	.	.	.	.	.	.	.	.	.	.	.	.	.	.	.	.	.
=34	=34	=34	=34	=34	=34	=34	=34	=34	=34	=34	=34	=34	=34	=34	=34	=34	=34	=34	=34	=34	=34	=34	=34	=34	=34	=34	=34	=34	=34	=34	=34	=34
.	.	.	4.ryy	.	.	8f#X/L	.	8a#X/L	.	8a#X/L	.	.	.	.	.	.	.	.	.	.	.	.	.	.	.	.	.	.	4.ryy	4.ryy	4.ryy	4.ryy
.	.	.	.	.	.	8d/	.	8b/	.	8b/	.	.	.	.	.	.	.	.	.	.	.	.	.	.	.	.	.	.	.	.	.	.
.	.	.	.	.	.	8e/J	.	8g#X/J	.	8g#X/J	.	.	.	.	.	.	.	.	.	.	.	.	.	.	.	.	.	.	.	.	.	.
=35	=35	=35	=35	=35	=35	=35	=35	=35	=35	=35	=35	=35	=35	=35	=35	=35	=35	=35	=35	=35	=35	=35	=35	=35	=35	=35	=35	=35	=35	=35	=35	=35
.	.	.	4.ryy	.	.	8c/L	.	8an/L	.	8an/L	.	.	.	.	.	.	.	.	.	.	.	.	.	.	.	.	.	.	4.ryy	4.ryy	4.ryy	4.ryy
.	.	.	.	.	.	8d/	.	8f#X/	.	8f#X/	.	.	.	.	.	.	.	.	.	.	.	.	.	.	.	.	.	.	.	.	.	.
.	.	.	.	.	.	8B/J	.	8gn/J	.	8gn/J	.	.	.	.	.	.	.	.	.	.	.	.	.	.	.	.	.	.	.	.	.	.
=36	=36	=36	=36	=36	=36	=36	=36	=36	=36	=36	=36	=36	=36	=36	=36	=36	=36	=36	=36	=36	=36	=36	=36	=36	=36	=36	=36	=36	=36	=36	=36	=36
4.r	.	.	4.ryy	4.r	.	8c/L	.	8e/L	.	8e/L	.	4.r	.	.	4.r	.	4.r	.	.	4.r	.	.	4.r	.	4.r	.	4.r	.	4.ryy	4.ryy	4.ryy	4.ryy
.	.	.	.	.	.	8A/	.	8a/	.	8a/	.	.	.	.	.	.	.	.	.	.	.	.	.	.	.	.	.	.	.	.	.	.
.	.	.	.	.	.	8d/J	.	8f#X/J	.	8f#X/J	.	.	.	.	.	.	.	.	.	.	.	.	.	.	.	.	.	.	.	.	.	.
!LO:LB:g=original	!	!	!	!LO:LB:g=original	!	!	!	!LO:LB:g=original	!	!	!	!	!	!	!	!	!	!	!	!LO:LB:g=original	!	!	!	!	!	!	!	!	!	!	!	!
=37	=37	=37	=37	=37	=37	=37	=37	=37	=37	=37	=37	=37	=37	=37	=37	=37	=37	=37	=37	=37	=37	=37	=37	=37	=37	=37	=37	=37	=37	=37	=37	=37
!LO:TX:t=P:problem:mixed beam	!	!	!	!LO:TX:t=P:problem:mixed beam	!	!	!	!LO:TX:t=P:problem:mixed beam	!	!LO:TX:t=P:problem:mixed beam	!	!	!	!	!	!	!	!	!	!	!	!	!	!	!	!	!	!	!	!	!	!
8GG/L	.	.	4.ryy	8G/L	.	8G/L	.	8g/L	.	8g/L	.	4G\	do-	.	4G/	do-	4g\	do-	.	8r	.	.	8GG/	.	8g/	.	8dd\	.	4.ryy	4.ryy	4.ryy	4.ryy
!LO:TX:a:t=|:problem	!	!	!	!	!	!	!	!	!	!	!	!	!	!	!	!	!	!	!	!	!	!	!	!	!	!	!	!	!	!	!	!
8G\	.	.	.	8g\	f	8g/	f	8gg\	f	8gg\	f	.	.	.	.	.	.	.	.	8gg\	do-	.	8r	.	8r	.	8r	.	.	.	.	.
!LO:TX:a:t=|:problem	!	!	!	!	!	!	!	!	!	!	!	!	!	!	!	!	!	!	!	!	!	!	!	!	!	!	!	!	!	!	!	!
8G\J	.	.	.	8g\J	.	8g/J	.	8gg\J	.	8gg\J	.	8G\	-na	.	8G/	-na	8g\	-na	.	8gg\	-na	.	8r	.	8r	.	8r	.	.	.	.	.
=38	=38	=38	=38	=38	=38	=38	=38	=38	=38	=38	=38	=38	=38	=38	=38	=38	=38	=38	=38	=38	=38	=38	=38	=38	=38	=38	=38	=38	=38	=38	=38	=38
!LO:TX:a:t=|:problem	!	!	!	!	!	!	!	!	!	!	!	!	!	!	!	!	!	!	!	!	!	!	!	!	!	!	!	!	!	!	!	!
16G\LL	.	.	4.ryy	16g\LL	.	16g/LL	.	16gg\LL	.	16gg\LL	.	16G\LL	do-	.	16G/LL	do-	16g\LL	do-	.	16gg\LL	do-	.	4.r	.	8dd\	.	8dd\	.	4.ryy	4.ryy	4.ryy	4.ryy
!LO:TX:a:t=|:problem	!	!	!	!	!	!	!	!	!	!	!	!	!	!	!	!	!	!	!	!	!	!	!	!	!	!	!	!	!	!	!	!
(16F#X\	.	.	.	(16f#X\	.	(16f#X/	.	(16ff#X\	.	(16ff#X\	.	16F#X\	.	.	16F#X/	.	16f#X\	.	.	(16ff#X\	.	.	.	.	.	.	.	.	.	.	.	.
!LO:TX:a:t=|:problem	!	!	!	!	!	!	!	!	!	!	!	!	!	!	!	!	!	!	!	!	!	!	!	!	!	!	!	!	!	!	!	!
16E\	.	.	.	16e\	.	16e/	.	16ee\	.	16ee\	.	16E\	.	.	16E/	.	16e\	.	.	16ee\	.	.	.	.	8r	.	8r	.	.	.	.	.
!LO:TX:a:t=|:problem	!	!	!	!	!	!	!	!	!	!	!	!	!	!	!	!	!	!	!	!	!	!	!	!	!	!	!	!	!	!	!	!
16D\	.	.	.	16d\	.	16d/	.	16dd\	.	16dd\	.	16D\	.	.	16D/	.	16d\	.	.	16dd\	.	.	.	.	.	.	.	.	.	.	.	.
!LO:TX:a:t=|:problem	!	!	!	!	!	!	!	!	!	!	!	!	!	!	!	!	!	!	!	!	!	!	!	!	!	!	!	!	!	!	!	!
16E\)	.	.	.	16e\)	.	16e/	.	16ee\)	.	16ee\)	.	16E\	.	.	16E/	.	16e\	.	.	16ee\)	.	.	.	.	8r	.	8r	.	.	.	.	.
!LO:TX:a:t=|:problem	!	!	!	!	!	!	!	!	!	!	!	!	!	!	!	!	!	!	!	!	!	!	!	!	!	!	!	!	!	!	!	!
16F#\JJ	.	.	.	16f#\JJ	.	16f#/JJ)	.	16ff#\JJ	.	16ff#\JJ	.	16F#\JJ	.	.	16F#/JJ	.	16f#\JJ	.	.	16ff#\JJ	.	.	.	.	.	.	.	.	.	.	.	.
!	!	!	!	!	!	!	!	!	!	!	!	!LO:LB:g=original	!	!	!	!	!LO:LB:g=original	!	!	!	!	!	!	!	!	!	!	!	!	!	!	!
=39	=39	=39	=39	=39	=39	=39	=39	=39	=39	=39	=39	=39	=39	=39	=39	=39	=39	=39	=39	=39	=39	=39	=39	=39	=39	=39	=39	=39	=39	=39	=39	=39
!LO:TX:a:t=|:problem	!	!	!	!	!	!	!	!	!	!	!	!	!	!	!	!	!	!	!	!	!	!	!	!	!	!	!	!	!	!	!	!
8G\	.	.	4.ryy	8g\	.	8g/L	.	8gg\L	.	8gg\L	.	8G\	-na	.	8G/	-na	8g\	-na	.	8gg\	-na	.	8GG/	.	8g/	.	8dd\	.	4.ryy	4.ryy	4.ryy	4.ryy
8r	.	.	.	8r	.	8dd/	p	8bb\	p	8bb\	p	8r	.	.	8r	.	8r	.	.	8r	.	.	8r	.	8r	.	8r	.	.	.	.	.
8r	.	.	.	8r	.	8b/J	.	8dd\J	.	8dd\J	.	8r	.	.	8r	.	8r	.	.	8r	.	.	8r	.	8r	.	8r	.	.	.	.	.
!	!	!	!	!	!	!	!	!	!	!	!	!	!	!	!LO:LB:g=original	!	!	!	!	!	!	!	!	!	!	!	!	!	!	!	!	!
=40	=40	=40	=40	=40	=40	=40	=40	=40	=40	=40	=40	=40	=40	=40	=40	=40	=40	=40	=40	=40	=40	=40	=40	=40	=40	=40	=40	=40	=40	=40	=40	=40
4.r	.	.	4.ryy	8r	.	4b/	.	4dd\	.	4dd\	.	4.r	.	.	4.r	.	4.r	.	.	4.r	.	.	4.r	.	4.r	.	4.r	.	4.ryy	4.ryy	4.ryy	4.ryy
.	.	.	.	.	p	.	.	.	.	.	.	.	.	.	.	.	.	.	.	.	.	.	.	.	.	.	.	.	.	.	.	.
.	.	.	.	8d\L	.	.	.	.	.	.	.	.	.	.	.	.	.	.	.	.	.	.	.	.	.	.	.	.	.	.	.	.
.	.	.	.	8d\J	.	8a/	.	8cc\	.	8cc\	.	.	.	.	.	.	.	.	.	.	.	.	.	.	.	.	.	.	.	.	.	.
!	!	!	!	!	!	!LO:LB:g=original	!	!	!	!	!	!	!	!	!	!	!	!	!	!	!	!	!	!	!	!	!	!	!	!	!	!
=41	=41	=41	=41	=41	=41	=41	=41	=41	=41	=41	=41	=41	=41	=41	=41	=41	=41	=41	=41	=41	=41	=41	=41	=41	=41	=41	=41	=41	=41	=41	=41	=41
!LO:TX:t=P:problem:mixed beam	!	!	!	!	!LO:DY:rj	!	!	!	!	!	!	!	!	!	!	!	!	!	!	!	!	!	!	!	!	!	!	!	!	!	!	!
8GG/L	.	.	4.ryy	8G/L	f	8g/L	.	8b/L	.	8b/L	f	8r	.	.	8r	.	4g\	no-	.	8r	.	.	8GG/	.	8g/	.	8dd\	.	4.ryy	4.ryy	4.ryy	4.ryy
!LO:TX:a:t=|:problem	!	!	!	!	!	!	!	!	!	!	!	!	!	!	!	!	!	!	!	!	!	!	!	!	!	!	!	!	!	!	!	!
8G\	.	.	.	8G/	.	8g/	f	8g/	f	8g/	.	8G\	no-	.	8G/	no-	.	.	.	8gg\	no-	.	8r	.	8r	.	8r	.	.	.	.	.
!LO:TX:a:t=|:problem	!	!	!	!	!	!	!	!	!	!	!	!	!	!	!	!	!	!	!	!	!	!	!	!	!	!	!	!	!	!	!	!
8G\J	.	.	.	8G/J	.	8g/J	.	8g/J	.	8g/J	.	8G\	-bis	.	8G/	-bis	8g\	-bis	.	8gg\	-bis	.	8r	.	8r	.	8r	.	.	.	.	.
!	!	!	!	!LO:LB:g=original	!	!	!	!	!	!LO:LB:g=original	!	!	!	!	!	!	!	!	!	!	!	!	!	!	!	!	!	!	!	!	!	!
=42	=42	=42	=42	=42	=42	=42	=42	=42	=42	=42	=42	=42	=42	=42	=42	=42	=42	=42	=42	=42	=42	=42	=42	=42	=42	=42	=42	=42	=42	=42	=42	=42
!LO:TX:a:t=|:problem	!	!	!	!	!	!	!	!	!	!	!	!	!	!	!	!	!	!	!	!	!	!	!	!	!	!	!	!	!	!	!	!
16G\LL	.	.	4.ryy	16G/LL	.	16g/LL	.	16g/LL	.	16g/LL	.	16G\LL	pa-	.	16G/LL	pa-	16g\LL	pa-	.	16gg\LL	pa-	.	4.r	.	8dd\	.	8dd\	.	4.ryy	4.ryy	4.ryy	4.ryy
!LO:TX:a:t=|:problem	!	!	!	!	!	!	!	!	!	!	!	!	!	!	!	!	!	!	!	!	!	!	!	!	!	!	!	!	!	!	!	!
(16F#X\	.	.	.	(16F#X/	.	(16f#X/	.	(16f#X/	.	(16f#X/	.	16F#X\	.	.	16F#X/	.	16f#X\	.	.	(16ff#X\	.	.	.	.	.	.	.	.	.	.	.	.
!LO:TX:a:t=|:problem	!	!	!	!	!	!	!	!	!	!	!	!	!	!	!	!	!	!	!	!	!	!	!	!	!	!	!	!	!	!	!	!
16E\	.	.	.	16E/	.	16e/	.	16e/	.	16e/	.	16E\	.	.	16E/	.	16e\	.	.	16ee\	.	.	.	.	8r	.	8r	.	.	.	.	.
!LO:TX:a:t=|:problem	!	!	!	!	!	!	!	!	!	!	!	!	!	!	!	!	!	!	!	!	!	!	!	!	!	!	!	!	!	!	!	!
16D\	.	.	.	16D/	.	16d/	.	16d/	.	16d/	.	16D\	.	.	16D/	.	16d\	.	.	16dd\	.	.	.	.	.	.	.	.	.	.	.	.
!LO:TX:a:t=|:problem	!	!	!	!	!	!	!	!	!	!	!	!	!	!	!	!	!	!	!	!	!	!	!	!	!	!	!	!	!	!	!	!
16E\	.	.	.	16E/	.	16e/	.	16e/	.	16e/)	.	16E\	.	.	16E/	.	16e\	.	.	16ee\)	.	.	.	.	8r	.	8r	.	.	.	.	.
!LO:TX:a:t=|:problem	!	!	!	!	!	!	!	!	!	!	!	!	!	!	!	!	!	!	!	!	!	!	!	!	!	!	!	!	!	!	!	!
16F#\JJ)	.	.	.	16F#/JJ)	.	16f#/JJ)	.	16f#/JJ)	.	16f#/JJ	.	16F#\JJ	.	.	16F#/JJ	.	16f#\JJ	.	.	16ff#\JJ	.	.	.	.	.	.	.	.	.	.	.	.
=43	=43	=43	=43	=43	=43	=43	=43	=43	=43	=43	=43	=43	=43	=43	=43	=43	=43	=43	=43	=43	=43	=43	=43	=43	=43	=43	=43	=43	=43	=43	=43	=43
!LO:TX:a:t=|:problem	!	!	!	!	!	!	!	!	!	!	!	!	!	!	!	!	!	!	!	!	!	!	!	!	!	!	!	!	!	!	!	!
8G\	.	.	4.ryy	8G/	.	8g/L	.	8g/L	p	8g/L	p	8G\	-cem	.	8G/	-cem	8g\	-cem	.	8gg\	-cem	.	8GG/	.	8g/	.	8dd\	.	4.ryy	4.ryy	4.ryy	4.ryy
8r	.	.	.	8r	.	8d/	p	8b/	.	8b/	.	8r	.	.	8r	.	8r	.	.	8r	.	.	8r	.	8r	.	8r	.	.	.	.	.
8r	.	.	.	8r	.	8B/J	.	8d/J	.	8d/J	.	8r	.	.	8r	.	8r	.	.	8r	.	.	8r	.	8r	.	8r	.	.	.	.	.
=44	=44	=44	=44	=44	=44	=44	=44	=44	=44	=44	=44	=44	=44	=44	=44	=44	=44	=44	=44	=44	=44	=44	=44	=44	=44	=44	=44	=44	=44	=44	=44	=44
!	!	!	!	!	!	!	!	!	!	!	!	!LO:N:vis=0	!	!	!LO:N:vis=0	!	!LO:N:vis=0	!	!	!LO:N:vis=0	!	!	!	!	!	!	!	!	!	!	!	!
4.r	.	.	4.ryy	8r	p	4B/	.	4d/	.	4d/	.	2.r	.	.	2.r	.	2.r	.	.	2.r	.	.	4.r	.	4.r	.	4.r	.	4.ryy	4.ryy	4.ryy	4.ryy
.	.	.	.	8D/L	.	.	.	.	.	.	.	.	.	.	.	.	.	.	.	.	.	.	.	.	.	.	.	.	.	.	.	.
.	.	.	.	8D/J	.	8A/	.	8c/	.	8c/	.	.	.	.	.	.	.	.	.	.	.	.	.	.	.	.	.	.	.	.	.	.
!LO:PB:g=original	!	!	!	!	!	!	!	!	!	!	!	!	!	!	!	!	!	!	!	!	!	!	!LO:LB:g=original	!	!	!	!LO:LB:g=original	!	!	!	!	!
=45	=45	=45	=45	=45	=45	=45	=45	=45	=45	=45	=45	=45	=45	=45	=45	=45	=45	=45	=45	=45	=45	=45	=45	=45	=45	=45	=45	=45	=45	=45	=45	=45
!	!	!	!	!	!	!	!	!LO:TX:t=P:problem:mixed beam	!	!LO:TX:t=P:problem:mixed beam	!	!	!	!	!	!	!	!	!	!	!	!	!	!	!	!	!	!	!	!	!	!
4G\	.	.	4.ryy	8G/	.	8G/	.	8B/L	.	8B/L	.	.	.	.	.	.	.	.	.	.	.	.	8GG/	.	8g/	.	8dd\	.	4.ryy	4.ryy	4.ryy	4.ryy
.	.	.	.	8r	.	8r	.	8gg\	f	8gg\	f	.	.	.	.	.	.	.	.	.	.	.	8r	.	8r	.	8r	.	.	.	.	.
8r	.	.	.	8r	.	8r	.	8gg\J	.	8gg\J	.	.	.	.	.	.	.	.	.	.	.	.	8r	.	8r	.	8r	.	.	.	.	.
!	!	!	!	!	!	!	!	!	!	!	!	!	!	!	!	!	!	!	!	!LO:LB:g=original	!	!	!	!	!	!	!	!	!	!	!	!
=46	=46	=46	=46	=46	=46	=46	=46	=46	=46	=46	=46	=46	=46	=46	=46	=46	=46	=46	=46	=46	=46	=46	=46	=46	=46	=46	=46	=46	=46	=46	=46	=46
!	!	!	!	!	!	!	!	!	!	!	!	!	!	!	!	!	!	!	!	!	!	!	!	!	!	!	!LO:TX:a:t=4.	!	!	!	!	!
!	!	!	!	!	!	!	!	!	!	!	!	!	!	!	!	!	!	!	!	!	!	!	!LO:N:vis=00	!	!LO:N:vis=00	!	!LO:N:vis=00	!	!	!	!	!
8r	.	.	4.ryy	8r	f	8r	.	(16gg\LL	.	(16gg\LL	.	8r	.	.	8r	.	8r	.	.	8r	.	.	1.r	.	1.r	.	1.r	.	4.ryy	4.ryy	4.ryy	4.ryy
.	.	.	.	.	.	.	.	16ffn\	.	16ffn\	.	.	.	.	.	.	.	.	.	.	.	.	.	.	.	.	.	.	.	.	.	.
8G\L	#4 -3	.	.	8e\L	.	8b-X/L	f	16ee\	.	16ee\	.	8G\	do-	.	8B-X\	do-	8e\	do-	.	8cc#X\	do-	.	.	.	.	.	.	.	.	.	.	.
.	.	.	.	.	.	.	.	16dd\J)	.	16dd\J)	.	.	.	.	.	.	.	.	.	.	.	.	.	.	.	.	.	.	.	.	.	.
!	!	!	!	!	!	!	!	!LO:TX:a:t=|:problem	!	!	!	!	!	!	!	!	!	!	!	!	!	!	!	!	!	!	!	!	!	!	!	!
8G\J	.	.	.	8e\J	.	8b-/J	.	8cc#X\J	.	8cc#X\J	.	8G\	-na	.	8B-\	-na	8e\	-na	.	8cc#\	-na	.	.	.	.	.	.	.	.	.	.	.
!	!	!	!	!	!	!	!	!	!	!	!	!	!	!	!LO:PB:g=original	!	!LO:LB:g=original	!	!	!	!	!	!	!	!	!	!	!	!	!	!	!
=47	=47	=47	=47	=47	=47	=47	=47	=47	=47	=47	=47	=47	=47	=47	=47	=47	=47	=47	=47	=47	=47	=47	=47	=47	=47	=47	=47	=47	=47	=47	=47	=47
!	!	!	!	!	!	!	!	!LO:TX:t=P:problem:mixed beam	!	!LO:TX:t=P:problem:mixed beam	!	!	!	!	!	!	!	!	!	!	!	!	!	!	!	!	!	!	!	!	!	!
8Fn\L	6	.	4.ryy	8fn\L	.	8a/L	.	8dd\L	.	8dd\L	.	8Fn\L	no-	.	4A\	no-	4f\	no-	.	8dd\L	no-	.	.	.	.	.	.	.	4.ryy	4.ryy	4.ryy	4.ryy
!LO:TX:a:t=|:problem	!	!	!	!	!	!	!	!	!	!LO:TX:b:t=|:problem	!	!	!	!	!	!	!	!	!	!	!	!	!	!	!	!	!	!	!	!	!	!
8A\	.	.	.	8a\	.	8a/	.	8a/	.	8a/	.	8A\J	.	.	.	.	.	.	.	8a\J	.	.	.	.	.	.	.	.	.	.	.	.
!LO:TX:a:t=|:problem	!	!	!	!	!	!	!	!	!	!LO:TX:b:t=|:problem	!	!	!	!	!	!	!	!	!	!	!	!	!	!	!	!	!	!	!	!	!	!
8A\J	.	.	.	8a\J	.	8a/J	.	8a/J	.	8a/J	.	8A\	-bis	.	8A\	-bis	8a\	-bis	.	8a\	-bis	.	.	.	.	.	.	.	.	.	.	.
!	!	!	!	!LO:LB:g=original	!	!	!	!	!	!	!	!LO:PB:g=original	!	!	!	!	!	!	!	!	!	!	!	!	!	!	!	!	!	!	!	!
=48	=48	=48	=48	=48	=48	=48	=48	=48	=48	=48	=48	=48	=48	=48	=48	=48	=48	=48	=48	=48	=48	=48	=48	=48	=48	=48	=48	=48	=48	=48	=48	=48
!LO:TX:a:t=|:problem	!	!	!	!	!	!	!	!	!	!	!	!	!	!	!	!	!	!	!	!	!	!	!	!	!	!	!	!	!	!	!	!
16A\LL	.	.	4.ryy	(16a\LL	.	(16a/LL	.	(16a/LL	.	(16a/LL	.	16A\LL	pa-	.	16A/LL	pa-	16a\LL	pa-	.	16a/LL	pa-	.	.	.	.	.	.	.	4.ryy	4.ryy	4.ryy	4.ryy
!LO:TX:a:t=|:problem	!	!	!	!	!	!	!	!	!	!	!	!	!	!	!	!	!	!	!	!	!	!	!	!	!	!	!	!	!	!	!	!
16G\	.	.	.	16g\	.	16g/	.	16g/	.	16g/	.	16G\	.	.	16G/	.	16g\	.	.	16g/	.	.	.	.	.	.	.	.	.	.	.	.
!LO:TX:a:t=|:problem	!	!	!	!	!	!	!	!	!	!	!	!	!	!	!	!	!	!	!	!	!	!	!	!	!	!	!	!	!	!	!	!
16F\	.	.	.	16f\	.	16fn/	.	16fn/)	.	16fn/)	.	16F\	.	.	16Fn/	.	16f\	.	.	16f/	.	.	.	.	.	.	.	.	.	.	.	.
!LO:TX:a:t=|:problem	!	!	!	!	!	!	!	!	!	!	!	!	!	!	!	!	!	!	!	!	!	!	!	!	!	!	!	!	!	!	!	!
16E\J	.	.	.	16e\J)	.	16e/J)	.	16e/J	.	16e/J	.	16E\JJ	.	.	16E/JJ	.	16e\JJ	.	.	16e/JJ	.	.	.	.	.	.	.	.	.	.	.	.
!LO:TX:a:t=|:problem	!	!	!	!LO:TX:a:t=|:problem	!	!LO:TX:b:t=|:problem	!	!LO:TX:b:t=|:problem	!	!	!	!	!	!	!	!	!	!	!	!	!	!	!	!	!	!	!	!	!	!	!	!
8D\J	.	.	.	8d\J	.	8d/J	.	8d/J	.	8d/J	.	8D\	-cem	.	8D/	-cem	8d\	-cem	.	8d/	-cem	.	.	.	.	.	.	.	.	.	.	.
!	!	!	!	!	!	!	!	!LO:LB:g=original	!	!	!	!	!	!	!	!	!	!	!	!	!	!	!	!	!	!	!	!	!	!	!	!
=49	=49	=49	=49	=49	=49	=49	=49	=49	=49	=49	=49	=49	=49	=49	=49	=49	=49	=49	=49	=49	=49	=49	=49	=49	=49	=49	=49	=49	=49	=49	=49	=49
!	!	!	!	!	!	!	!	!LO:TX:t=P:problem:mixed beam	!	!LO:TX:t=P:problem:mixed beam	!	!	!	!	!	!	!	!	!	!	!	!	!	!	!	!	!	!	!	!	!	!
4F\	6	.	4.ryy	8Fn/	.	8f/	.	8f/L	.	8f/L	.	4.r	.	.	4.r	.	4.r	.	.	4.r	.	.	.	.	.	.	.	.	4.ryy	4.ryy	4.ryy	4.ryy
.	.	.	.	8r	.	8r	.	8ff\	.	8ff\	.	.	.	.	.	.	.	.	.	.	.	.	.	.	.	.	.	.	.	.	.	.
8r	.	.	.	8r	.	8r	.	8ff\J	.	8ff\J	.	.	.	.	.	.	.	.	.	.	.	.	.	.	.	.	.	.	.	.	.	.
=50	=50	=50	=50	=50	=50	=50	=50	=50	=50	=50	=50	=50	=50	=50	=50	=50	=50	=50	=50	=50	=50	=50	=50	=50	=50	=50	=50	=50	=50	=50	=50	=50
8r	.	.	4.ryy	8r	.	8r	.	(16ff\LL	.	(16ff\LL	.	8r	.	.	8r	.	8r	.	.	8r	.	.	8r	.	8r	.	8r	.	4.ryy	4.ryy	4.ryy	4.ryy
.	.	.	.	.	.	.	.	16ee\	.	16ee\	.	.	.	.	.	.	.	.	.	.	.	.	.	.	.	.	.	.	.	.	.	.
8F\L	2	.	.	8d\L	.	8g/L	.	16dd\	.	16dd\	.	8F\	do-	.	8G/	do-	8d\	do-	.	8b\	do-	.	8GG/L	.	8g/L	.	8dd\L	.	.	.	.	.
.	.	.	.	.	.	.	.	16ccn\J)	.	16cc\J)	.	.	.	.	.	.	.	.	.	.	.	.	.	.	.	.	.	.	.	.	.	.
!	!	!	!	!	!	!	!	!LO:TX:a:t=|:problem	!	!	!	!	!	!	!	!	!	!	!	!	!	!	!	!	!	!	!	!	!	!	!	!
8F\J	.	.	.	8d\J	.	8g/J	.	8b\J	.	8b\J	.	8F\	-na	.	8G/	-na	8d\	-na	.	8b\	-na	.	8GG/J	.	8g/J	.	8dd\J	.	.	.	.	.
=51	=51	=51	=51	=51	=51	=51	=51	=51	=51	=51	=51	=51	=51	=51	=51	=51	=51	=51	=51	=51	=51	=51	=51	=51	=51	=51	=51	=51	=51	=51	=51	=51
8E\L	6	.	4.ryy	8e\L	.	8g/L	.	8cc/L	.	8cc/L	.	8E\L	no-	.	4G/	no-	4e\	no-	.	8cc\L	no-	.	8C/	.	8cc\	.	8ee\	.	4.ryy	4.ryy	4.ryy	4.ryy
!LO:TX:a:t=|:problem	!	!	!	!	!	!	!	!	!	!	!	!	!	!	!	!	!	!	!	!	!	!	!	!	!	!	!	!	!	!	!	!
8G\	.	.	.	8g\	.	8g/	.	8g/	.	8g/	.	8G\J	.	.	.	.	.	.	.	8g\J	.	.	8r	.	8r	.	8r	.	.	.	.	.
!LO:TX:a:t=|:problem	!	!	!	!	!	!	!	!	!	!	!	!	!	!	!	!	!	!	!	!	!	!	!	!	!	!	!	!	!	!	!	!
8G\J	.	.	.	8g\J	.	8g/J	.	8g/J	.	8g/J	.	8G\	-bis	.	8G/	-bis	8g\	-bis	.	8g\	-bis	.	8r	.	8r	.	8r	.	.	.	.	.
!	!	!	!	!	!	!LO:LB:g=original	!	!	!	!	!	!	!	!	!LO:LB:g=original	!	!	!	!	!	!	!	!	!	!LO:LB:g=original	!	!	!	!	!	!	!
=52	=52	=52	=52	=52	=52	=52	=52	=52	=52	=52	=52	=52	=52	=52	=52	=52	=52	=52	=52	=52	=52	=52	=52	=52	=52	=52	=52	=52	=52	=52	=52	=52
!LO:TX:a:t=|:problem	!	!	!	!	!	!	!	!	!	!	!	!	!	!	!	!	!	!	!	!	!	!	!	!	!	!	!	!	!	!	!	!
16G\LL	.	.	4.ryy	(16g\LL	.	(16g/LL	.	(16g/LL	.	(16g/LL	.	16G\LL	pa-	.	16G/LL	pa-	16g\LL	pa-	.	16g/LL	pa-	.	4.r	.	4.r	.	4.r	.	4.ryy	4.ryy	4.ryy	4.ryy
!LO:TX:a:t=|:problem	!	!	!	!	!	!	!	!	!	!	!	!	!	!	!	!	!	!	!	!	!	!	!	!	!	!	!	!	!	!	!	!
16F\	.	.	.	16f\	.	16f/	.	16f/	.	16f/	.	16F\	.	.	16F/	.	16f\	.	.	16f/	.	.	.	.	.	.	.	.	.	.	.	.
!LO:TX:a:t=|:problem	!	!	!	!	!	!	!	!	!	!	!	!	!	!	!	!	!	!	!	!	!	!	!	!	!	!	!	!	!	!	!	!
16E\	.	.	.	16e\	.	16e/)	.	16e/)	.	16e/	.	16E\	.	.	16E/	.	16e\	.	.	16e/	.	.	.	.	.	.	.	.	.	.	.	.
!LO:TX:a:t=|:problem	!	!	!	!	!	!	!	!	!	!	!	!	!	!	!	!	!	!	!	!	!	!	!	!	!	!	!	!	!	!	!	!
16D\J	.	.	.	16d\J)	.	16d/J	.	16d/J	.	16d/J)	.	16D\JJ	.	.	16D/JJ	.	16d\JJ	.	.	16d/JJ	.	.	.	.	.	.	.	.	.	.	.	.
!LO:TX:a:t=|:problem	!	!	!	!LO:TX:a:t=|:problem	!	!LO:TX:b:t=|:problem	!	!LO:TX:b:t=|:problem	!	!	!	!	!	!	!	!	!	!	!	!	!	!	!	!	!	!	!	!	!	!	!	!
8C\J	.	.	.	8c\J	.	8c/J	.	8c/J	.	8c/J	.	8C/	-cem	.	8C/	-cem	8c\	-cem	.	8c/	-cem	.	.	.	.	.	.	.	.	.	.	.
!LO:LB:g=original	!	!	!	!	!	!	!	!	!	!	!	!	!	!	!	!	!LO:LB:g=original	!	!	!	!	!	!	!	!	!	!	!	!	!	!	!
=53	=53	=53	=53	=53	=53	=53	=53	=53	=53	=53	=53	=53	=53	=53	=53	=53	=53	=53	=53	=53	=53	=53	=53	=53	=53	=53	=53	=53	=53	=53	=53	=53
!LO:TX:a:t=Tasto Solo.	!	!	!	!LO:TX:t=P:problem:mixed beam	!	!LO:TX:t=P:problem:mixed beam	!	!LO:TX:t=P:problem:mixed beam	!	!LO:TX:t=P:problem:mixed beam	!	!	!	!	!	!	!	!	!	!	!	!	!	!	!	!	!	!	!	!	!	!
[4.GG/	.	.	4.ryy	16G/LL	.	8G/L	.	8G/L	.	8G/L	.	4G\	do-	.	8r	.	8r	.	.	8r	.	.	4GG/	.	4G/	.	4g/	.	4.ryy	4.ryy	4.ryy	4.ryy
.	.	.	.	16g\	.	.	.	.	.	.	.	.	.	.	.	.	.	.	.	.	.	.	.	.	.	.	.	.	.	.	.	.
.	.	.	.	16G/	.	(8b\	.	8ff\	.	8ff\	.	.	.	.	8B\	do-	8g\	do-	.	8dd\	do-	.	.	.	.	.	.	.	.	.	.	.
.	.	.	.	16g\	.	.	.	.	.	.	.	.	.	.	.	.	.	.	.	.	.	.	.	.	.	.	.	.	.	.	.	.
.	.	.	.	16G/	.	8cc\J)	.	8ee\J	.	8ee\J	.	8G\	-na	.	8c\	-na	8g\	-na	.	8ee\	-na	.	8r	.	8r	.	8r	.	.	.	.	.
.	.	.	.	16g\JJ	.	.	.	.	.	.	.	.	.	.	.	.	.	.	.	.	.	.	.	.	.	.	.	.	.	.	.	.
!	!	!	!	!LO:LB:g=original	!	!	!	!	!	!	!	!	!	!	!	!	!	!	!	!LO:LB:g=original	!	!	!	!	!	!	!	!	!	!	!	!
=54	=54	=54	=54	=54	=54	=54	=54	=54	=54	=54	=54	=54	=54	=54	=54	=54	=54	=54	=54	=54	=54	=54	=54	=54	=54	=54	=54	=54	=54	=54	=54	=54
.	.	.	.	.	.	.	.	8qqccc/	.	8qqccc/	.	.	.	.	.	.	.	.	.	.	.	.	.	.	.	.	.	.	.	.	.	.
!	!	!	!	!LO:TX:t=P:problem:mixed beam	!	!	!	!	!	!	!	!	!	!	!	!	!	!	!	!	!	!	!	!	!	!	!	!	!	!	!	!
4.GG/_	.	.	4.ryy	16G/LL	.	(8dd\L	.	4bb\	.	4bb\	.	4G\	do-	.	4d\	do-	4g\	do-	.	4ff\	do-	.	4GG/	.	4G/	.	4g/	.	4.ryy	4.ryy	4.ryy	4.ryy
.	.	.	.	16g\	.	.	.	.	.	.	.	.	.	.	.	.	.	.	.	.	.	.	.	.	.	.	.	.	.	.	.	.
.	.	.	.	16G/	.	8ff\)	.	.	.	.	.	.	.	.	.	.	.	.	.	.	.	.	.	.	.	.	.	.	.	.	.	.
.	.	.	.	16g\	.	.	.	.	.	.	.	.	.	.	.	.	.	.	.	.	.	.	.	.	.	.	.	.	.	.	.	.
!	!	!	!	!	!	!LO:TX:a:t=|:problem	!	!	!	!	!	!	!	!	!	!	!	!	!	!	!	!	!	!	!	!	!	!	!	!	!	!
.	.	.	.	16G/	.	8ee\J	.	8ccc\	.	8ccc\	.	8G\	-na	.	8c\	-na	8g\	-na	.	8ee\	-na	.	8r	.	8r	.	8r	.	.	.	.	.
.	.	.	.	16g\JJ	.	.	.	.	.	.	.	.	.	.	.	.	.	.	.	.	.	.	.	.	.	.	.	.	.	.	.	.
!	!	!	!	!	!	!	!	!	!	!	!	!LO:LB:g=original	!	!	!	!	!	!	!	!	!	!	!	!	!	!	!	!	!	!	!	!
=55	=55	=55	=55	=55	=55	=55	=55	=55	=55	=55	=55	=55	=55	=55	=55	=55	=55	=55	=55	=55	=55	=55	=55	=55	=55	=55	=55	=55	=55	=55	=55	=55
!	!	!	!	!LO:TX:t=P:problem:mixed beam	!	!	!	!	!	!	!	!	!	!	!	!	!	!	!	!	!	!	!	!	!	!	!	!	!	!	!	!
4.GG/_	.	.	4.ryy	16G/LL	.	8g/L	.	8ddd\L	.	8ddd\L	.	4G\	no-	.	4B\	no-	4g\	no-	.	4dd\	no-	.	4GG/	.	4G/	.	4g/	.	4.ryy	4.ryy	4.ryy	4.ryy
.	.	.	.	16g\	.	.	.	.	.	.	.	.	.	.	.	.	.	.	.	.	.	.	.	.	.	.	.	.	.	.	.	.
.	.	.	.	16G/	.	8b/	.	8ff\	.	8ff\	.	.	.	.	.	.	.	.	.	.	.	.	.	.	.	.	.	.	.	.	.	.
.	.	.	.	16g\	.	.	.	.	.	.	.	.	.	.	.	.	.	.	.	.	.	.	.	.	.	.	.	.	.	.	.	.
.	.	.	.	16G/	.	8cc/J	.	8ee\J	.	8ee\J	.	8G\	-bis	.	8c\	-bis	8g\	-bis	.	8ee\	-bis	.	8r	.	8r	.	8r	.	.	.	.	.
.	.	.	.	16g\JJ	.	.	.	.	.	.	.	.	.	.	.	.	.	.	.	.	.	.	.	.	.	.	.	.	.	.	.	.
=56	=56	=56	=56	=56	=56	=56	=56	=56	=56	=56	=56	=56	=56	=56	=56	=56	=56	=56	=56	=56	=56	=56	=56	=56	=56	=56	=56	=56	=56	=56	=56	=56
!	!	!	!	!LO:TX:t=P:problem:mixed beam	!	!	!	!	!	!	!	!	!	!	!	!	!	!	!	!	!	!	!	!	!	!	!	!	!	!	!	!
4.GG/_	.	.	4.ryy	16G/LL	.	(8dd\L	.	4bb\	.	4bb\	.	4G\	pa-	.	4d\	pa-	4g\	pa-	.	4ff\	pa-	.	4GG/	.	4G/	.	4g/	.	4.ryy	4.ryy	4.ryy	4.ryy
.	.	.	.	16g\	.	.	.	.	.	.	.	.	.	.	.	.	.	.	.	.	.	.	.	.	.	.	.	.	.	.	.	.
.	.	.	.	16G/	.	8ff\)	.	.	.	.	.	.	.	.	.	.	.	.	.	.	.	.	.	.	.	.	.	.	.	.	.	.
.	.	.	.	16g\	.	.	.	.	.	.	.	.	.	.	.	.	.	.	.	.	.	.	.	.	.	.	.	.	.	.	.	.
!	!	!	!	!	!	!LO:TX:a:t=|:problem	!	!	!	!	!	!	!	!	!	!	!	!	!	!	!	!	!	!	!	!	!	!	!	!	!	!
.	.	.	.	16G/	.	8ee\J	.	8ccc\	.	8ccc\	.	8G\	-cem	.	8c\	-cem	8g\	-cem	.	8ee\	-cem	.	8r	.	8r	.	8r	.	.	.	.	.
.	.	.	.	16g\JJ	.	.	.	.	.	.	.	.	.	.	.	.	.	.	.	.	.	.	.	.	.	.	.	.	.	.	.	.
!	!	!	!	!	!	!	!	!	!	!LO:LB:g=original	!	!	!	!	!LO:LB:g=original	!	!	!	!	!	!	!	!	!	!	!	!	!	!	!	!	!
=57	=57	=57	=57	=57	=57	=57	=57	=57	=57	=57	=57	=57	=57	=57	=57	=57	=57	=57	=57	=57	=57	=57	=57	=57	=57	=57	=57	=57	=57	=57	=57	=57
!	!	!	!	!LO:TX:t=P:problem:mixed beam	!	!LO:TX:a:t=|:problem	!	!	!	!	!	!	!	!	!	!	!	!	!	!	!	!	!	!	!	!	!	!	!	!	!	!
4GG/]	.	.	4.ryy	16G/LL	.	8ff\L	.	8ddd\L	.	8ddd\L	.	4G\	do-	.	8B\L	do-	4g\	do-	.	8dd\L	do-	.	4GG/	.	4G/	.	4g/	.	4.ryy	4.ryy	4.ryy	4.ryy
.	.	.	.	16g\	.	.	.	.	.	.	.	.	.	.	.	.	.	.	.	.	.	.	.	.	.	.	.	.	.	.	.	.
.	.	.	.	16G/	.	(8dd\	.	8ff\	.	8ff\	.	.	.	.	8d\J	.	.	.	.	8ff\J	.	.	.	.	.	.	.	.	.	.	.	.
.	.	.	.	16g\	.	.	.	.	.	.	.	.	.	.	.	.	.	.	.	.	.	.	.	.	.	.	.	.	.	.	.	.
8r	.	.	.	16G/	.	8cc\J)	.	8ee\J	.	8ee\J	.	8G\	-na	.	8c\	-na	8g\	-na	.	8ee\	-na	.	8r	.	8r	.	8r	.	.	.	.	.
.	.	.	.	16g\JJ	.	.	.	.	.	.	.	.	.	.	.	.	.	.	.	.	.	.	.	.	.	.	.	.	.	.	.	.
=58	=58	=58	=58	=58	=58	=58	=58	=58	=58	=58	=58	=58	=58	=58	=58	=58	=58	=58	=58	=58	=58	=58	=58	=58	=58	=58	=58	=58	=58	=58	=58	=58
!	!	!	!	!LO:TX:t=P:problem:mixed beam	!	!LO:TX:a:t=|:problem	!	!	!	!	!	!	!	!	!	!	!	!	!	!	!	!	!	!	!	!	!	!	!	!	!	!
4GG/	.	.	4.ryy	16G/LL	.	8ff\L	.	8ddd\L	.	8ddd\L	.	4G\	do-	.	8B\L	do-	4g\	do-	.	8dd\L	do-	.	4GG/	.	4G/	.	4g/	.	4.ryy	4.ryy	4.ryy	4.ryy
.	.	.	.	16g\	.	.	.	.	.	.	.	.	.	.	.	.	.	.	.	.	.	.	.	.	.	.	.	.	.	.	.	.
.	.	.	.	16G/	.	(8dd\	.	8ff\	.	8ff\	.	.	.	.	8d\J	.	.	.	.	8ff\J	.	.	.	.	.	.	.	.	.	.	.	.
.	.	.	.	16g\	.	.	.	.	.	.	.	.	.	.	.	.	.	.	.	.	.	.	.	.	.	.	.	.	.	.	.	.
8r	.	.	.	16G/	.	8cc\J)	.	8ee\J	.	8ee\J	.	8G\	-na	.	8c\	-na	8g\	-na	.	8ee\	-na	.	8r	.	8r	.	8r	.	.	.	.	.
.	.	.	.	16g\JJ	.	.	.	.	.	.	.	.	.	.	.	.	.	.	.	.	.	.	.	.	.	.	.	.	.	.	.	.
!	!	!	!	!LO:LB:g=original	!	!	!	!	!	!	!	!	!	!	!	!	!	!	!	!	!	!	!	!	!	!	!	!	!	!	!	!
=59	=59	=59	=59	=59	=59	=59	=59	=59	=59	=59	=59	=59	=59	=59	=59	=59	=59	=59	=59	=59	=59	=59	=59	=59	=59	=59	=59	=59	=59	=59	=59	=59
!	!	!	!	!LO:TX:t=P:problem:mixed beam	!	!LO:TX:a:t=|:problem	!	!	!	!	!	!	!	!	!	!	!	!	!	!	!	!	!	!	!	!	!	!	!	!	!	!
8GG/L	7	.	4.ryy	16G/LL	.	8ff\L	.	8ddd\L	.	8ddd\L	.	8G\L	no-	.	8B\L	no-	4g\	no-	.	8dd\L	no-	.	4GG/	.	4G/	.	4g/	.	4.ryy	4.ryy	4.ryy	4.ryy
.	.	.	.	16g\	.	.	.	.	.	.	.	.	.	.	.	.	.	.	.	.	.	.	.	.	.	.	.	.	.	.	.	.
8BB/	6 5	.	.	16G/	.	(8dd\	.	8ff\	.	8ff\	.	8B\	.	.	8d\J	.	.	.	.	8ff\J	.	.	.	.	.	.	.	.	.	.	.	.
.	.	.	.	16g\	.	.	.	.	.	.	.	.	.	.	.	.	.	.	.	.	.	.	.	.	.	.	.	.	.	.	.	.
8C/J	.	.	.	16G/	.	8cc\J)	.	8ee\J	.	8ee\J	.	8c\J	-bis	.	8c\	-bis	8g\	-bis	.	8ee\	-bis	.	8r	.	8r	.	8r	.	.	.	.	.
.	.	.	.	16g\JJ	.	.	.	.	.	.	.	.	.	.	.	.	.	.	.	.	.	.	.	.	.	.	.	.	.	.	.	.
!	!	!	!	!	!	!	!	!	!	!	!	!	!	!	!	!	!LO:LB:g=original	!	!	!	!	!	!	!	!	!	!	!	!	!	!	!
=60	=60	=60	=60	=60	=60	=60	=60	=60	=60	=60	=60	=60	=60	=60	=60	=60	=60	=60	=60	=60	=60	=60	=60	=60	=60	=60	=60	=60	=60	=60	=60	=60
!LO:TX:t=P:problem:mixed beam	!	!	!	!LO:TX:t=P:problem:mixed beam	!	!LO:TX:a:t=|:problem	!	!	!	!	!	!	!	!	!	!	!	!	!	!	!	!	!	!	!	!	!	!	!	!	!	!
8GG/L	6 4	.	4.ryy	16G/LL	.	8cc\L	.	8ee\L	.	8ee\L	.	8G\	pa-	.	8c\	pa-	8g\	pa-	.	8ee\	pa-	.	4GG/	.	4G/	.	4g/	.	4.ryy	4.ryy	4.ryy	4.ryy
.	.	.	.	16g\J	.	.	.	.	.	.	.	.	.	.	.	.	.	.	.	.	.	.	.	.	.	.	.	.	.	.	.	.
!	!	!	!	!	!	!LO:TX:a:t=|:problem	!	!	!	!	!	!	!	!	!	!	!	!	!	!	!	!	!	!	!	!	!	!	!	!	!	!
8G\	5 3	.	.	8G/J	.	8b\J	.	8dd\J	.	8dd\J	.	8GG/	-cem	.	8B\	-cem	8g\	-cem	.	8dd\	-cem	.	.	.	.	.	.	.	.	.	.	.
8GG/J	.	.	.	8r	.	8r	.	8r	.	8r	f	8r	.	.	8r	.	8r	.	.	8r	.	.	8r	.	8r	.	8r	.	.	.	.	.
!	!	!	!	!	!	!	!	!	!	!	!	!	!	!	!	!	!	!	!	!LO:LB:g=original	!	!	!	!	!	!	!	!	!	!	!	!
=61	=61	=61	=61	=61	=61	=61	=61	=61	=61	=61	=61	=61	=61	=61	=61	=61	=61	=61	=61	=61	=61	=61	=61	=61	=61	=61	=61	=61	=61	=61	=61	=61
!LO:TX:t=P:problem:mixed beam	!	!	!	!LO:TX:t=P:problem:mixed beam	!	!LO:TX:t=P:problem:mixed beam	!	!LO:TX:t=P:problem:mixed beam	!	!LO:TX:t=P:problem:mixed beam	!	!	!	!	!	!	!	!	!	!	!	!	!	!	!	!	!LO:TX:a:t=8.	!	!	!	!	!
!LO:TX:b:t=|:problem	!	!	!	!	!LO:DY:rj	!	!	!	!	!	!	!	!	!	!	!	!	!	!	!	!	!	!LO:N:vis=00	!	!LO:N:vis=00	!	!LO:N:vis=00	!	!	!	!	!
8C/L	.	.	4.ryy	8C/L	f	8c/L	.	8c/L	.	8c/L	.	4c\	do-	.	4c\	do-	4cc\	do-	.	4cc\	do-	.	1.r	.	1.r	.	1.r	.	4.ryy	4.ryy	4.ryy	4.ryy
!LO:TX:a:t=|:problem	!	!	!	!	!	!	!	!	!	!	!	!	!	!	!	!	!	!	!	!	!	!	!	!	!	!	!	!	!	!	!	!
8c\	.	.	.	8c\	.	8cc\	.	8cc\	.	8cc\	.	.	.	.	.	.	.	.	.	.	.	.	.	.	.	.	.	.	.	.	.	.
!LO:TX:a:t=|:problem	!	!	!	!	!	!	!	!	!	!	!	!	!	!	!	!	!	!	!	!	!	!	!	!	!	!	!	!	!	!	!	!
8c\J	.	.	.	8c\J	.	8cc\J	.	8cc\J	.	8cc\J	.	8c\	-na	.	8c\	-na	8cc\	-na	.	8cc\	-na	.	.	.	.	.	.	.	.	.	.	.
!	!	!	!	!	!	!	!	!	!	!	!	!	!	!	!LO:LB:g=original	!	!	!	!	!	!	!	!	!	!	!	!	!	!	!	!	!
=62	=62	=62	=62	=62	=62	=62	=62	=62	=62	=62	=62	=62	=62	=62	=62	=62	=62	=62	=62	=62	=62	=62	=62	=62	=62	=62	=62	=62	=62	=62	=62	=62
!LO:TX:a:t=|:problem	!	!	!	!	!	!	!	!	!	!	!	!	!	!	!	!	!	!	!	!	!	!	!	!	!	!	!	!	!	!	!	!
4c\	.	.	4.ryy	4c\	.	4cc\	.	4cc\	.	4cc\	.	4c\	do-	.	4c\	do-	4cc\	do-	.	4cc\	do-	.	.	.	.	.	.	.	4.ryy	4.ryy	4.ryy	4.ryy
!LO:TX:a:t=|:problem	!	!	!	!	!	!	!	!	!	!	!	!	!	!	!	!	!	!	!	!	!	!	!	!	!	!	!	!	!	!	!	!
8E\	.	.	.	8E/	.	8e/	.	8e/	.	8e/	.	8E\	.	.	8E/	.	8e\	.	.	8e/	.	.	.	.	.	.	.	.	.	.	.	.
!LO:LB:g=original	!	!	!	!	!	!	!	!	!	!	!	!LO:LB:g=original	!	!	!	!	!	!	!	!	!	!	!	!	!	!	!	!	!	!	!	!
=63	=63	=63	=63	=63	=63	=63	=63	=63	=63	=63	=63	=63	=63	=63	=63	=63	=63	=63	=63	=63	=63	=63	=63	=63	=63	=63	=63	=63	=63	=63	=63	=63
!LO:TX:a:t=|:problem	!	!	!	!	!	!	!	!LO:TX:t=P:problem:mixed beam	!	!LO:TX:t=P:problem:mixed beam	!	!	!	!	!	!	!	!	!	!	!	!	!	!	!	!	!	!	!	!	!	!
4F\	.	.	4.ryy	8F/	.	8f/L	.	8f/L	.	8f/L	.	8F\	-na	.	8F/	-na	8fn\	-na	.	8f/	-na	.	.	.	.	.	.	.	4.ryy	4.ryy	4.ryy	4.ryy
.	.	.	.	8r	.	8a/	p	8ff\	p	8ff\	p	8r	.	.	8r	.	8r	.	.	8r	.	.	.	.	.	.	.	.	.	.	.	.
8r	.	.	.	8r	.	8cc/J	.	8aa\J	.	8aa\J	.	8r	.	.	8r	.	8r	.	.	8r	.	.	.	.	.	.	.	.	.	.	.	.
=64	=64	=64	=64	=64	=64	=64	=64	=64	=64	=64	=64	=64	=64	=64	=64	=64	=64	=64	=64	=64	=64	=64	=64	=64	=64	=64	=64	=64	=64	=64	=64	=64
4.r	.	.	4.ryy	4.r	.	(8cc/L	.	(8aa\L	.	(8aa\L	.	4.r	.	.	4.r	.	4.r	.	.	4.r	.	.	.	.	.	.	.	.	4.ryy	4.ryy	4.ryy	4.ryy
.	.	.	.	.	.	8b-X/)	.	8gg\	.	8gg\)	.	.	.	.	.	.	.	.	.	.	.	.	.	.	.	.	.	.	.	.	.	.
!	!	!	!	!	!	!LO:TX:b:t=|:problem	!	!	!	!LO:TX:a:t=|:problem	!	!	!	!	!	!	!	!	!	!	!	!	!	!	!	!	!	!	!	!	!	!
.	.	.	.	.	.	8a/J	.	8ff\J)	.	8ff\J	.	.	.	.	.	.	.	.	.	.	.	.	.	.	.	.	.	.	.	.	.	.
!	!	!	!	!LO:LB:g=original	!	!LO:LB:g=original	!	!	!	!	!	!	!	!	!	!	!	!	!	!	!	!	!	!	!	!	!	!	!	!	!	!
=65	=65	=65	=65	=65	=65	=65	=65	=65	=65	=65	=65	=65	=65	=65	=65	=65	=65	=65	=65	=65	=65	=65	=65	=65	=65	=65	=65	=65	=65	=65	=65	=65
!LO:TX:t=P:problem:mixed beam	!	!	!	!LO:TX:t=P:problem:mixed beam	!	!LO:TX:t=P:problem:mixed beam	!	!LO:TX:t=P:problem:mixed beam	!	!LO:TX:t=P:problem:mixed beam	!LO:DY:a	!	!	!	!	!	!	!	!	!	!	!	!	!	!	!	!	!	!	!	!	!
!LO:TX:b:t=|:problem	!	!	!	!	!	!	!	!	!LO:DY:rj	!	!	!	!	!	!	!	!	!	!	!	!	!	!LO:N:vis=00	!	!LO:N:vis=00	!	!LO:N:vis=00	!	!	!	!	!
8D/L	.	.	4.ryy	8D/L	.	8d/L	.	8d/L	f	8d/L	f	4d\	no-	.	4d\	no-	4dd\	no-	.	4dd\	no-	.	1.r	.	1.r	.	1.r	.	4.ryy	4.ryy	4.ryy	4.ryy
!LO:TX:a:t=|:problem	!	!	!	!	!	!	!	!	!	!	!	!	!	!	!	!	!	!	!	!	!	!	!	!	!	!	!	!	!	!	!	!
8d\	.	.	.	8d\	.	8dd\	f	8dd\	.	8dd\	.	.	.	.	.	.	.	.	.	.	.	.	.	.	.	.	.	.	.	.	.	.
!LO:TX:a:t=|:problem	!	!	!	!	!	!	!	!	!	!	!	!	!	!	!	!	!	!	!	!	!	!	!	!	!	!	!	!	!	!	!	!
8d\J	.	.	.	8d\J	.	8dd\J	.	8dd\J	.	8dd\J	.	8d\	-bis	.	8d\	-bis	8dd\	-bis	.	8dd\	-bis	.	.	.	.	.	.	.	.	.	.	.
!	!	!	!	!	!	!	!	!LO:LB:g=original	!	!	!	!	!	!	!	!	!	!	!	!	!	!	!	!	!	!	!	!	!	!	!	!
=66	=66	=66	=66	=66	=66	=66	=66	=66	=66	=66	=66	=66	=66	=66	=66	=66	=66	=66	=66	=66	=66	=66	=66	=66	=66	=66	=66	=66	=66	=66	=66	=66
!LO:TX:a:t=|:problem	!	!	!	!	!	!	!	!	!	!	!	!	!	!	!	!	!	!	!	!	!	!	!	!	!	!	!	!	!	!	!	!
4d\	.	.	4.ryy	4d\	.	4dd\	.	4dd\	.	4dd\	.	4d\	pa-	.	4d\	pa-	4dd\	pa-	.	4dd\	pa-	.	.	.	.	.	.	.	4.ryy	4.ryy	4.ryy	4.ryy
!LO:TX:a:t=|:problem	!	!	!	!	!	!	!	!	!	!	!	!	!	!	!	!	!	!	!	!	!	!	!	!	!	!	!	!	!	!	!	!
8F#X\	.	.	.	8F#X/	.	8f#X/	.	8f#X/	.	8f#X/	.	8F#X\	.	.	8F#X/	.	8f#X\	.	.	8f#X/	.	.	.	.	.	.	.	.	.	.	.	.
!	!	!	!	!	!	!	!	!	!	!	!	!	!	!	!	!	!LO:LB:g=original	!	!	!	!	!	!	!	!	!	!	!	!	!	!	!
=67	=67	=67	=67	=67	=67	=67	=67	=67	=67	=67	=67	=67	=67	=67	=67	=67	=67	=67	=67	=67	=67	=67	=67	=67	=67	=67	=67	=67	=67	=67	=67	=67
!LO:TX:a:t=|:problem	!	!	!	!LO:TX:b:t=|:problem	!	!	!	!LO:TX:t=P:problem:mixed beam	!LO:DY:rj	!LO:TX:t=P:problem:mixed beam	!	!	!	!	!	!	!	!	!	!	!	!	!	!	!	!	!	!	!	!	!	!
4G\	.	.	4.ryy	8G/	.	8g/L	.	8g/L	p	8g/L	.	8G\	-cem	.	8G/	-cem	8g\	-cem	.	8g/	-cem	.	.	.	.	.	.	.	4.ryy	4.ryy	4.ryy	4.ryy
.	.	.	.	8r	.	8bn/	p	8gg\	.	8gg\	p	8r	.	.	8r	.	8r	.	.	8r	.	.	.	.	.	.	.	.	.	.	.	.
8r	.	.	.	8r	.	8dd/J	.	8bb\J	.	8bb\J	.	8r	.	.	8r	.	8r	.	.	8r	.	.	.	.	.	.	.	.	.	.	.	.
!	!	!	!	!	!	!	!	!	!	!	!	!	!	!	!LO:LB:g=original	!	!	!	!	!	!	!	!	!	!	!	!	!	!	!	!	!
=68	=68	=68	=68	=68	=68	=68	=68	=68	=68	=68	=68	=68	=68	=68	=68	=68	=68	=68	=68	=68	=68	=68	=68	=68	=68	=68	=68	=68	=68	=68	=68	=68
4.r	.	.	4.ryy	4.r	.	(8dd\L	.	(8bb\L	.	(8bb\L	.	4.r	.	.	4.r	.	4.r	.	.	4.r	.	.	.	.	.	.	.	.	4.ryy	4.ryy	4.ryy	4.ryy
.	.	.	.	.	.	8cc\)	.	8aa\	.	8aa\)	.	.	.	.	.	.	.	.	.	.	.	.	.	.	.	.	.	.	.	.	.	.
!	!	!	!	!	!	!LO:TX:a:t=|:problem	!	!	!	!LO:TX:a:t=|:problem	!	!	!	!	!	!	!	!	!	!	!	!	!	!	!	!	!	!	!	!	!	!
.	.	.	.	.	.	8b\J	.	8gg\J)	.	8gg\J	.	.	.	.	.	.	.	.	.	.	.	.	.	.	.	.	.	.	.	.	.	.
!	!	!	!	!	!	!	!	!	!	!	!	!	!	!	!	!	!	!	!	!LO:LB:g=original	!	!	!	!	!	!	!	!	!	!	!	!
=69	=69	=69	=69	=69	=69	=69	=69	=69	=69	=69	=69	=69	=69	=69	=69	=69	=69	=69	=69	=69	=69	=69	=69	=69	=69	=69	=69	=69	=69	=69	=69	=69
!	!	!	!	!LO:TX:t=P:problem:mixed beam	!	!	!LO:DY:rj	!	!LO:DY:rj	!	!LO:DY:rj	!	!	!	!	!	!	!	!	!	!	!	!	!	!	!	!	!	!	!	!	!
8GG/L	n7_	.	4.ryy	8G/L	.	8G/L	f	(16ffn\LL	f	16ffn\LL	f	4.G\	do-	.	4.d\	do-	4.fn\	do-	.	4.b\	do-	.	8GG/	.	4.G/	.	4.g/	.	4.ryy	4.ryy	4.ryy	4.ryy
.	.	.	.	.	.	.	.	16ee\	.	(16ee\	.	.	.	.	.	.	.	.	.	.	.	.	.	.	.	.	.	.	.	.	.	.
8D/	.	.	.	8d\	.	8d/	.	16ff\	.	16ff\	.	.	.	.	.	.	.	.	.	.	.	.	8r	.	.	.	.	.	.	.	.	.
.	.	.	.	.	.	.	.	16dd\	.	16dd\	.	.	.	.	.	.	.	.	.	.	.	.	.	.	.	.	.	.	.	.	.	.
8F/J	X	.	.	8f\J	.	8f/J	.	16cc\	.	16cc\	.	.	.	.	.	.	.	.	.	.	.	.	8r	.	.	.	.	.	.	.	.	.
.	.	.	.	.	.	.	.	16b\JJ)	.	16b\JJ)	.	.	.	.	.	.	.	.	.	.	.	.	.	.	.	.	.	.	.	.	.	.
=70	=70	=70	=70	=70	=70	=70	=70	=70	=70	=70	=70	=70	=70	=70	=70	=70	=70	=70	=70	=70	=70	=70	=70	=70	=70	=70	=70	=70	=70	=70	=70	=70
!	!	!	!	!LO:TX:t=P:problem:mixed beam	!	!	!	!	!	!	!	!	!	!	!	!	!	!	!	!	!	!	!	!	!	!	!	!	!	!	!	!
8GG/L	6_ 4	.	4.ryy	8G/L	.	8G/L	.	16cc\LL	.	(16cc\LL	.	4.G\	-na	.	4.c\	-na	4.e\	-na	.	4.cc\	-na	.	8GG/	.	4.G/	.	4.g/	.	4.ryy	4.ryy	4.ryy	4.ryy
.	.	.	.	.	.	.	.	(16b\	.	16b\	.	.	.	.	.	.	.	.	.	.	.	.	.	.	.	.	.	.	.	.	.	.
8C/	.	.	.	8c\	.	8c/	.	16cc\	.	16cc\	.	.	.	.	.	.	.	.	.	.	.	.	8r	.	.	.	.	.	.	.	.	.
.	.	.	.	.	.	.	.	16dd\	.	16dd\	.	.	.	.	.	.	.	.	.	.	.	.	.	.	.	.	.	.	.	.	.	.
8E/J	X	.	.	8e\J	.	8e/J	.	16ee\)	.	16ee\)	.	.	.	.	.	.	.	.	.	.	.	.	8r	.	.	.	.	.	.	.	.	.
.	.	.	.	.	.	.	.	16ff\JJ	.	16ff\JJ	.	.	.	.	.	.	.	.	.	.	.	.	.	.	.	.	.	.	.	.	.	.
!	!	!	!	!	!	!	!	!	!	!	!	!	!	!	!	!	!	!	!	!	!	!	!LO:LB:g=original	!	!	!	!LO:LB:g=original	!	!	!	!	!
=71	=71	=71	=71	=71	=71	=71	=71	=71	=71	=71	=71	=71	=71	=71	=71	=71	=71	=71	=71	=71	=71	=71	=71	=71	=71	=71	=71	=71	=71	=71	=71	=71
!	!	!	!	!LO:TX:t=P:problem:mixed beam	!	!	!	!	!	!	!	!	!	!	!	!	!	!	!	!	!	!	!	!	!	!	!	!	!	!	!	!
8GG/L	.	.	4.ryy	8G/L	.	8G/L	.	16gg\LL	.	(16gg\LL	.	4.G\	no-	.	4.e\	do-	4.g\	do-	.	4cc\	do-	.	8GG/	.	4.G/	.	4.g/	.	4.ryy	4.ryy	4.ryy	4.ryy
.	.	.	.	.	.	.	.	(16ff#X\	.	16ff#X\	.	.	.	.	.	.	.	.	.	.	.	.	.	.	.	.	.	.	.	.	.	.
8C/	.	.	.	8c\	.	8c/	.	16gg\	.	16gg\	.	.	.	.	.	.	.	.	.	.	.	.	8r	.	.	.	.	.	.	.	.	.
.	.	.	.	.	.	.	.	16ee\	.	16ee\	.	.	.	.	.	.	.	.	.	.	.	.	.	.	.	.	.	.	.	.	.	.
8E/J	.	.	.	8e\J	.	8e/J	.	16dd\	.	16dd\	.	.	.	.	.	.	.	.	.	8cc#X\	.	.	8r	.	.	.	.	.	.	.	.	.
.	.	.	.	.	.	.	.	16cc#X\JJ)	.	16cc#X\JJ)	.	.	.	.	.	.	.	.	.	.	.	.	.	.	.	.	.	.	.	.	.	.
!	!	!	!	!LO:LB:g=original	!	!	!	!	!	!	!	!	!	!	!	!	!	!	!	!	!	!	!	!	!	!	!	!	!	!	!	!
=72	=72	=72	=72	=72	=72	=72	=72	=72	=72	=72	=72	=72	=72	=72	=72	=72	=72	=72	=72	=72	=72	=72	=72	=72	=72	=72	=72	=72	=72	=72	=72	=72
8GG/L	5 3	.	4.ryy	8G/L	.	8G/L	.	16dd\LL	.	16dd\LL	.	4.G\	-bis	.	4.d\	-na	4.f\	-na	.	4.dd\	-na	.	8GG/	.	4.G/	.	4.g/	.	4.ryy	4.ryy	4.ryy	4.ryy
.	.	.	.	.	.	.	.	(16cc#X\	.	(16cc#X\	.	.	.	.	.	.	.	.	.	.	.	.	.	.	.	.	.	.	.	.	.	.
8BB/	.	.	.	8B/	.	8B/	.	16dd\	.	16dd\	.	.	.	.	.	.	.	.	.	.	.	.	8r	.	.	.	.	.	.	.	.	.
.	.	.	.	.	.	.	.	16ee\	.	16ee\)	.	.	.	.	.	.	.	.	.	.	.	.	.	.	.	.	.	.	.	.	.	.
8D/J	.	.	.	8d/J	.	8d/J	.	16ffn\	.	16ffn\	.	.	.	.	.	.	.	.	.	.	.	.	8r	.	.	.	.	.	.	.	.	.
!	!	!	!	!	!	!	!	!	!	!LO:TX:a:t=P:problem:# above	!	!	!	!	!	!	!	!	!	!	!	!	!	!	!	!	!	!	!	!	!	!
.	.	.	.	.	.	.	.	16gg#X\JJ)	.	16gg#X\JJ	.	.	.	.	.	.	.	.	.	.	.	.	.	.	.	.	.	.	.	.	.	.
!LO:LB:g=original	!	!	!	!	!	!	!	!	!	!LO:LB:g=original	!	!LO:LB:g=original	!	!	!	!	!	!	!	!	!	!	!	!	!	!	!	!	!	!	!	!
=73	=73	=73	=73	=73	=73	=73	=73	=73	=73	=73	=73	=73	=73	=73	=73	=73	=73	=73	=73	=73	=73	=73	=73	=73	=73	=73	=73	=73	=73	=73	=73	=73
8GG/L	7	.	4.ryy	8B/L	.	8B/L	.	16aa\LL	.	16aa\LL	.	8GG/L	do-	.	8B\L	no-	4f\	no-	.	4dd\	no-	.	4.r	.	4.r	.	4.r	.	4.ryy	4.ryy	4.ryy	4.ryy
.	.	.	.	.	.	.	.	(16gg#X\	.	(16gg#X\	.	.	.	.	.	.	.	.	.	.	.	.	.	.	.	.	.	.	.	.	.	.
8BB/	.	.	.	8d/	.	8d/	.	16aa\	.	16aa\	.	8BB/	.	.	8d\J	.	.	.	.	.	.	.	.	.	.	.	.	.	.	.	.	.
.	.	.	.	.	.	.	.	16ff\	.	16ff\	.	.	.	.	.	.	.	.	.	.	.	.	.	.	.	.	.	.	.	.	.	.
8GG/J	.	.	.	8B/J	.	8g/J	.	16ee\)	.	16ee\)	.	8GG/J	-na	.	8B\	-bis	8g\	-bis	.	8dd#X\	-bis	.	.	.	.	.	.	.	.	.	.	.
.	.	.	.	.	.	.	.	16dd\JJ	.	16dd\JJ	.	.	.	.	.	.	.	.	.	.	.	.	.	.	.	.	.	.	.	.	.	.
=74	=74	=74	=74	=74	=74	=74	=74	=74	=74	=74	=74	=74	=74	=74	=74	=74	=74	=74	=74	=74	=74	=74	=74	=74	=74	=74	=74	=74	=74	=74	=74	=74
8C/L	.	.	4.ryy	4c\	.	16G/LL	.	(8ee\L	.	(8ee\L	.	8C\L	do-	.	4.c\	pa-	4.g\	pa-	.	4.ee\	pa-	.	4C/	.	4.e/	.	4.cc\	.	4.ryy	4.ryy	4.ryy	4.ryy
.	.	.	.	.	.	16g/	.	.	.	.	.	.	.	.	.	.	.	.	.	.	.	.	.	.	.	.	.	.	.	.	.	.
8E/	.	.	.	.	.	16G/	.	8gg\	.	8gg\)	.	8E\J	.	.	.	.	.	.	.	.	.	.	.	.	.	.	.	.	.	.	.	.
.	.	.	.	.	.	16g/	.	.	.	.	.	.	.	.	.	.	.	.	.	.	.	.	.	.	.	.	.	.	.	.	.	.
8C/J	.	.	.	8e\	.	16G/	.	8ccc\J)	.	8ccc\J	.	8C/	-na	.	.	.	.	.	.	.	.	.	8r	.	.	.	.	.	.	.	.	.
.	.	.	.	.	.	16g/JJ	.	.	.	.	.	.	.	.	.	.	.	.	.	.	.	.	.	.	.	.	.	.	.	.	.	.
!	!	!	!	!	!	!	!	!	!	!	!	!	!	!	!LO:LB:g=original	!	!	!	!	!	!	!	!	!	!	!	!	!	!	!	!	!
=75	=75	=75	=75	=75	=75	=75	=75	=75	=75	=75	=75	=75	=75	=75	=75	=75	=75	=75	=75	=75	=75	=75	=75	=75	=75	=75	=75	=75	=75	=75	=75	=75
8D/L	4_ 3_	.	4.ryy	4d\	.	16G/LL	.	(8bb\L	.	(8bb\L	.	8D/L	no-	.	8B\L	.	4.g\	.	.	4.ff\	.	.	4GG/	.	4.g/	.	4.dd\	.	4.ryy	4.ryy	4.ryy	4.ryy
.	.	.	.	.	.	16g/	.	.	.	.	.	.	.	.	.	.	.	.	.	.	.	.	.	.	.	.	.	.	.	.	.	.
8BB/	.	.	.	.	.	16G/	.	8ddd\	.	8ddd\)	.	8BB/J	.	.	8d\	.	.	.	.	.	.	.	.	.	.	.	.	.	.	.	.	.
.	.	.	.	.	.	16g/	.	.	.	.	.	.	.	.	.	.	.	.	.	.	.	.	.	.	.	.	.	.	.	.	.	.
8GG/J	.	.	.	8B\	.	16G/	.	8ff\J)	.	8ff\J	.	8GG/	-bis	.	8B\J	.	.	.	.	.	.	.	8r	.	.	.	.	.	.	.	.	.
.	X X	.	.	.	.	16g/JJ	.	.	.	.	.	.	.	.	.	.	.	.	.	.	.	.	.	.	.	.	.	.	.	.	.	.
!	!	!	!	!	!	!LO:LB:g=original	!	!	!	!	!	!	!	!	!	!	!LO:LB:g=original	!	!	!	!	!	!	!	!LO:LB:g=original	!	!	!	!	!	!	!
=76	=76	=76	=76	=76	=76	=76	=76	=76	=76	=76	=76	=76	=76	=76	=76	=76	=76	=76	=76	=76	=76	=76	=76	=76	=76	=76	=76	=76	=76	=76	=76	=76
*	*	*	*	*	*	*tremolo	*	*	*	*	*	*	*	*	*	*	*	*	*	*	*	*	*	*	*	*	*	*	*	*	*	*
8C/L	.	.	4.ryy	4c\	.	16g 16G/LL	.	(8ee\L	.	(8ee\L	.	8C/L	pa-	.	4.c\	.	4.g\	.	.	4.ee\	.	.	4C/	.	4.cc\	.	4.ee\	.	4.ryy	4.ryy	4.ryy	4.ryy
.	.	.	.	.	.	16g 16G/	.	.	.	.	.	.	.	.	.	.	.	.	.	.	.	.	.	.	.	.	.	.	.	.	.	.
8E/	.	.	.	.	.	16g 16G/	.	8gg\	.	8gg\	.	8E/	.	.	.	.	.	.	.	.	.	.	.	.	.	.	.	.	.	.	.	.
.	.	.	.	.	.	16g 16G/	.	.	.	.	.	.	.	.	.	.	.	.	.	.	.	.	.	.	.	.	.	.	.	.	.	.
8C/J	.	.	.	8e\	.	16g 16G/	.	8cc\J)	.	8cc\J)	.	8C/J	.	.	.	.	.	.	.	.	.	.	8r	.	.	.	.	.	.	.	.	.
.	.	.	.	.	.	16g 16G/JJ	.	.	.	.	.	.	.	.	.	.	.	.	.	.	.	.	.	.	.	.	.	.	.	.	.	.
=77	=77	=77	=77	=77	=77	=77	=77	=77	=77	=77	=77	=77	=77	=77	=77	=77	=77	=77	=77	=77	=77	=77	=77	=77	=77	=77	=77	=77	=77	=77	=77	=77
!	!	!	!	!	!	!	!	!LO:TX:t=P:problem:mixed beam	!	!LO:TX:t=P:problem:mixed beam	!	!	!	!	!	!	!	!	!	!	!	!	!	!	!	!	!	!	!	!	!	!
8D/L	4_ 3_	.	4.ryy	4d\	.	16g 16G/LL	.	(8b\L	.	(8b\L	.	8D/L	.	.	8B\L	.	4.g\	.	.	4.ff\	.	.	4GG/	.	4.g/	.	4.dd\	.	4.ryy	4.ryy	4.ryy	4.ryy
.	.	.	.	.	.	16g 16G/	.	.	.	.	.	.	.	.	.	.	.	.	.	.	.	.	.	.	.	.	.	.	.	.	.	.
8BB/	.	.	.	.	.	16g 16G/	.	8dd\	.	8dd\)	.	8BB/	.	.	8d\	.	.	.	.	.	.	.	.	.	.	.	.	.	.	.	.	.
.	.	.	.	.	.	16g 16G/	.	.	.	.	.	.	.	.	.	.	.	.	.	.	.	.	.	.	.	.	.	.	.	.	.	.
8GG/J	.	.	.	8B/	.	16g 16G/	.	8f/J)	.	8f/J	.	8GG/J	.	.	8B\J	.	.	.	.	.	.	.	8r	.	.	.	.	.	.	.	.	.
.	X X	.	.	.	.	16g 16G/JJ	.	.	.	.	.	.	.	.	.	.	.	.	.	.	.	.	.	.	.	.	.	.	.	.	.	.
*	*	*	*	*	*	*Xtremolo	*	*	*	*	*	*	*	*	*	*	*	*	*	*	*	*	*	*	*	*	*	*	*	*	*	*
!	!	!	!	!LO:LB:g=original	!	!	!	!	!	!	!	!	!	!	!	!	!	!	!	!LO:LB:g=original	!	!	!	!	!	!	!	!	!	!	!	!
=78	=78	=78	=78	=78	=78	=78	=78	=78	=78	=78	=78	=78	=78	=78	=78	=78	=78	=78	=78	=78	=78	=78	=78	=78	=78	=78	=78	=78	=78	=78	=78	=78
!	!	!	!	!LO:TX:t=P:problem:mixed beam	!	!	!	!LO:TX:t=P:problem:mixed beam	!	!LO:TX:t=P:problem:mixed beam	!	!	!	!	!	!	!	!	!	!	!	!	!	!	!	!	!	!	!	!	!	!
4C/	.	.	4.ryy	8C/L	.	8G/L	.	8e/L	.	8e/L	.	8C/	-cem	.	8c\	-cem	8g\	-cem	.	8ee\	-cem	.	4C/	.	4e/	.	4cc\	.	4.ryy	4.ryy	4.ryy	4.ryy
!	!	!	!	!	!	!	!	!	!	!	!LO:DY:a	!	!	!	!	!	!	!	!	!	!	!	!	!	!	!	!	!	!	!	!	!
.	.	.	.	8c\	p	8c/	p	8cc\	p	8cc\	p	8r	.	.	8r	.	8r	.	.	8r	.	.	.	.	.	.	.	.	.	.	.	.
8r	.	.	.	8c\J	.	8c/J	.	8cc\J	.	8cc\J	.	8r	.	.	8r	.	8r	.	.	8r	.	.	8r	.	8r	.	8r	.	.	.	.	.
!	!	!	!	!	!	!	!	!LO:LB:g=original	!	!	!	!	!	!	!	!	!	!	!	!	!	!	!	!	!	!	!	!	!	!	!	!
=79	=79	=79	=79	=79	=79	=79	=79	=79	=79	=79	=79	=79	=79	=79	=79	=79	=79	=79	=79	=79	=79	=79	=79	=79	=79	=79	=79	=79	=79	=79	=79	=79
4.r	.	.	4.ryy	16c/LL	.	16c/LL	.	(16cc\LL	.	(16cc/LL	.	4.r	.	.	4.r	.	4.r	.	.	4.r	.	.	4.r	.	4.r	.	4.r	.	4.ryy	4.ryy	4.ryy	4.ryy
.	.	.	.	(16B/	.	(16B/	.	16b\	.	16b/	.	.	.	.	.	.	.	.	.	.	.	.	.	.	.	.	.	.	.	.	.	.
.	.	.	.	16A/	.	16A/	.	16a\	.	16a/	.	.	.	.	.	.	.	.	.	.	.	.	.	.	.	.	.	.	.	.	.	.
.	.	.	.	16G/	.	16G/	.	16g\	.	16g/	.	.	.	.	.	.	.	.	.	.	.	.	.	.	.	.	.	.	.	.	.	.
.	.	.	.	16A/)	.	16A/)	.	16a\)	.	16a/	.	.	.	.	.	.	.	.	.	.	.	.	.	.	.	.	.	.	.	.	.	.
.	.	.	.	16B/JJ	.	16B/JJ	.	16b\JJ	.	16b/JJ)	.	.	.	.	.	.	.	.	.	.	.	.	.	.	.	.	.	.	.	.	.	.
!	!	!	!	!	!	!	!	!	!	!	!	!LO:LB:g=original	!	!	!	!	!	!	!	!	!	!	!	!	!	!	!	!	!	!	!	!
=80	=80	=80	=80	=80	=80	=80	=80	=80	=80	=80	=80	=80	=80	=80	=80	=80	=80	=80	=80	=80	=80	=80	=80	=80	=80	=80	=80	=80	=80	=80	=80	=80
!	!	!	!	!	!	!LO:TX:t=P:problem:mixed beam	!	!	!	!	!	!	!	!	!	!	!	!	!	!	!	!	!	!	!	!	!	!	!	!	!	!
8r	.	.	4.ryy	4c\	.	8c/L	.	8cc\L	.	8cc\L	.	8r	.	.	8r	.	8r	.	.	8r	.	.	8r	.	8r	.	8r	.	4.ryy	4.ryy	4.ryy	4.ryy
8C/L	.	.	.	.	.	8ee\	f	8ccc\	f	8ccc\	f	8C/	do-	.	8c\	do-	8g\	do-	.	8ee\	do-	.	8C/L	.	8cc\L	.	8ee\L	.	.	.	.	.
8C/J	.	.	.	8r	.	8ee\J	.	8gg\J	.	8gg\J	.	8C/	-na	.	8e\	-na	8g\	-na	.	8gg\	-na	.	8C/J	.	8ee\J	.	8gg\J	.	.	.	.	.
=81	=81	=81	=81	=81	=81	=81	=81	=81	=81	=81	=81	=81	=81	=81	=81	=81	=81	=81	=81	=81	=81	=81	=81	=81	=81	=81	=81	=81	=81	=81	=81	=81
!LO:TX:t=P:problem:mixed beam	!	!	!	!	!LO:DY:rj	!	!	!	!	!	!	!LO:TX:t=P:problem:mixed beam	!	!	!	!	!	!	!	!	!	!	!	!	!	!	!	!	!	!	!	!
8F\L	6	.	4.ryy	8A/L	f	8dd\L	.	8ff\L	.	8ff\L	.	8F\L	pa-	.	8d\L	pa-	8a\	pa-	.	8ff\L	pa-	.	8GG/	.	8dd\L	.	8ff\L	.	4.ryy	4.ryy	4.ryy	4.ryy
8G\	4	.	.	8G/	.	8cc\	.	8ee\	.	8ee\	.	8G\	.	.	8c\	.	4g\	.	.	8ee\	.	.	8r	.	8cc\	.	8ee\	.	.	.	.	.
8GG/J	3	.	.	8G/J	.	8b\J	.	8dd\J	.	8dd\J	.	8GG/J	.	.	8B\J	.	.	.	.	8dd\J	.	.	8GG/	.	8g\J	.	8dd\J	.	.	.	.	.
!	!	!	!	!	!	!	!	!	!	!	!	!	!	!	!LO:LB:g=original	!	!	!	!	!	!	!	!	!	!	!	!	!	!	!	!	!
=82	=82	=82	=82	=82	=82	=82	=82	=82	=82	=82	=82	=82	=82	=82	=82	=82	=82	=82	=82	=82	=82	=82	=82	=82	=82	=82	=82	=82	=82	=82	=82	=82
!	!	!	!	!LO:TX:t=P:problem:mixed beam	!LO:DY:rj	!LO:TX:t=P:problem:mixed beam	!	!LO:TX:t=P:problem:mixed beam	!	!LO:TX:t=P:problem:mixed beam	!	!	!	!	!	!	!	!	!	!	!	!	!	!	!	!	!	!	!	!	!	!
4C/	.	.	4.ryy	8C/L	p	8cc\L	p	8c/L	.	8c/L	.	8C/	-cem	.	8c\	-cem	8g\	-cem	.	8cc\	-cem	.	8C/	.	8e/	.	8cc\	.	4.ryy	4.ryy	4.ryy	4.ryy
.	.	.	.	8c\	.	8c/	.	8cc\	p	8cc\	p	8r	.	.	8r	.	8r	.	.	8r	.	.	8r	.	8r	.	8r	.	.	.	.	.
8r	.	.	.	8c\J	.	8c/J	.	8cc\J	.	8cc\J	.	8r	.	.	8r	.	8r	.	.	8r	.	.	8r	.	8r	.	8r	.	.	.	.	.
!LO:LB:g=original	!	!	!	!LO:PB:g=original	!	!	!	!	!	!	!	!	!	!	!	!	!	!	!	!	!	!	!	!	!	!	!	!	!	!	!	!
=83	=83	=83	=83	=83	=83	=83	=83	=83	=83	=83	=83	=83	=83	=83	=83	=83	=83	=83	=83	=83	=83	=83	=83	=83	=83	=83	=83	=83	=83	=83	=83	=83
4.r	.	.	4.ryy	16c/LL	.	16c/LL	.	16cc\LL	.	(16cc/LL	.	4.r	.	.	4.r	.	4.r	.	.	4.r	.	.	4.r	.	4.r	.	4.r	.	4.ryy	4.ryy	4.ryy	4.ryy
.	.	.	.	(16B/	.	(16B/	.	(16b\	.	16b/	.	.	.	.	.	.	.	.	.	.	.	.	.	.	.	.	.	.	.	.	.	.
.	.	.	.	16A/	.	16A/	.	16a\	.	16a/	.	.	.	.	.	.	.	.	.	.	.	.	.	.	.	.	.	.	.	.	.	.
.	.	.	.	16G/	.	16G/	.	16g\	.	16g/	.	.	.	.	.	.	.	.	.	.	.	.	.	.	.	.	.	.	.	.	.	.
.	.	.	.	16A/)	.	16A/)	.	16a\)	.	16a/)	.	.	.	.	.	.	.	.	.	.	.	.	.	.	.	.	.	.	.	.	.	.
.	.	.	.	16B/JJ	.	16B/JJ	.	16b\JJ	.	16b/JJ	.	.	.	.	.	.	.	.	.	.	.	.	.	.	.	.	.	.	.	.	.	.
!	!	!	!	!	!	!	!	!	!	!	!	!	!	!	!	!	!LO:LB:g=original	!	!	!	!	!	!	!	!	!	!	!	!	!	!	!
=84	=84	=84	=84	=84	=84	=84	=84	=84	=84	=84	=84	=84	=84	=84	=84	=84	=84	=84	=84	=84	=84	=84	=84	=84	=84	=84	=84	=84	=84	=84	=84	=84
!	!	!	!	!	!	!	!	!LO:TX:t=P:problem:mixed beam	!	!LO:TX:t=P:problem:mixed beam	!	!	!	!	!	!	!	!	!	!	!	!	!	!	!	!	!	!	!	!	!	!
8r	.	.	4.ryy	8c/	.	8c/L	.	8cc\L	.	8cc\L	f	8r	.	.	8r	.	8r	.	.	8r	.	.	8r	.	8r	.	8r	.	4.ryy	4.ryy	4.ryy	4.ryy
8C/L	.	.	.	8r	.	8g/	f	8ee\	f	8ee\	.	8C/	do-	.	8G/	do-	8e\	do-	.	8cc\	do-	.	8C/L	.	8cc\L	.	8ee\L	.	.	.	.	.
8C/J	.	.	.	8r	.	8e/J	.	8g/J	.	8g/J	.	8C/	-na	.	8G/	-na	8g\	-na	.	8ee\	-na	.	8C/J	.	8ee\J	.	8gg\J	.	.	.	.	.
!	!	!	!	!	!	!	!	!	!	!	!	!	!	!	!	!	!	!	!	!	!	!	!LO:LB:g=original	!	!	!	!LO:LB:g=original	!	!	!	!	!
=85	=85	=85	=85	=85	=85	=85	=85	=85	=85	=85	=85	=85	=85	=85	=85	=85	=85	=85	=85	=85	=85	=85	=85	=85	=85	=85	=85	=85	=85	=85	=85	=85
!LO:TX:t=P:problem:mixed beam	!	!	!	!	!	!	!	!	!	!	!	!LO:TX:t=P:problem:mixed beam	!	!	!	!	!	!	!	!	!	!	!	!	!	!	!	!	!	!	!	!
8F\L	6	.	4.ryy	8A/L	f	8d/L	.	8f/L	.	8f/L	.	8F\L	pa-	.	8A/	pa-	8f\L	pa-	.	8dd\L	pa-	.	8GG/	.	8dd\L	.	8ff\L	.	4.ryy	4.ryy	4.ryy	4.ryy
8G/	4	.	.	8G/	.	8c/	.	8e/	.	8e/	.	8G\	.	.	4G/	.	8e\	.	.	8cc\	.	.	8r	.	8cc\	.	8ee\	.	.	.	.	.
8GG/J	3	.	.	8G/J	.	8B/J	.	8d/J	.	8d/J	.	8GG/J	.	.	.	.	8d\J	.	.	8b\J	.	.	8GG/	.	8g\J	.	8dd\J	.	.	.	.	.
=86	=86	=86	=86	=86	=86	=86	=86	=86	=86	=86	=86	=86	=86	=86	=86	=86	=86	=86	=86	=86	=86	=86	=86	=86	=86	=86	=86	=86	=86	=86	=86	=86
8C/	.	.	4.ryy	8G/	.	8c/L	.	8c/L	.	8c/	.	8C/	-cem	.	8G/	-cem	8e\	-cem	.	8cc\	-cem	.	8C/	.	8e/	.	8cc\	.	4.ryy	4.ryy	4.ryy	4.ryy
8r	.	.	.	8r	.	8e/	p	8g/	p	8g/L	p	8r	.	.	8r	.	8r	.	.	8r	.	.	8r	.	8r	.	8r	.	.	.	.	.
8r	.	.	.	8r	.	8c/J	.	8cc/J	.	8cc/J	.	8r	.	.	8r	.	8r	.	.	8r	.	.	8r	.	8r	.	8r	.	.	.	.	.
!	!	!	!	!	!	!	!	!	!	!	!	!	!	!	!	!	!	!	!	!LO:LB:g=original	!	!	!	!	!	!	!	!	!	!	!	!
=87	=87	=87	=87	=87	=87	=87	=87	=87	=87	=87	=87	=87	=87	=87	=87	=87	=87	=87	=87	=87	=87	=87	=87	=87	=87	=87	=87	=87	=87	=87	=87	=87
!LO:TX:a:t=8.	!	!	!	!LO:TX:a:t=8.	!	!	!	!	!	!	!	!	!	!	!	!	!	!	!	!	!	!	!	!	!	!	!	!	!	!	!	!
!LO:N:vis=00	!	!	!	!LO:N:vis=00	!	!	!	!	!	!	!	!LO:N:vis=00	!	!	!LO:N:vis=00	!	!LO:N:vis=00	!	!	!LO:N:vis=00	!	!	!LO:N:vis=00	!	!LO:N:vis=00	!	!LO:N:vis=00	!	!	!	!	!
1.r	.	.	4.ryy	1.r	.	4f/	.	8a/	.	8a/	.	1.r	.	.	1.r	.	1.r	.	.	1.r	.	.	1.r	.	1.r	.	1.r	.	4.ryy	4.ryy	4.ryy	4.ryy
.	.	.	.	.	.	.	.	4dd\	.	4dd\	.	.	.	.	.	.	.	.	.	.	.	.	.	.	.	.	.	.	.	.	.	.
.	.	.	.	.	.	8d/	.	.	.	.	.	.	.	.	.	.	.	.	.	.	.	.	.	.	.	.	.	.	.	.	.	.
!	!	!	!	!	!	!LO:LB:g=original	!	!	!	!	!	!	!	!	!	!	!	!	!	!	!	!	!	!	!	!	!	!	!	!	!	!
=88	=88	=88	=88	=88	=88	=88	=88	=88	=88	=88	=88	=88	=88	=88	=88	=88	=88	=88	=88	=88	=88	=88	=88	=88	=88	=88	=88	=88	=88	=88	=88	=88
.	.	.	4.ryy	.	.	4g/	.	8r	.	8r	.	.	.	.	.	.	.	.	.	.	.	.	.	.	.	.	.	.	4.ryy	4.ryy	4.ryy	4.ryy
.	.	.	.	.	.	.	.	8b\L	.	8b\L	.	.	.	.	.	.	.	.	.	.	.	.	.	.	.	.	.	.	.	.	.	.
.	.	.	.	.	.	8e/	.	8ee\J	.	8ee\J	.	.	.	.	.	.	.	.	.	.	.	.	.	.	.	.	.	.	.	.	.	.
!	!	!	!	!	!	!	!	!	!	!LO:LB:g=original	!	!	!	!	!	!	!	!	!	!	!	!	!	!	!	!	!	!	!	!	!	!
=89	=89	=89	=89	=89	=89	=89	=89	=89	=89	=89	=89	=89	=89	=89	=89	=89	=89	=89	=89	=89	=89	=89	=89	=89	=89	=89	=89	=89	=89	=89	=89	=89
.	.	.	4.ryy	.	.	4a/	.	8cc\	.	8cc\	.	.	.	.	.	.	.	.	.	.	.	.	.	.	.	.	.	.	4.ryy	4.ryy	4.ryy	4.ryy
!	!	!	!	!	!	!	!	!LO:N:vis=4	!	!	!	!	!	!	!	!	!	!	!	!	!	!	!	!	!	!	!	!	!	!	!	!
.	.	.	.	.	.	.	.	8ff\	.	4ff\	.	.	.	.	.	.	.	.	.	.	.	.	.	.	.	.	.	.	.	.	.	.
.	.	.	.	.	.	8f/	.	8r	.	.	.	.	.	.	.	.	.	.	.	.	.	.	.	.	.	.	.	.	.	.	.	.
=90	=90	=90	=90	=90	=90	=90	=90	=90	=90	=90	=90	=90	=90	=90	=90	=90	=90	=90	=90	=90	=90	=90	=90	=90	=90	=90	=90	=90	=90	=90	=90	=90
.	.	.	4.ryy	.	.	4b/	.	8r	.	8r	.	.	.	.	.	.	.	.	.	.	.	.	.	.	.	.	.	.	4.ryy	4.ryy	4.ryy	4.ryy
.	.	.	.	.	.	.	.	8dd\L	.	8dd\L	.	.	.	.	.	.	.	.	.	.	.	.	.	.	.	.	.	.	.	.	.	.
.	.	.	.	.	.	8g/	.	8gg\J	.	8gg\J	.	.	.	.	.	.	.	.	.	.	.	.	.	.	.	.	.	.	.	.	.	.
=91	=91	=91	=91	=91	=91	=91	=91	=91	=91	=91	=91	=91	=91	=91	=91	=91	=91	=91	=91	=91	=91	=91	=91	=91	=91	=91	=91	=91	=91	=91	=91	=91
!LO:N:vis=00	!	!	!	!LO:N:vis=00	!	!	!	!	!	!	!	!LO:N:vis=00	!	!	!LO:N:vis=00	!	!LO:N:vis=00	!	!	!LO:N:vis=00	!	!	!LO:N:vis=00	!	!LO:N:vis=00	!	!LO:N:vis=00	!	!	!	!	!
1.r	.	.	4.ryy	1.r	.	4cc\	.	8ee\L	.	8ee\L	.	1.r	.	.	1.r	.	1.r	.	.	1.r	.	.	1.r	.	1.r	.	1.r	.	4.ryy	4.ryy	4.ryy	4.ryy
.	.	.	.	.	.	.	.	8aa\	.	8aa\	.	.	.	.	.	.	.	.	.	.	.	.	.	.	.	.	.	.	.	.	.	.
.	.	.	.	.	.	8dd\	.	8ff#X\J	.	8ff#X\J	.	.	.	.	.	.	.	.	.	.	.	.	.	.	.	.	.	.	.	.	.	.
=92	=92	=92	=92	=92	=92	=92	=92	=92	=92	=92	=92	=92	=92	=92	=92	=92	=92	=92	=92	=92	=92	=92	=92	=92	=92	=92	=92	=92	=92	=92	=92	=92
.	.	.	4.ryy	.	.	8b\L	.	8gg\L	.	8gg\L	.	.	.	.	.	.	.	.	.	.	.	.	.	.	.	.	.	.	4.ryy	4.ryy	4.ryy	4.ryy
.	.	.	.	.	.	8cc\	.	8ee\	.	8ee\	.	.	.	.	.	.	.	.	.	.	.	.	.	.	.	.	.	.	.	.	.	.
.	.	.	.	.	.	8a\J	.	8ffn\J	.	8ffn\J	.	.	.	.	.	.	.	.	.	.	.	.	.	.	.	.	.	.	.	.	.	.
=93	=93	=93	=93	=93	=93	=93	=93	=93	=93	=93	=93	=93	=93	=93	=93	=93	=93	=93	=93	=93	=93	=93	=93	=93	=93	=93	=93	=93	=93	=93	=93	=93
.	.	.	4.ryy	.	.	8b/L	.	8dd#X\L	.	8dd#X\L	.	.	.	.	.	.	.	.	.	.	.	.	.	.	.	.	.	.	4.ryy	4.ryy	4.ryy	4.ryy
.	.	.	.	.	.	8g/	.	8ee\	.	8ee\	.	.	.	.	.	.	.	.	.	.	.	.	.	.	.	.	.	.	.	.	.	.
.	.	.	.	.	.	8a/J	.	8cc#X\J	.	8cc#X\J	.	.	.	.	.	.	.	.	.	.	.	.	.	.	.	.	.	.	.	.	.	.
!	!	!	!	!	!	!	!	!LO:LB:g=original	!	!	!	!	!	!	!	!	!	!	!	!	!	!	!	!	!	!	!	!	!	!	!	!
=94	=94	=94	=94	=94	=94	=94	=94	=94	=94	=94	=94	=94	=94	=94	=94	=94	=94	=94	=94	=94	=94	=94	=94	=94	=94	=94	=94	=94	=94	=94	=94	=94
.	.	.	4.ryy	.	.	8f/L	.	8ddn\L	.	8ddn\L	.	.	.	.	.	.	.	.	.	.	.	.	.	.	.	.	.	.	4.ryy	4.ryy	4.ryy	4.ryy
.	.	.	.	.	.	8g/	.	8b\	.	8b\	.	.	.	.	.	.	.	.	.	.	.	.	.	.	.	.	.	.	.	.	.	.
.	.	.	.	.	.	8e/J	.	8ccn\J	.	8ccn\J	.	.	.	.	.	.	.	.	.	.	.	.	.	.	.	.	.	.	.	.	.	.
!	!	!	!	!	!	!	!	!	!	!	!	!LO:LB:g=original	!	!	!	!	!	!	!	!	!	!	!	!	!LO:LB:g=original	!	!	!	!	!	!	!
=95	=95	=95	=95	=95	=95	=95	=95	=95	=95	=95	=95	=95	=95	=95	=95	=95	=95	=95	=95	=95	=95	=95	=95	=95	=95	=95	=95	=95	=95	=95	=95	=95
!	!	!	!	!	!	!	!	!	!LO:DY:rj	!	!	!	!	!	!	!	!	!	!	!	!	!	!	!	!	!	!	!	!	!	!	!
8F\L	.	.	4.ryy	8f\L	.	8c/L	.	8a\L	f	8a\L	.	8F\L	pa-	.	4A/	pa-	8c\L	pa-	.	8a\L	pa-	.	8r	.	8r	.	8r	.	4.ryy	4.ryy	4.ryy	4.ryy
8D\	.	.	.	8d\	.	8f/	f	8dd\	.	8dd\	f	8D\	.	.	.	.	8f\	.	.	8dd\	.	.	8r	.	8r	.	8r	.	.	.	.	.
8G\J	.	.	.	8g\J	.	8d/J	.	8b\J	.	8b\J	.	8G\J	.	.	8G/	.	8d\J	.	.	8b\J	.	.	8GG/	.	8g/	.	8dd\	.	.	.	.	.
!	!	!	!	!LO:LB:g=original	!	!	!	!	!	!	!	!	!	!	!LO:LB:g=original	!	!	!	!	!	!	!	!	!	!	!	!	!	!	!	!	!
=96	=96	=96	=96	=96	=96	=96	=96	=96	=96	=96	=96	=96	=96	=96	=96	=96	=96	=96	=96	=96	=96	=96	=96	=96	=96	=96	=96	=96	=96	=96	=96	=96
8C/	.	.	4.ryy	8g\	.	8e/L	.	8cc\L	.	8cc\	.	8C/	-cem	.	8G/	-cem	8e\	-cem	.	8cc\	-cem	.	8C/	.	8e/	.	8cc\	.	4.ryy	4.ryy	4.ryy	4.ryy
8r	.	.	.	8r	.	8e/	p	8g\	p	8g/L	p	8r	.	.	8r	.	8r	.	.	8r	.	.	8r	.	8r	.	8r	.	.	.	.	.
8r	.	.	.	8r	.	8c/J	.	8cc\J	.	8cc/J	.	8r	.	.	8r	.	8r	.	.	8r	.	.	8r	.	8r	.	8r	.	.	.	.	.
=97	=97	=97	=97	=97	=97	=97	=97	=97	=97	=97	=97	=97	=97	=97	=97	=97	=97	=97	=97	=97	=97	=97	=97	=97	=97	=97	=97	=97	=97	=97	=97	=97
!LO:TX:a:t=8.	!	!	!	!LO:TX:a:t=8.	!	!	!	!	!	!	!	!	!	!	!	!	!	!	!	!	!	!	!	!	!	!	!	!	!	!	!	!
!LO:N:vis=00	!	!	!	!LO:N:vis=00	!	!	!	!	!	!	!	!LO:N:vis=00	!	!	!LO:N:vis=00	!	!LO:N:vis=00	!	!	!LO:N:vis=00	!	!	!LO:N:vis=00	!	!LO:N:vis=00	!	!LO:N:vis=00	!	!	!	!	!
1.r	.	.	4.ryy	1.r	.	4f/	.	8a/	.	8a/	.	1.r	.	.	1.r	.	1.r	.	.	1.r	.	.	1.r	.	1.r	.	1.r	.	4.ryy	4.ryy	4.ryy	4.ryy
.	.	.	.	.	.	.	.	4dd\	.	4dd\	.	.	.	.	.	.	.	.	.	.	.	.	.	.	.	.	.	.	.	.	.	.
.	.	.	.	.	.	8d/	.	.	.	.	.	.	.	.	.	.	.	.	.	.	.	.	.	.	.	.	.	.	.	.	.	.
=98	=98	=98	=98	=98	=98	=98	=98	=98	=98	=98	=98	=98	=98	=98	=98	=98	=98	=98	=98	=98	=98	=98	=98	=98	=98	=98	=98	=98	=98	=98	=98	=98
.	.	.	4.ryy	.	.	4g/	.	8r	.	8r	.	.	.	.	.	.	.	.	.	.	.	.	.	.	.	.	.	.	4.ryy	4.ryy	4.ryy	4.ryy
.	.	.	.	.	.	.	.	8b\L	.	8b\L	.	.	.	.	.	.	.	.	.	.	.	.	.	.	.	.	.	.	.	.	.	.
.	.	.	.	.	.	8e/	.	8ee\J	.	8ee\J	.	.	.	.	.	.	.	.	.	.	.	.	.	.	.	.	.	.	.	.	.	.
=99	=99	=99	=99	=99	=99	=99	=99	=99	=99	=99	=99	=99	=99	=99	=99	=99	=99	=99	=99	=99	=99	=99	=99	=99	=99	=99	=99	=99	=99	=99	=99	=99
.	.	.	4.ryy	.	.	4a/	.	8cc\	.	8cc\	.	.	.	.	.	.	.	.	.	.	.	.	.	.	.	.	.	.	4.ryy	4.ryy	4.ryy	4.ryy
.	.	.	.	.	.	.	.	4ff\	.	4ff\	.	.	.	.	.	.	.	.	.	.	.	.	.	.	.	.	.	.	.	.	.	.
!	!	!	!	!	!	!	!	!	!	!LO:TX:b:t=V&colon; S&colon; ./.	!	!	!	!	!	!	!	!	!	!	!	!	!	!	!	!	!	!	!	!	!	!
.	.	.	.	.	.	8f/	.	.	.	.	.	.	.	.	.	.	.	.	.	.	.	.	.	.	.	.	.	.	.	.	.	.
!	!	!	!	!	!	!	!	!	!	!LO:PB:g=original	!	!	!	!	!	!	!	!	!	!	!	!	!	!	!	!	!	!	!	!	!	!
=100	=100	=100	=100	=100	=100	=100	=100	=100	=100	=100	=100	=100	=100	=100	=100	=100	=100	=100	=100	=100	=100	=100	=100	=100	=100	=100	=100	=100	=100	=100	=100	=100
.	.	.	4.ryy	.	.	4b/	.	8r	.	8r	.	.	.	.	.	.	.	.	.	.	.	.	.	.	.	.	.	.	4.ryy	4.ryy	4.ryy	4.ryy
.	.	.	.	.	.	.	.	8dd\L	.	8dd\L	.	.	.	.	.	.	.	.	.	.	.	.	.	.	.	.	.	.	.	.	.	.
.	.	.	.	.	.	8g/	.	8gg\J	.	8gg\J	.	.	.	.	.	.	.	.	.	.	.	.	.	.	.	.	.	.	.	.	.	.
=101	=101	=101	=101	=101	=101	=101	=101	=101	=101	=101	=101	=101	=101	=101	=101	=101	=101	=101	=101	=101	=101	=101	=101	=101	=101	=101	=101	=101	=101	=101	=101	=101
!LO:N:vis=00	!	!	!	!LO:N:vis=00	!	!	!	!	!	!	!	!LO:N:vis=00	!	!	!LO:N:vis=00	!	!LO:N:vis=00	!	!	!LO:N:vis=00	!	!	!LO:N:vis=00	!	!LO:N:vis=00	!	!LO:N:vis=00	!	!	!	!	!
1.r	.	.	4.ryy	1.r	.	8r	.	8ee\L	.	8ee\L	.	1.r	.	.	1.r	.	1.r	.	.	1.r	.	.	1.r	.	1.r	.	1.r	.	4.ryy	4.ryy	4.ryy	4.ryy
.	.	.	.	.	.	8cc\L	.	8aa\	.	8aa\	.	.	.	.	.	.	.	.	.	.	.	.	.	.	.	.	.	.	.	.	.	.
.	.	.	.	.	.	8dd\J	.	8ff#X\J	.	8ff#X\J	.	.	.	.	.	.	.	.	.	.	.	.	.	.	.	.	.	.	.	.	.	.
!	!	!	!	!	!	!LO:LB:g=original	!	!	!	!	!	!	!	!	!	!	!	!	!	!	!	!	!	!	!	!	!	!	!	!	!	!
=102	=102	=102	=102	=102	=102	=102	=102	=102	=102	=102	=102	=102	=102	=102	=102	=102	=102	=102	=102	=102	=102	=102	=102	=102	=102	=102	=102	=102	=102	=102	=102	=102
.	.	.	4.ryy	.	.	8b\L	.	8gg\L	.	8gg\L	.	.	.	.	.	.	.	.	.	.	.	.	.	.	.	.	.	.	4.ryy	4.ryy	4.ryy	4.ryy
.	.	.	.	.	.	8cc\	.	8ee\	.	8ee\	.	.	.	.	.	.	.	.	.	.	.	.	.	.	.	.	.	.	.	.	.	.
.	.	.	.	.	.	8a\J	.	8ffn\J	.	8ffn\J	.	.	.	.	.	.	.	.	.	.	.	.	.	.	.	.	.	.	.	.	.	.
=103	=103	=103	=103	=103	=103	=103	=103	=103	=103	=103	=103	=103	=103	=103	=103	=103	=103	=103	=103	=103	=103	=103	=103	=103	=103	=103	=103	=103	=103	=103	=103	=103
.	.	.	4.ryy	.	.	8b/L	.	8dd#X\L	.	8dd#X\L	.	.	.	.	.	.	.	.	.	.	.	.	.	.	.	.	.	.	4.ryy	4.ryy	4.ryy	4.ryy
.	.	.	.	.	.	8g/	.	8ee\	.	8ee\	.	.	.	.	.	.	.	.	.	.	.	.	.	.	.	.	.	.	.	.	.	.
.	.	.	.	.	.	8a/J	.	8cc#X\J	.	8cc#X\J	.	.	.	.	.	.	.	.	.	.	.	.	.	.	.	.	.	.	.	.	.	.
=104	=104	=104	=104	=104	=104	=104	=104	=104	=104	=104	=104	=104	=104	=104	=104	=104	=104	=104	=104	=104	=104	=104	=104	=104	=104	=104	=104	=104	=104	=104	=104	=104
.	.	.	4.ryy	.	.	8f/L	.	8ddn\L	.	8ddn\L	.	.	.	.	.	.	.	.	.	.	.	.	.	.	.	.	.	.	4.ryy	4.ryy	4.ryy	4.ryy
.	.	.	.	.	.	8g/	.	8b\	.	8b\	.	.	.	.	.	.	.	.	.	.	.	.	.	.	.	.	.	.	.	.	.	.
.	.	.	.	.	.	8e/J	.	8ccn\J	.	8ccn\J	.	.	.	.	.	.	.	.	.	.	.	.	.	.	.	.	.	.	.	.	.	.
!	!	!	!	!	!	!	!	!	!	!	!	!	!	!	!	!	!LO:LB:g=original	!	!	!	!	!	!	!	!	!	!	!	!	!	!	!
=105	=105	=105	=105	=105	=105	=105	=105	=105	=105	=105	=105	=105	=105	=105	=105	=105	=105	=105	=105	=105	=105	=105	=105	=105	=105	=105	=105	=105	=105	=105	=105	=105
!	!	!	!	!	!	!	!	!	!LO:DY:rj	!	!LO:DY:rj	!	!	!	!	!	!	!	!	!	!	!	!	!	!	!	!	!	!	!	!	!
8F\L	.	.	4.ryy	8f\L	.	8c/L	.	8a\L	f	8a\L	f	8F\L	pa-	.	4A/	pa-	8c\L	pa-	.	8a\L	pa-	.	8r	.	8r	.	8r	.	4.ryy	4.ryy	4.ryy	4.ryy
8D\	.	.	.	8d\	.	8f/	f	8dd\	.	8dd\	.	8D\	.	.	.	.	8f\	.	.	8dd\	.	.	8r	.	8r	.	8r	.	.	.	.	.
8G\J	.	.	.	8g\J	.	8d/J	.	8b\J	.	8b\J	.	8G\J	.	.	8G/	.	8d\J	.	.	8b\J	.	.	8GG/	.	8g/	.	8dd\	.	.	.	.	.
=106	=106	=106	=106	=106	=106	=106	=106	=106	=106	=106	=106	=106	=106	=106	=106	=106	=106	=106	=106	=106	=106	=106	=106	=106	=106	=106	=106	=106	=106	=106	=106	=106
!LO:TX:b:t=|:problem	!	!	!	!	!	!	!	!	!	!	!	!	!	!	!	!	!	!	!	!	!	!	!	!	!	!	!	!	!	!	!	!
!LO:TX:t=P:problem:mixed beam	!	!	!	!	!	!LO:TX:t=P:problem:mixed beam	!	!	!	!	!	!	!	!	!	!	!	!	!	!	!	!	!	!	!	!	!	!	!	!	!	!
8C/L	.	.	4.ryy	8c/L	.	8e/L	.	8cc\L	.	8cc\L	.	8C/	-cem	.	8G/	-cem	8e\	-cem	.	8cc\	-cem	.	8C/	.	8e/	.	8cc\	.	4.ryy	4.ryy	4.ryy	4.ryy
!LO:TX:a:t=|:problem	!	!	!	!	!	!	!	!	!	!	!	!	!	!	!	!	!	!	!	!	!	!	!	!	!	!	!	!	!	!	!	!
8c\	.	.	.	8c/	.	8cc\	.	8ccc\	.	8ccc\	.	8c\	do-	.	8c\	do-	8cc\	do-	.	8cc\	do-	.	8r	.	8r	.	8r	.	.	.	.	.
!LO:TX:a:t=|:problem	!	!	!	!	!	!	!	!	!	!	!	!	!	!	!	!	!	!	!	!	!	!	!	!	!	!	!	!	!	!	!	!
8c\J	.	.	.	8c/J	.	8cc\J	.	8ccc\J	.	8ccc\J	.	8c\	-na	.	8c\	-na	8cc\	-na	.	8cc\	-na	.	8r	.	8r	.	8r	.	.	.	.	.
!LO:LB:g=original	!	!	!	!	!	!	!	!	!	!	!	!	!	!	!	!	!	!	!	!	!	!	!	!	!	!	!	!	!	!	!	!
=107	=107	=107	=107	=107	=107	=107	=107	=107	=107	=107	=107	=107	=107	=107	=107	=107	=107	=107	=107	=107	=107	=107	=107	=107	=107	=107	=107	=107	=107	=107	=107	=107
!LO:TX:a:t=|:problem	!	!	!	!	!	!	!	!	!	!	!	!	!	!	!	!	!	!	!	!	!	!	!	!	!	!	!	!	!	!	!	!
16c\LL	.	.	4.ryy	16c/LL	.	16cc\LL	.	16ccc\LL	.	(16ccc\LL	.	16c\LL	do-	.	16c\LL	do-	16cc\LL	do-	.	16cc\LL	do-	.	4.r	.	4.r	.	4.r	.	4.ryy	4.ryy	4.ryy	4.ryy
!LO:TX:a:t=|:problem	!	!	!	!	!	!	!	!	!	!	!	!	!	!	!	!	!	!	!	!	!	!	!	!	!	!	!	!	!	!	!	!
(16B\	.	.	.	(16B/	.	(16b\	.	(16bb\	.	16bb\	.	16B\	.	.	16B\	.	16b\	.	.	(16b\	.	.	.	.	.	.	.	.	.	.	.	.
!LO:TX:a:t=|:problem	!	!	!	!	!	!	!	!	!	!	!	!	!	!	!	!	!	!	!	!	!	!	!	!	!	!	!	!	!	!	!	!
16A\	.	.	.	16A/	.	16a\	.	16aa\	.	16aa\	.	16A\	.	.	16A\	.	16a\	.	.	16a\)	.	.	.	.	.	.	.	.	.	.	.	.
!LO:TX:a:t=|:problem	!	!	!	!	!	!	!	!	!	!	!	!	!	!	!	!	!	!	!	!	!	!	!	!	!	!	!	!	!	!	!	!
16G\	.	.	.	16G/	.	16g\	.	16gg\	.	16gg\	.	16G\JJ	.	.	16G\JJ	.	16g\JJ	.	.	16g\JJ	.	.	.	.	.	.	.	.	.	.	.	.
!LO:TX:a:t=|:problem	!	!	!	!	!	!	!	!	!	!	!	!	!	!	!	!	!	!	!	!	!	!	!	!	!	!	!	!	!	!	!	!
16A\	.	.	.	16A/	.	16a\)	.	16aa\)	.	16aa\)	.	16A\LL	-na	.	16A\LL	-na	16a\LL	-na	.	16a\LL	-na	.	.	.	.	.	.	.	.	.	.	.
!LO:TX:a:t=|:problem	!	!	!	!	!	!	!	!	!	!	!	!	!	!	!	!	!	!	!	!	!	!	!	!	!	!	!	!	!	!	!	!
16B\JJ)	.	.	.	16B/JJ)	.	16b\JJ	.	16bb\JJ	.	16bb\JJ	.	16B\JJ	.	.	16B\JJ	.	16b\JJ	.	.	16b\JJ	.	.	.	.	.	.	.	.	.	.	.	.
!	!	!	!	!	!	!	!	!LO:LB:g=original	!	!	!	!	!	!	!LO:LB:g=original	!	!	!	!	!LO:LB:g=original	!	!	!	!	!	!	!	!	!	!	!	!
=108	=108	=108	=108	=108	=108	=108	=108	=108	=108	=108	=108	=108	=108	=108	=108	=108	=108	=108	=108	=108	=108	=108	=108	=108	=108	=108	=108	=108	=108	=108	=108	=108
!LO:TX:a:t=|:problem	!	!	!	!	!	!	!	!	!	!	!	!	!	!	!	!	!	!	!	!	!	!	!	!	!	!	!	!	!	!	!	!
!LO:TX:t=P:problem:mixed beam	!	!	!	!	!	!	!	!	!	!	!	!	!	!	!	!	!	!	!	!	!	!	!	!	!	!	!	!	!	!	!	!
8c\L	.	.	4.ryy	8c/L	.	8cc\L	.	8ccc\L	.	8ccc\L	.	4c\	no-	.	4c\	no-	4cc\	no-	.	4cc\	no-	.	8C/	.	8c/	.	8cc\	.	4.ryy	4.ryy	4.ryy	4.ryy
!LO:TX:b:t=|:problem	!	!	!	!	!	!	!	!	!	!	!	!	!	!	!	!	!	!	!	!	!	!	!	!	!	!	!	!	!	!	!	!
8C/	.	.	.	8c/	.	8cc\	.	8ccc\	.	8ccc\	.	.	.	.	.	.	.	.	.	.	.	.	8r	.	8r	.	8r	.	.	.	.	.
!LO:TX:a:t=|:problem	!	!	!	!	!	!	!	!	!	!	!	!	!	!	!	!	!	!	!	!	!	!	!	!	!	!	!	!	!	!	!	!
8c\J	.	.	.	8c/J	.	8cc\J	.	8ccc\J	.	8ccc\J	.	8c\	-bis	.	8c\	-bis	8cc\	-bis	.	8cc\	-bis	.	8r	.	8r	.	8r	.	.	.	.	.
!	!	!	!	!LO:LB:g=original	!	!	!	!	!	!LO:LB:g=original	!	!LO:LB:g=original	!	!	!	!	!	!	!	!	!	!	!	!	!	!	!	!	!	!	!	!
=109	=109	=109	=109	=109	=109	=109	=109	=109	=109	=109	=109	=109	=109	=109	=109	=109	=109	=109	=109	=109	=109	=109	=109	=109	=109	=109	=109	=109	=109	=109	=109	=109
!LO:TX:a:t=|:problem	!	!	!	!	!	!	!	!	!	!	!	!	!	!	!	!	!	!	!	!	!	!	!	!	!	!	!	!	!	!	!	!
16c\LL	.	.	4.ryy	16c/LL	.	16cc\LL	.	16ccc\LL	.	16ccc\LL	.	16c\LL	pa-	.	16c\LL	pa-	16cc\LL	pa-	.	16cc\LL	pa-	.	4.r	.	4.r	.	4.r	.	4.ryy	4.ryy	4.ryy	4.ryy
!LO:TX:a:t=|:problem	!	!	!	!	!	!	!	!	!	!	!	!	!	!	!	!	!	!	!	!	!	!	!	!	!	!	!	!	!	!	!	!
(16B\	.	.	.	16B/	.	(16b\	.	(16bb\	.	(16bb\	.	16B\	.	.	16B\	.	16b\	.	.	(16b\	.	.	.	.	.	.	.	.	.	.	.	.
!LO:TX:a:t=|:problem	!	!	!	!	!	!	!	!	!	!	!	!	!	!	!	!	!	!	!	!	!	!	!	!	!	!	!	!	!	!	!	!
16A\	.	.	.	(16A/	.	16a\	.	16aa\	.	16aa\	.	16A\	.	.	16A\	.	16a\	.	.	16a\	.	.	.	.	.	.	.	.	.	.	.	.
!LO:TX:a:t=|:problem	!	!	!	!	!	!	!	!	!	!	!	!	!	!	!	!	!	!	!	!	!	!	!	!	!	!	!	!	!	!	!	!
16G\	.	.	.	16G/	.	16g\	.	16gg\	.	16gg\	.	16G\	.	.	16G\	.	16g\	.	.	16g\	.	.	.	.	.	.	.	.	.	.	.	.
!LO:TX:a:t=|:problem	!	!	!	!	!	!	!	!	!	!	!	!	!	!	!	!	!	!	!	!	!	!	!	!	!	!	!	!	!	!	!	!
16A\)	.	.	.	16A/)	.	16a\)	.	16aa\)	.	16aa\)	.	16A\	.	.	16A\	.	16a\	.	.	16a\)	.	.	.	.	.	.	.	.	.	.	.	.
!LO:TX:a:t=|:problem	!	!	!	!	!	!	!	!	!	!	!	!	!	!	!	!	!	!	!	!	!	!	!	!	!	!	!	!	!	!	!	!
16B\JJ	.	.	.	16B/JJ	.	16b\JJ	.	16bb\JJ	.	16bb\JJ	.	16B\JJ	.	.	16B\JJ	.	16b\JJ	.	.	16b\JJ	.	.	.	.	.	.	.	.	.	.	.	.
!	!	!	!	!	!	!	!	!	!	!	!	!	!	!	!	!	!LO:LB:g=original	!	!	!	!	!	!	!	!	!	!	!	!	!	!	!
=110	=110	=110	=110	=110	=110	=110	=110	=110	=110	=110	=110	=110	=110	=110	=110	=110	=110	=110	=110	=110	=110	=110	=110	=110	=110	=110	=110	=110	=110	=110	=110	=110
!LO:TX:a:t=|:problem	!	!	!	!	!	!	!	!	!	!	!	!	!	!	!	!	!	!	!	!	!	!	!	!	!	!	!	!	!	!	!	!
8c\	.	.	4.ryy	8c/	.	8cc\L	.	8ccc\L	.	8ccc\L	.	4.c\	-cem	.	4.c\	-cem	4.cc\	-cem.	.	4.cc\	-cem	.	8C/	.	8c/	.	8cc\	.	4.ryy	4.ryy	4.ryy	4.ryy
!	!	!	!	!	!	!	!LO:DY:a	!	!	!	!	!	!	!	!	!	!	!	!	!	!	!	!	!	!	!	!	!	!	!	!	!
8r	.	.	.	8r	.	8cc\	mf	8ccc'\	mf	8ccc\	.	.	.	.	.	.	.	.	.	.	.	.	8r	.	8r	.	8r	.	.	.	.	.
8r	.	.	.	8r	.	8cc\J	.	8ccc'\J	.	8ccc\J	.	.	.	.	.	.	.	.	.	.	.	.	8r	.	8r	.	8r	.	.	.	.	.
=111	=111	=111	=111	=111	=111	=111	=111	=111	=111	=111	=111	=111	=111	=111	=111	=111	=111	=111	=111	=111	=111	=111	=111	=111	=111	=111	=111	=111	=111	=111	=111	=111
!LO:TX:a:t=|:problem	!	!	!	!	!	!	!	!	!	!	!	!	!	!	!	!	!	!	!	!	!	!	!LO:N:vis=0	!	!LO:N:vis=0	!	!LO:N:vis=0	!	!	!	!	!
8A\	.	.	4.ryy	8a\	.	8r	.	8r	.	8r	.	4.A\	da	.	4.A/	da	4.a\	da	.	4.a\	da	.	2.r	.	2.r	.	2.r	.	4.ryy	4.ryy	4.ryy	4.ryy
8r	.	.	.	8r	.	8a/L	.	8aa'\L	.	8aa\L	.	.	.	.	.	.	.	.	.	.	.	.	.	.	.	.	.	.	.	.	.	.
8r	.	.	.	8r	.	8a/J	.	8aa'\J	.	8aa\J	.	.	.	.	.	.	.	.	.	.	.	.	.	.	.	.	.	.	.	.	.	.
=112	=112	=112	=112	=112	=112	=112	=112	=112	=112	=112	=112	=112	=112	=112	=112	=112	=112	=112	=112	=112	=112	=112	=112	=112	=112	=112	=112	=112	=112	=112	=112	=112
!LO:TX:a:t=|:problem	!	!	!	!	!	!	!	!	!	!	!	!	!	!	!	!	!	!	!	!	!	!	!	!	!	!	!	!	!	!	!	!
8F\	.	.	4.ryy	8f\	.	8r	.	8r	.	8r	.	4.F\	pa-	.	4.F/	pa-	4.f\	pa-	.	4.f/	pa-	.	.	.	.	.	.	.	4.ryy	4.ryy	4.ryy	4.ryy
8r	.	.	.	8r	.	8f/L	.	8ff\L	.	8ff\L	.	.	.	.	.	.	.	.	.	.	.	.	.	.	.	.	.	.	.	.	.	.
8r	.	.	.	8r	.	8f/J	.	8ff\J	.	8ff\J	.	.	.	.	.	.	.	.	.	.	.	.	.	.	.	.	.	.	.	.	.	.
=113	=113	=113	=113	=113	=113	=113	=113	=113	=113	=113	=113	=113	=113	=113	=113	=113	=113	=113	=113	=113	=113	=113	=113	=113	=113	=113	=113	=113	=113	=113	=113	=113
!LO:TX:a:t=|:problem	!	!	!	!	!	!	!	!	!	!	!	!	!	!	!	!	!	!	!	!	!	!	!	!	!	!	!	!	!	!	!	!
8G\	.	.	4.ryy	8g\	.	8r	.	8r	.	8r	.	4.G\	.	.	4.G/	.	4.g\	.	.	4.g/	.	.	4.r	.	4.r	.	4.r	.	4.ryy	4.ryy	4.ryy	4.ryy
8r	.	.	.	8r	.	8g/L	.	8gg\L	.	8gg\L	.	.	.	.	.	.	.	.	.	.	.	.	.	.	.	.	.	.	.	.	.	.
8r	.	.	.	8r	.	8g/J	.	8gg\J	.	8gg\J	.	.	.	.	.	.	.	.	.	.	.	.	.	.	.	.	.	.	.	.	.	.
!	!	!	!	!LO:LB:g=original	!	!LO:LB:g=original	!	!	!	!	!	!	!	!	!LO:LB:g=original	!	!	!	!	!	!	!	!	!	!	!	!LO:LB:g=original	!	!	!	!	!
=114	=114	=114	=114	=114	=114	=114	=114	=114	=114	=114	=114	=114	=114	=114	=114	=114	=114	=114	=114	=114	=114	=114	=114	=114	=114	=114	=114	=114	=114	=114	=114	=114
!LO:TX:b:t=|:problem	!	!	!	!	!	!	!	!	!	!	!	!	!	!	!	!	!	!	!	!	!	!	!	!	!	!	!	!	!	!	!	!
8C/	.	.	4.ryy	8c/	.	8r	.	8r	.	8r	.	4.C/	-cem	.	4.c\	-cem	4.c/	-cem	.	4.cc\	-cem	.	8C/	.	8c/	.	8cc\	.	4.ryy	4.ryy	4.ryy	4.ryy
8r	.	.	.	8r	.	8c/L	.	8cc\L	.	8cc\L	.	.	.	.	.	.	.	.	.	.	.	.	8r	.	8r	.	8r	.	.	.	.	.
8r	.	.	.	8r	.	8c/J	.	8cc\J	.	8cc\J	.	.	.	.	.	.	.	.	.	.	.	.	8r	.	8r	.	8r	.	.	.	.	.
!LO:LB:g=original	!	!	!	!	!	!	!	!	!	!	!	!	!	!	!	!	!	!	!	!	!	!	!	!	!	!	!	!	!	!	!	!
=115	=115	=115	=115	=115	=115	=115	=115	=115	=115	=115	=115	=115	=115	=115	=115	=115	=115	=115	=115	=115	=115	=115	=115	=115	=115	=115	=115	=115	=115	=115	=115	=115
!LO:TX:a:t=|:problem	!	!	!	!	!	!	!	!	!	!	!	!	!	!	!	!	!	!	!	!	!	!	!LO:N:vis=0	!	!LO:N:vis=0	!	!LO:N:vis=0	!	!	!	!	!
8A\	.	.	4.ryy	8A/	.	8r	.	8r	.	8r	.	4.A\	da	.	4.A\	da	4.a\	da	.	4.a\	da	.	2.r	.	2.r	.	2.r	.	4.ryy	4.ryy	4.ryy	4.ryy
8r	.	.	.	8r	.	8a/L	.	8a/L	.	8a/L	.	.	.	.	.	.	.	.	.	.	.	.	.	.	.	.	.	.	.	.	.	.
8r	.	.	.	8r	.	8a/J	.	8a/J	.	8a/J	.	.	.	.	.	.	.	.	.	.	.	.	.	.	.	.	.	.	.	.	.	.
!	!	!	!	!	!	!	!	!	!	!	!	!	!	!	!	!	!	!	!	!LO:LB:g=original	!	!	!	!	!	!	!	!	!	!	!	!
=116	=116	=116	=116	=116	=116	=116	=116	=116	=116	=116	=116	=116	=116	=116	=116	=116	=116	=116	=116	=116	=116	=116	=116	=116	=116	=116	=116	=116	=116	=116	=116	=116
!LO:TX:a:t=|:problem	!	!	!	!	!	!	!	!	!	!	!	!	!	!	!	!	!	!	!	!	!	!	!	!	!	!	!	!	!	!	!	!
8F\	.	.	4.ryy	8F/	.	8r	.	8r	.	8r	.	4.F\	pa-	.	4.F/	pa-	4.f\	pa-	.	4.f/	pa-	.	.	.	.	.	.	.	4.ryy	4.ryy	4.ryy	4.ryy
8r	.	.	.	8r	.	8f/L	.	8f/L	.	8f/L	.	.	.	.	.	.	.	.	.	.	.	.	.	.	.	.	.	.	.	.	.	.
8r	.	.	.	8r	.	8f/J	.	8f/J	.	8f/J	.	.	.	.	.	.	.	.	.	.	.	.	.	.	.	.	.	.	.	.	.	.
=117	=117	=117	=117	=117	=117	=117	=117	=117	=117	=117	=117	=117	=117	=117	=117	=117	=117	=117	=117	=117	=117	=117	=117	=117	=117	=117	=117	=117	=117	=117	=117	=117
!LO:TX:a:t=|:problem	!	!	!	!	!	!	!	!	!	!	!	!	!	!	!	!	!	!	!	!	!	!	!	!	!	!	!	!	!	!	!	!
8G\	.	.	4.ryy	8G/	.	8r	.	8r	.	8r	.	4.G\	.	.	4.G/	.	4.g\	.	.	4.g/	.	.	4.r	.	4.r	.	4.r	.	4.ryy	4.ryy	4.ryy	4.ryy
8r	.	.	.	8r	.	8g/L	.	8g/L	.	8g/L	.	.	.	.	.	.	.	.	.	.	.	.	.	.	.	.	.	.	.	.	.	.
!LO:TX:a:t=Solo.	!	!	!	!	!	!	!	!	!	!	!	!	!	!	!	!	!	!	!	!	!	!	!	!	!	!	!	!	!	!	!	!
8r	.	.	.	8r	.	8g/J	.	8g/J	.	8g/J	.	.	.	.	.	.	.	.	.	.	.	.	.	.	.	.	.	.	.	.	.	.
!	!	!	!	!	!	!	!	!	!	!LO:LB:g=original	!	!	!	!	!	!	!	!	!	!	!	!	!LO:LB:g=original	!	!LO:LB:g=original	!	!	!	!	!	!	!
=118	=118	=118	=118	=118	=118	=118	=118	=118	=118	=118	=118	=118	=118	=118	=118	=118	=118	=118	=118	=118	=118	=118	=118	=118	=118	=118	=118	=118	=118	=118	=118	=118
!	!	!LO:DY:rj	!	!	!LO:DY:a	!LO:TX:t=P:problem:mixed beam	!	!	!	!	!	!	!	!	!	!	!	!	!	!	!	!	!	!	!	!LO:DY:rj	!	!LO:DY:rj	!	!	!	!
8C/L	-7_ 3_	p	4.ryy	8C/L	p	8c/L	.	8c/	.	8c/	.	8C/	-cem	.	8G/	-cem	8c/	-cem	.	8c/	-cem	.	8C/	p	4.c/	p	4.cc\	p	4.ryy	4.ryy	4.ryy	4.ryy
!	!	!	!	!	!	!	!LO:DY:a	!	!	!	!	!	!	!	!	!	!	!	!	!	!	!	!	!	!	!	!	!	!	!	!	!
8C/	.	.	.	8E/	.	8b-X\	p	8r	.	8r	.	8r	.	.	8r	.	8r	.	.	8r	.	.	8r	.	.	.	.	.	.	.	.	.
8C/J	.	.	.	8G/J	.	8b-\J	.	8r	.	8r	.	8r	.	.	8r	.	8r	.	.	8r	.	.	8r	.	.	.	.	.	.	.	.	.
!	!	!	!	!	!	!	!	!	!	!	!	!LO:LB:g=original	!	!	!	!	!LO:LB:g=original	!	!	!	!	!	!	!	!	!	!	!	!	!	!	!
=119	=119	=119	=119	=119	=119	=119	=119	=119	=119	=119	=119	=119	=119	=119	=119	=119	=119	=119	=119	=119	=119	=119	=119	=119	=119	=119	=119	=119	=119	=119	=119	=119
!	!	!	!	!	!	!	!	!	!	!	!	!	!	!LO:DY:a	!	!	!	!	!LO:DY:b:problem:na pięciolinii	!	!	!LO:DY:b	!	!	!	!	!	!	!	!	!	!
8C/L	.	.	4.ryy	4.G/	.	8b-X/L	.	8r	.	8r	.	4.C/	da	p	4.G/	da	4.b-X\	da	p	4.ee\	da	p	4.r	.	4.c/	.	4.cc\	.	4.ryy	4.ryy	4.ryy	4.ryy
8C/	.	.	.	.	.	(16a/L	.	8r	.	8r	.	.	.	.	.	.	.	.	.	.	.	.	.	.	.	.	.	.	.	.	.	.
.	.	.	.	.	.	16g/	.	.	.	.	.	.	.	.	.	.	.	.	.	.	.	.	.	.	.	.	.	.	.	.	.	.
8C/J	.	.	.	.	.	16f/)	.	8b-X/	.	8b-X\	p	.	.	.	.	.	.	.	.	.	.	.	.	.	.	.	.	.	.	.	.	.
.	.	.	.	.	.	16e/JJ	.	.	.	.	.	.	.	.	.	.	.	.	.	.	.	.	.	.	.	.	.	.	.	.	.	.
!	!	!	!	!LO:LB:g=original	!	!	!	!LO:LB:g=original	!	!	!	!	!	!	!	!	!	!	!	!	!	!	!	!	!	!	!	!	!	!	!	!
=120	=120	=120	=120	=120	=120	=120	=120	=120	=120	=120	=120	=120	=120	=120	=120	=120	=120	=120	=120	=120	=120	=120	=120	=120	=120	=120	=120	=120	=120	=120	=120	=120
!	!	!	!	!	!	!	!	!	!	!LO:TX:t=P:problem:mixed beam	!	!	!	!	!	!	!	!	!	!	!	!	!	!	!	!	!	!	!	!	!	!
8C/L	6 4	.	4.ryy	4.A/	.	[4.f/	.	8a/	.	8a/L	.	4.C/	pa-	.	4.F/	pa-	4.a\	pa-	.	4.ff\	pa-	.	8C/	.	4.c/	.	4.cc\	.	4.ryy	4.ryy	4.ryy	4.ryy
8C/	.	.	.	.	.	.	.	8ff\L	p	8ff\	.	.	.	.	.	.	.	.	.	.	.	.	8r	.	.	.	.	.	.	.	.	.
8C/J	.	.	.	.	.	.	.	8ff\J	.	8ff\J	.	.	.	.	.	.	.	.	.	.	.	.	8r	.	.	.	.	.	.	.	.	.
=121	=121	=121	=121	=121	=121	=121	=121	=121	=121	=121	=121	=121	=121	=121	=121	=121	=121	=121	=121	=121	=121	=121	=121	=121	=121	=121	=121	=121	=121	=121	=121	=121
8C/L	n7_ -6_ 4_	.	4.ryy	4.A-X/	.	4.f/]	.	16ff\LL	.	16ff\LL	.	4.C/	.	.	4.A-X/	.	4.f\	.	.	4.bn\	.	.	4.r	.	4.c/	.	4.cc\	.	4.ryy	4.ryy	4.ryy	4.ryy
.	.	.	.	.	.	.	.	16ee\	.	(16ee\	.	.	.	.	.	.	.	.	.	.	.	.	.	.	.	.	.	.	.	.	.	.
8C/	.	.	.	.	.	.	.	(16dd\	.	16dd\	.	.	.	.	.	.	.	.	.	.	.	.	.	.	.	.	.	.	.	.	.	.
.	.	.	.	.	.	.	.	16cc\	.	16cc\	.	.	.	.	.	.	.	.	.	.	.	.	.	.	.	.	.	.	.	.	.	.
8C/J	.	.	.	.	.	.	.	16bn\)	.	16bn\)	.	.	.	.	.	.	.	.	.	.	.	.	.	.	.	.	.	.	.	.	.	.
.	.	.	.	.	.	.	.	16dd\JJ	.	16dd\JJ	.	.	.	.	.	.	.	.	.	.	.	.	.	.	.	.	.	.	.	.	.	.
=122	=122	=122	=122	=122	=122	=122	=122	=122	=122	=122	=122	=122	=122	=122	=122	=122	=122	=122	=122	=122	=122	=122	=122	=122	=122	=122	=122	=122	=122	=122	=122	=122
!	!	!	!	!	!	!	!	!	!	!	!	!	!	!	!	!	!	!	!	!	!	!	!	!	!	!	!	!LO:HP:b:t=decrescendo.	!	!	!	!
8C/L	x 8_ 3_	.	4.ryy	4.G/	.	8e/L	.	8cc\	.	8cc\	.	8C/	-cem	.	8G/	-cem	8e\	-cem	.	8cc\	-cem	.	8C/	.	4.c/	.	4.cc\	>	4.ryy	4.ryy	4.ryy	4.ryy
8C/	.	.	.	.	.	8b-X/	.	8r	.	8r	.	8r	.	.	8r	.	8r	.	.	8r	.	.	8r	.	.	.	.	.	.	.	.	.
8C/J	.	.	.	.	.	8b-/J	.	8r	.	8r	.	8r	.	.	8r	.	8r	.	.	8r	.	.	8r	.	.	.	.	.	.	.	.	.
!	!	!	!	!	!	!	!	!	!	!	!	!	!	!	!LO:LB:g=original	!	!	!	!	!	!	!	!	!	!	!	!	!	!	!	!	!
=123	=123	=123	=123	=123	=123	=123	=123	=123	=123	=123	=123	=123	=123	=123	=123	=123	=123	=123	=123	=123	=123	=123	=123	=123	=123	=123	=123	=123	=123	=123	=123	=123
!	!	!	!	!	!	!LO:SIC:v:s=b-	!	!	!	!	!	!	!	!	!	!	!	!	!	!	!	!	!	!	!	!	!	!	!	!	!	!
8C/L	-7 3	.	4.ryy	4.G/	.	8b/L	.	8r	.	8r	.	4.C/	da	.	4.G/	da	4.b-X\	da	.	4.ee\	da	.	4.r	.	4.c/	.	4.cc\	.	4.ryy	4.ryy	4.ryy	4.ryy
8C/	.	.	.	.	.	(16a/L	.	8r	.	8r	.	.	.	.	.	.	.	.	.	.	.	.	.	.	.	.	.	.	.	.	.	.
.	.	.	.	.	.	16g/	.	.	.	.	.	.	.	.	.	.	.	.	.	.	.	.	.	.	.	.	.	.	.	.	.	.
8C/J	.	.	.	.	.	16f/	.	8b-X/	.	8b-X\	.	.	.	.	.	.	.	.	.	.	.	.	.	.	.	.	.	.	.	.	.	.
.	.	.	.	.	.	16e/JJ)	.	.	.	.	.	.	.	.	.	.	.	.	.	.	.	.	.	.	.	.	.	.	.	.	.	.
!LO:LB:g=original	!	!	!	!	!	!LO:LB:g=original	!	!	!	!	!	!	!	!	!	!	!	!	!	!LO:LB:g=original	!	!	!	!	!	!	!	!	!	!	!	!
=124	=124	=124	=124	=124	=124	=124	=124	=124	=124	=124	=124	=124	=124	=124	=124	=124	=124	=124	=124	=124	=124	=124	=124	=124	=124	=124	=124	=124	=124	=124	=124	=124
!	!	!	!	!	!LO:HP:t=decrescendo.	!	!	!	!	!LO:TX:t=P:problem:mixed beam	!	!	!	!	!	!	!	!	!	!	!	!	!	!	!	!	!	!	!	!	!	!
8C/L	6 4	.	4.ryy	4.An/	>	[4.f/	.	8a/	.	8a/L	.	4.C/	pa-	.	4.F/	pa-	4.a\	pa-	.	4.ff\	pa-	.	8C/	.	4.c/	.	4.cc\	.	4.ryy	4.ryy	4.ryy	4.ryy
8C/	.	.	.	.	.	.	.	8ff\L	.	8ff\	.	.	.	.	.	.	.	.	.	.	.	.	8r	.	.	.	.	.	.	.	.	.
8C/J	.	.	.	.	.	.	.	8ff\J	.	8ff\J	.	.	.	.	.	.	.	.	.	.	.	.	8r	.	.	.	.	.	.	.	.	.
!	!	!	!	!	!	!	!	!	!	!LO:LB:g=original	!	!	!	!	!	!	!	!	!	!	!	!	!	!	!	!	!	!	!	!	!	!
=125	=125	=125	=125	=125	=125	=125	=125	=125	=125	=125	=125	=125	=125	=125	=125	=125	=125	=125	=125	=125	=125	=125	=125	=125	=125	=125	=125	=125	=125	=125	=125	=125
8C/L	n7 -6 4	.	4.ryy	4.A-X/	.	4.f/]	.	16ff\LL	.	16ff\LL	.	4.C/	.	.	4.A-X/	.	4.f\	.	.	4.bn\	.	.	4.r	.	4.c/	.	4.cc\	.	4.ryy	4.ryy	4.ryy	4.ryy
.	.	.	.	.	.	.	.	(16ee\	.	(16ee\	.	.	.	.	.	.	.	.	.	.	.	.	.	.	.	.	.	.	.	.	.	.
8C/	.	.	.	.	.	.	.	16dd\	.	16dd\	.	.	.	.	.	.	.	.	.	.	.	.	.	.	.	.	.	.	.	.	.	.
.	.	.	.	.	.	.	.	16cc\	.	16cc\	.	.	.	.	.	.	.	.	.	.	.	.	.	.	.	.	.	.	.	.	.	.
8C/J	.	.	.	.	.	.	.	16bn\)	.	16b\)	.	.	.	.	.	.	.	.	.	.	.	.	.	.	.	.	.	.	.	.	.	.
.	.	.	.	.	.	.	.	16dd\JJ	.	16dd\JJ	.	.	.	.	.	.	.	.	.	.	.	.	.	.	.	.	.	.	.	.	.	.
!	!	!	!	!	!	!	!	!	!	!	!	!	!	!	!	!	!LO:LB:g=original	!	!	!	!	!	!	!	!	!	!	!	!	!	!	!
=126	=126	=126	=126	=126	=126	=126	=126	=126	=126	=126	=126	=126	=126	=126	=126	=126	=126	=126	=126	=126	=126	=126	=126	=126	=126	=126	=126	=126	=126	=126	=126	=126
!	!	!LO:HP:t=decrescendo	!	!	!	!	!	!	!	!	!	!	!	!	!	!	!	!	!	!	!	!	!	!	!	!	!	!	!	!	!	!
8C/	8 3	>	4.ryy	8G/	.	8e/	.	8cc\	.	8cc\	.	8C/	-cem.	.	8G/	-cem.	8e\	-cem.	.	8cc\	-cem.	.	8C/	pp	8c/	.	8cc\	.	4.ryy	4.ryy	4.ryy	4.ryy
!	!	!	!	!	!	!	!	!	!LO:HP:t=decreſcendo	!	!	!	!	!	!	!	!	!	!	!	!	!	!	!	!	!LO:HP:b:t=decrerscendo.	!	!	!	!	!	!
8r	.	.	.	8r	.	8r	.	8r	>	8r	.	8r	.	.	8r	.	8r	.	.	8r	.	.	8r	.	8r	>	8r	.	.	.	.	.
!	!	!	!	!	!	!	!	!	!	!	!LO:HP:t=decrescendo	!	!	!	!	!	!	!	!	!	!	!	!	!	!	!	!	!	!	!	!	!
8r	.	.	.	8r	.	8g/	.	8ee\	.	8ee\	>	8r	.	.	8r	.	8r	.	.	8r	.	.	8r	.	8r	.	8r	.	.	.	.	.
!	!	!	!	!LO:LB:g=original	!	!	!	!	!	!	!	!	!	!	!	!	!	!	!	!	!	!	!	!	!	!	!	!	!	!	!	!
=127	=127	=127	=127	=127	=127	=127	=127	=127	=127	=127	=127	=127	=127	=127	=127	=127	=127	=127	=127	=127	=127	=127	=127	=127	=127	=127	=127	=127	=127	=127	=127	=127
!	!	!	!	!	!	!	!	!	!	!	!	!	!	!	!	!	!LO:TX:a:t=3.	!	!	!	!	!	!	!	!	!	!	!	!	!	!	!
!	!	!	!	!	!	!	!LO:HP:b:t=decrescendo	!	!	!	!	!LO:N:vis=0	!	!	!LO:N:vis=0	!	!LO:N:vis=0	!	!	!LO:N:vis=0	!	!	!LO:N:vis=0	!	!	!	!	!	!	!	!	!
8C/	.	.	4.ryy	8G/	.	8e/	>	8cc\	.	8cc\	.	2.r	.	.	2.r	.	2.r	.	.	2.r	.	.	2.r	.	8e/	.	8cc\	.	4.ryy	4.ryy	4.ryy	4.ryy
8r	.	.	.	8r	.	8r	.	8r	.	8r	.	.	.	.	.	.	.	.	.	.	.	.	.	.	8r	.	8r	.	.	.	.	.
8r	.	.	.	8r	.	8g/	.	8ee\	pp	8ee\	.	.	.	.	.	.	.	.	.	.	.	.	.	.	8r	.	8r	.	.	.	.	.
!	!	!	!	!	!	!	!	!LO:LB:g=original	!	!	!	!	!	!	!	!	!	!	!	!	!	!	!	!	!LO:LB:g=original	!	!	!	!	!	!	!
=128	=128	=128	=128	=128	=128	=128	=128	=128	=128	=128	=128	=128	=128	=128	=128	=128	=128	=128	=128	=128	=128	=128	=128	=128	=128	=128	=128	=128	=128	=128	=128	=128
!	!	!LO:DY:rj	!	!	!	!	!	!	!	!	!	!	!	!	!	!	!	!	!	!	!	!	!	!	!	!	!	!	!	!	!	!
8C/	.	pp	4.ryy	8G/	pp	8e/	.	8cc\	.	8cc\	pp	.	.	.	.	.	.	.	.	.	.	.	.	.	8e/	pp	8cc\	.	4.ryy	4.ryy	4.ryy	4.ryy
8r	.	.	.	8r	.	8r	.	8r	.	8r	.	.	.	.	.	.	.	.	.	.	.	.	.	.	8r	.	8r	.	.	.	.	.
8r	.	.	.	8r	.	8g/	.	8ee\	.	8ee\	.	.	.	.	.	.	.	.	.	.	.	.	.	.	8r	.	8r	.	.	.	.	.
=129	=129	=129	=129	=129	=129	=129	=129	=129	=129	=129	=129	=129	=129	=129	=129	=129	=129	=129	=129	=129	=129	=129	=129	=129	=129	=129	=129	=129	=129	=129	=129	=129
!	!	!	!	!	!	!	!LO:DY:rj	!	!	!	!	!	!	!	!	!	!	!	!	!	!	!	!	!	!	!	!	!	!	!	!	!
8C/	.	.	4.ryy	8G/	.	8e/	pp	8cc\	.	8cc\	.	4.r	.	.	4.r	.	4.r	.	.	4.r	.	.	4.r	.	8e/	.	8cc\	.	4.ryy	4.ryy	4.ryy	4.ryy
8r	.	.	.	8r	.	8r	.	8r	.	8r	.	.	.	.	.	.	.	.	.	.	.	.	.	.	8r	.	8r	.	.	.	.	.
8r	.	.	.	8r	.	8r	.	8r	.	8r	.	.	.	.	.	.	.	.	.	.	.	.	.	.	8r	.	8r	.	.	.	.	.
==;;	==	==	==;;	==;;	==	==;;	==	==;;	==	==;;	==	==	==	==	==;;	==	==;;	==	==	==;;	==	==	==;;	==	==;;	==	==;;	==	==;;	==;;	==;;	==;;
*-	*-	*-	*-	*-	*-	*-	*-	*-	*-	*-	*-	*-	*-	*-	*-	*-	*-	*-	*-	*-	*-	*-	*-	*-	*-	*-	*-	*-	*-	*-	*-	*-
!!!system-decoration: [g1][g2]s7[g3][g4]s17
!!!RDF**dynam: p = "p:"
!!!RDF**dynam: f = "f:"
!!!RDF**dynam: pp = "pp:"
!!!ENC: Zofia Niedbalska
!!!END: 2021-01-08
!!!ENC: Marcin Jachim
!!!END: 2021-01-06
